P3
256 256
255
116 116 118 139 139 141 118 118 120 142 142 144 132 132 134 125 125 127 120 120 122 132 132 134 122 122 124 143 143 145 117 117 119 127 127 129 125 125 127 118 118 120 117 117 119 119 119 121 115 115 117 128 128 130 123 123 125 116 116 118 125 125 127 130 130 132 134 134 136 133 133 135 125 125 127 143 143 145 131 131 133 132 132 134 136 136 138 141 141 143 136 136 138 131 131 133 139 139 141 138 138 140 144 144 146 123 123 125 125 125 127 143 143 145 129 129 131 139 139 141 121 121 123 141 141 143 115 115 117 122 122 124 131 131 133 144 144 146 124 124 126 145 145 147 138 138 140 130 130 132 119 119 121 129 129 131 129 129 131 119 119 121 115 115 117 126 126 128 145 145 147 128 128 130 134 134 136 126 126 128 117 117 119 115 115 117 127 127 129 137 137 139 115 115 117 123 123 125 116 116 118 125 125 127 115 115 117 120 120 122 128 128 130 142 142 144 126 126 128 138 138 140 143 143 145 139 139 141 132 132 134 144 144 146 144 144 146 141 141 143 119 119 121 125 125 127 135 135 137 133 133 135 116 116 118 129 129 131 126 126 128 138 138 140 137 137 139 124 124 126 139 139 141 131 131 133 131 131 133 119 119 121 118 118 120 126 126 128 133 133 135 123 123 125 122 122 124 125 125 127 116 116 118 117 117 119 131 131 133 143 143 145 121 121 123 122 122 124 125 125 127 132 132 134 144 144 146 144 144 146 140 140 142 130 130 132 139 139 141 137 137 139 133 133 135 125 125 127 122 122 124 144 144 146 135 135 137 140 140 142 134 134 136 125 125 127 118 118 120 126 126 128 126 126 128 142 142 144 126 126 128 129 129 131 139 139 141 120 120 122 140 140 142 128 128 130 123 123 125 120 120 122 127 127 129 144 144 146 144 144 146 141 141 143 116 116 118 116 116 118 124 124 126 133 133 135 137 137 139 135 135 137 141 141 143 133 133 135 145 145 147 131 131 133 144 144 146 145 145 147 118 118 120 136 136 138 119 119 121 116 116 118 132 132 134 142 142 144 145 145 147 142 142 144 131 131 133 143 143 145 145 145 147 133 133 135 115 115 117 127 127 129 143 143 145 123 123 125 128 128 130 116 116 118 130 130 132 121 121 123 131 131 133 138 138 140 141 141 143 130 130 132 129 129 131 131 131 133 129 129 131 132 132 134 121 121 123 144 144 146 145 145 147 140 140 142 118 118 120 128 128 130 128 128 130 119 119 121 121 121 123 122 122 124 122 122 124 117 117 119 115 115 117 135 135 137 115 115 117 145 145 147 143 143 145 128 128 130 144 144 146 118 118 120 135 135 137 121 121 123 138 138 140 119 119 121 128 128 130 136 136 138 127 127 129 127 127 129 143 143 145 116 116 118 130 130 132 144 144 146 118 118 120 142 142 144 134 134 136 131 131 133 126 126 128 144 144 146 131 131 133 139 139 141 136 136 138 117 117 119 121 121 123 120 120 122 143 143 145 142 142 144 120 120 122 117 117 119 118 118 120 129 129 131 121 121 123 116 116 118 118 118 120 117 117 119 116 116 118 145 145 147 121 121 123 122 122 124 125 125 127 117 117 119 124 124 126 127 127 129 122 122 124 116 116 118 118 118 120 124 124 126 132 132 134 140 140 142 143 143 145 142 142 144 132 132 134 128 128 130 132 132 134 135 135 137 128 128 130 134 134 136 125 125 127 115 115 117 
131 131 133 135 135 137 127 127 129 134 134 136 142 142 144 134 134 136 132 132 134 135 135 137 121 121 123 126 126 128 130 130 132 143 143 145 132 132 134 115 115 117 115 115 117 143 143 145 120 120 122 126 126 128 119 119 121 134 134 136 118 118 120 117 117 119 144 144 146 119 119 121 117 117 119 131 131 133 142 142 144 132 132 134 144 144 146 140 140 142 142 142 144 136 136 138 145 145 147 117 117 119 134 134 136 139 139 141 127 127 129 143 143 145 145 145 147 141 141 143 127 127 129 121 121 123 115 115 117 119 119 121 117 117 119 123 123 125 139 139 141 141 141 143 142 142 144 140 140 142 123 123 125 135 135 137 137 137 139 124 124 126 132 132 134 125 125 127 136 136 138 124 124 126 121 121 123 130 130 132 117 117 119 140 140 142 120 120 122 132 132 134 141 141 143 133 133 135 127 127 129 141 141 143 137 137 139 126 126 128 141 141 143 117 117 119 145 145 147 124 124 126 121 121 123 119 119 121 131 131 133 137 137 139 128 128 130 143 143 145 127 127 129 120 120 122 127 127 129 136 136 138 117 117 119 119 119 121 135 135 137 137 137 139 124 124 126 128 128 130 124 124 126 120 120 122 142 142 144 132 132 134 142 142 144 143 143 145 137 137 139 139 139 141 136 136 138 129 129 131 122 122 124 141 141 143 115 115 117 140 140 142 126 126 128 124 124 126 139 139 141 133 133 135 125 125 127 116 116 118 133 133 135 140 140 142 128 128 130 143 143 145 136 136 138 122 122 124 119 119 121 137 137 139 144 144 146 131 131 133 143 143 145 131 131 133 125 125 127 135 135 137 140 140 142 139 139 141 123 123 125 130 130 132 118 118 120 141 141 143 131 131 133 119 119 121 116 116 118 140 140 142 136 136 138 138 138 140 139 139 141 122 122 124 135 135 137 130 130 132 115 115 117 123 123 125 136 136 138 129 129 131 128 128 130 143 143 145 125 125 127 128 128 130 137 137 139 125 125 127 115 115 117 137 137 139 126 126 128 122 122 124 132 132 134 144 144 146 138 138 140 133 133 135 136 136 138 120 120 122 129 129 131 136 136 138 128 128 130 115 115 117 135 135 137 123 123 125 126 126 128 136 136 138 121 121 123 118 118 120 131 131 133 130 130 132 127 127 129 117 117 119 120 120 122 125 125 127 138 138 140 127 127 129 131 131 133 118 118 120 117 117 119 126 126 128 117 117 119 128 128 130 135 135 137 144 144 146 145 145 147 116 116 118 118 118 120 145 145 147 127 127 129 138 138 140 126 126 128 134 134 136 115 115 117 131 131 133 141 141 143 124 124 126 124 124 126 134 134 136 122 122 124 142 142 144 130 130 132 121 121 123 137 137 139 122 122 124 144 144 146 121 121 123 140 140 142 135 135 137 140 140 142 128 128 130 124 124 126 127 127 129 118 118 120 134 134 136 127 127 129 134 134 136 122 122 124 120 120 122 140 140 142 136 136 138 134 134 136 124 124 126 131 131 133 137 137 139 138 138 140 133 133 135 117 117 119 137 137 139 119 119 121 126 126 128 119 119 121 145 145 147 128 128 130 129 129 131 122 122 124 121 121 123 133 133 135 139 139 141 144 144 146 121 121 123 115 115 117 139 139 141 136 136 138 125 125 127 122 122 124 121 121 123 144 144 146 120 120 122 132 132 134 134 134 136 135 135 137 143 143 145 136 136 138 129 129 131 
133 133 135 127 127 129 134 134 136 128 128 130 134 134 136 133 133 135 122 122 124 136 136 138 131 131 133 136 136 138 145 145 147 120 120 122 122 122 124 138 138 140 124 124 126 137 137 139 138 138 140 144 144 146 122 122 124 140 140 142 134 134 136 137 137 139 117 117 119 123 123 125 123 123 125 119 119 121 121 121 123 137 137 139 128 128 130 130 130 132 129 129 131 117 117 119 124 124 126 129 129 131 119 119 121 119 119 121 138 138 140 142 142 144 137 137 139 126 126 128 118 118 120 126 126 128 137 137 139 133 133 135 118 118 120 137 137 139 141 141 143 127 127 129 122 122 124 136 136 138 138 138 140 119 119 121 136 136 138 138 138 140 126 126 128 123 123 125 126 126 128 139 139 141 137 137 139 135 135 137 144 144 146 130 130 132 134 134 136 145 145 147 129 129 131 134 134 136 137 137 139 129 129 131 136 136 138 115 115 117 140 140 142 130 130 132 139 139 141 120 120 122 119 119 121 123 123 125 132 132 134 127 127 129 123 123 125 137 137 139 140 140 142 122 122 124 129 129 131 124 124 126 144 144 146 145 145 147 145 145 147 132 132 134 134 134 136 122 122 124 139 139 141 118 118 120 116 116 118 134 134 136 144 144 146 142 142 144 121 121 123 137 137 139 117 117 119 131 131 133 135 135 137 135 135 137 125 125 127 140 140 142 121 121 123 121 121 123 116 116 118 131 131 133 135 135 137 123 123 125 124 124 126 141 141 143 119 119 121 117 117 119 135 135 137 126 126 128 129 129 131 137 137 139 126 126 128 142 142 144 135 135 137 145 145 147 138 138 140 118 118 120 121 121 123 145 145 147 124 124 126 122 122 124 135 135 137 133 133 135 144 144 146 137 137 139 123 123 125 130 130 132 133 133 135 129 129 131 117 117 119 119 119 121 138 138 140 126 126 128 130 130 132 121 121 123 121 121 123 120 120 122 119 119 121 128 128 130 133 133 135 127 127 129 144 144 146 138 138 140 133 133 135 134 134 136 145 145 147 120 120 122 142 142 144 125 125 127 127 127 129 145 145 147 132 132 134 135 135 137 145 145 147 141 141 143 120 120 122 126 126 128 133 133 135 116 116 118 128 128 130 139 139 141 140 140 142 115 115 117 134 134 136 116 116 118 120 120 122 118 118 120 135 135 137 123 123 125 139 139 141 115 115 117 131 131 133 125 125 127 137 137 139 145 145 147 130 130 132 136 136 138 118 118 120 129 129 131 138 138 140 142 142 144 117 117 119 129 129 131 122 122 124 119 119 121 122 122 124 142 142 144 139 139 141 118 118 120 115 115 117 126 126 128 143 143 145 131 131 133 115 115 117 137 137 139 123 123 125 136 136 138 135 135 137 127 127 129 142 142 144 129 129 131 121 121 123 130 130 132 140 140 142 141 141 143 143 143 145 121 121 123 137 137 139 138 138 140 132 132 134 121 121 123 138 138 140 119 119 121 142 142 144 120 120 122 133 133 135 124 124 126 117 117 119 142 142 144 142 142 144 142 142 144 123 123 125 138 138 140 129 129 131 119 119 121 119 119 121 134 134 136 144 144 146 124 124 126 132 132 134 143 143 145 135 135 137 133 133 135 120 120 122 122 122 124 129 129 131 117 117 119 142 142 144 127 127 129 127 127 129 132 132 134 132 132 134 123 123 125 132 132 134 138 138 140 131 131 133 136 136 138 130 130 132 119 119 121 
129 129 131 118 118 120 123 123 125 122 122 124 134 134 136 133 133 135 125 125 127 144 144 146 124 124 126 144 144 146 133 133 135 143 143 145 126 126 128 141 141 143 123 123 125 122 122 124 136 136 138 129 129 131 121 121 123 120 120 122 136 136 138 125 125 127 117 117 119 141 141 143 145 145 147 129 129 131 115 115 117 134 134 136 137 137 139 128 128 130 124 124 126 139 139 141 116 116 118 122 122 124 143 143 145 115 115 117 126 126 128 119 119 121 128 128 130 138 138 140 143 143 145 121 121 123 141 141 143 141 141 143 118 118 120 145 145 147 142 142 144 132 132 134 115 115 117 117 117 119 145 145 147 141 141 143 139 139 141 131 131 133 137 137 139 130 130 132 142 142 144 134 134 136 143 143 145 134 134 136 138 138 140 115 115 117 120 120 122 124 124 126 130 130 132 142 142 144 134 134 136 143 143 145 138 138 140 119 119 121 139 139 141 133 133 135 125 125 127 143 143 145 136 136 138 121 121 123 145 145 147 128 128 130 142 142 144 141 141 143 141 141 143 145 145 147 122 122 124 127 127 129 132 132 134 126 126 128 121 121 123 122 122 124 141 141 143 140 140 142 144 144 146 120 120 122 124 124 126 138 138 140 133 133 135 124 124 126 128 128 130 115 115 117 127 127 129 141 141 143 133 133 135 133 133 135 129 129 131 145 145 147 119 119 121 139 139 141 117 117 119 136 136 138 121 121 123 116 116 118 141 141 143 128 128 130 134 134 136 144 144 146 124 124 126 133 133 135 133 133 135 132 132 134 130 130 132 132 132 134 124 124 126 115 115 117 132 132 134 138 138 140 123 123 125 132 132 134 132 132 134 145 145 147 134 134 136 116 116 118 123 123 125 132 132 134 134 134 136 121 121 123 121 121 123 129 129 131 122 122 124 144 144 146 134 134 136 125 125 127 137 137 139 130 130 132 135 135 137 126 126 128 142 142 144 126 126 128 138 138 140 135 135 137 143 143 145 143 143 145 123 123 125 137 137 139 136 136 138 122 122 124 137 137 139 142 142 144 133 133 135 144 144 146 130 130 132 126 126 128 128 128 130 139 139 141 142 142 144 134 134 136 143 143 145 119 119 121 124 124 126 144 144 146 123 123 125 118 118 120 130 130 132 145 145 147 126 126 128 135 135 137 142 142 144 117 117 119 145 145 147 135 135 137 137 137 139 137 137 139 144 144 146 116 116 118 131 131 133 116 116 118 115 115 117 132 132 134 139 139 141 125 125 127 138 138 140 122 122 124 127 127 129 125 125 127 128 128 130 142 142 144 141 141 143 142 142 144 135 135 137 117 117 119 138 138 140 126 126 128 143 143 145 129 129 131 128 128 130 116 116 118 135 135 137 142 142 144 141 141 143 121 121 123 142 142 144 143 143 145 116 116 118 139 139 141 129 129 131 117 117 119 130 130 132 122 122 124 144 144 146 131 131 133 125 125 127 126 126 128 116 116 118 141 141 143 138 138 140 131 131 133 126 126 128 130 130 132 144 144 146 125 125 127 120 120 122 138 138 140 138 138 140 124 124 126 139 139 141 141 141 143 143 143 145 130 130 132 127 127 129 125 125 127 139 139 141 121 121 123 125 125 127 142 142 144 144 144 146 138 138 140 139 139 141 144 144 146 115 115 117 124 124 126 131 131 133 120 120 122 135 135 137 136 136 138 138 138 140 144 144 146 126 126 128 125 125 127 
121 121 123 127 127 129 130 130 132 121 121 123 124 124 126 119 119 121 127 127 129 141 141 143 136 136 138 118 118 120 129 129 131 116 116 118 122 122 124 135 135 137 134 134 136 140 140 142 118 118 120 115 115 117 132 132 134 125 125 127 132 132 134 126 126 128 125 125 127 129 129 131 117 117 119 128 128 130 121 121 123 123 123 125 125 125 127 119 119 121 120 120 122 124 124 126 141 141 143 131 131 133 142 142 144 141 141 143 144 144 146 142 142 144 143 143 145 122 122 124 139 139 141 136 136 138 140 140 142 116 116 118 115 115 117 119 119 121 137 137 139 118 118 120 138 138 140 143 143 145 115 115 117 131 131 133 120 120 122 127 127 129 122 122 124 130 130 132 116 116 118 130 130 132 141 141 143 122 122 124 117 117 119 139 139 141 128 128 130 134 134 136 137 137 139 143 143 145 123 123 125 144 144 146 123 123 125 130 130 132 140 140 142 136 136 138 115 115 117 122 122 124 132 132 134 119 119 121 137 137 139 120 120 122 129 129 131 138 138 140 135 135 137 144 144 146 128 128 130 127 127 129 136 136 138 134 134 136 130 130 132 126 126 128 126 126 128 124 124 126 143 143 145 125 125 127 142 142 144 127 127 129 139 139 141 134 134 136 138 138 140 144 144 146 125 125 127 139 139 141 130 130 132 142 142 144 124 124 126 133 133 135 134 134 136 120 120 122 123 123 125 115 115 117 117 117 119 145 145 147 142 142 144 116 116 118 138 138 140 128 128 130 131 131 133 145 145 147 135 135 137 121 121 123 130 130 132 126 126 128 142 142 144 134 134 136 135 135 137 129 129 131 135 135 137 122 122 124 135 135 137 134 134 136 128 128 130 122 122 124 120 120 122 131 131 133 123 123 125 124 124 126 117 117 119 137 137 139 124 124 126 116 116 118 117 117 119 135 135 137 145 145 147 130 130 132 117 117 119 133 133 135 127 127 129 121 121 123 129 129 131 133 133 135 138 138 140 122 122 124 139 139 141 126 126 128 117 117 119 130 130 132 119 119 121 135 135 137 131 131 133 143 143 145 131 131 133 124 124 126 133 133 135 127 127 129 133 133 135 116 116 118 137 137 139 122 122 124 142 142 144 134 134 136 116 116 118 144 144 146 138 138 140 117 117 119 142 142 144 118 118 120 129 129 131 117 117 119 143 143 145 138 138 140 120 120 122 123 123 125 118 118 120 117 117 119 141 141 143 121 121 123 125 125 127 127 127 129 128 128 130 121 121 123 124 124 126 122 122 124 124 124 126 135 135 137 128 128 130 139 139 141 144 144 146 128 128 130 127 127 129 133 133 135 130 130 132 139 139 141 139 139 141 125 125 127 142 142 144 143 143 145 123 123 125 145 145 147 120 120 122 142 142 144 116 116 118 122 122 124 125 125 127 130 130 132 130 130 132 143 143 145 142 142 144 130 130 132 139 139 141 118 118 120 141 141 143 136 136 138 122 122 124 122 122 124 139 139 141 122 122 124 128 128 130 141 141 143 115 115 117 132 132 134 138 138 140 143 143 145 138 138 140 145 145 147 125 125 127 125 125 127 128 128 130 123 123 125 130 130 132 142 142 144 134 134 136 119 119 121 118 118 120 137 137 139 131 131 133 140 140 142 135 135 137 141 141 143 143 143 145 134 134 136 115 115 117 115 115 117 142 142 144 121 121 123 128 128 130 115 115 117 117 117 119 119 119 121 
136 136 138 132 132 134 128 128 130 122 122 124 140 140 142 119 119 121 122 122 124 144 144 146 118 118 120 125 125 127 117 117 119 130 130 132 134 134 136 117 117 119 135 135 137 136 136 138 120 120 122 127 127 129 120 120 122 126 126 128 137 137 139 140 140 142 142 142 144 119 119 121 115 115 117 140 140 142 144 144 146 119 119 121 127 127 129 133 133 135 121 121 123 139 139 141 134 134 136 138 138 140 141 141 143 138 138 140 125 125 127 137 137 139 128 128 130 136 136 138 115 115 117 144 144 146 135 135 137 118 118 120 129 129 131 141 141 143 133 133 135 125 125 127 136 136 138 134 134 136 139 139 141 138 138 140 144 144 146 121 121 123 118 118 120 135 135 137 124 124 126 128 128 130 132 132 134 119 119 121 130 130 132 120 120 122 143 143 145 119 119 121 119 119 121 122 122 124 143 143 145 143 143 145 131 131 133 116 116 118 130 130 132 138 138 140 134 134 136 115 115 117 123 123 125 141 141 143 129 129 131 121 121 123 118 118 120 137 137 139 133 133 135 140 140 142 123 123 125 131 131 133 131 131 133 145 145 147 143 143 145 120 120 122 122 122 124 118 118 120 140 140 142 133 133 135 126 126 128 133 133 135 118 118 120 124 124 126 140 140 142 133 133 135 140 140 142 141 141 143 144 144 146 121 121 123 115 115 117 119 119 121 132 132 134 140 140 142 145 145 147 129 129 131 122 122 124 127 127 129 145 145 147 117 117 119 120 120 122 133 133 135 119 119 121 131 131 133 128 128 130 122 122 124 136 136 138 131 131 133 133 133 135 119 119 121 118 118 120 119 119 121 116 116 118 145 145 147 118 118 120 134 134 136 140 140 142 138 138 140 137 137 139 115 115 117 126 126 128 130 130 132 138 138 140 141 141 143 116 116 118 121 121 123 119 119 121 127 127 129 145 145 147 139 139 141 134 134 136 118 118 120 131 131 133 132 132 134 127 127 129 124 124 126 125 125 127 144 144 146 137 137 139 141 141 143 124 124 126 135 135 137 115 115 117 116 116 118 145 145 147 135 135 137 127 127 129 126 126 128 133 133 135 117 117 119 144 144 146 124 124 126 138 138 140 145 145 147 129 129 131 129 129 131 130 130 132 145 145 147 118 118 120 140 140 142 136 136 138 126 126 128 144 144 146 143 143 145 128 128 130 139 139 141 131 131 133 120 120 122 128 128 130 141 141 143 116 116 118 128 128 130 130 130 132 134 134 136 129 129 131 127 127 129 122 122 124 121 121 123 116 116 118 125 125 127 144 144 146 130 130 132 142 142 144 127 127 129 132 132 134 134 134 136 119 119 121 120 120 122 129 129 131 142 142 144 119 119 121 124 124 126 135 135 137 115 115 117 145 145 147 131 131 133 126 126 128 140 140 142 139 139 141 144 144 146 131 131 133 143 143 145 135 135 137 121 121 123 116 116 118 126 126 128 117 117 119 117 117 119 143 143 145 118 118 120 129 129 131 144 144 146 129 129 131 129 129 131 133 133 135 143 143 145 138 138 140 143 143 145 136 136 138 115 115 117 122 122 124 124 124 126 121 121 123 118 118 120 125 125 127 144 144 146 135 135 137 120 120 122 120 120 122 118 118 120 115 115 117 132 132 134 143 143 145 117 117 119 123 123 125 116 116 118 135 135 137 136 136 138 122 122 124 132 132 134 144 144 146 124 124 126 143 143 145 145 145 147 
136 136 138 142 142 144 121 121 123 116 116 118 124 124 126 117 117 119 115 115 117 123 123 125 141 141 143 137 137 139 118 118 120 128 128 130 142 142 144 127 127 129 134 134 136 115 115 117 130 130 132 123 123 125 129 129 131 130 130 132 135 135 137 140 140 142 128 128 130 121 121 123 141 141 143 141 141 143 125 125 127 122 122 124 124 124 126 127 127 129 125 125 127 116 116 118 128 128 130 133 133 135 132 132 134 127 127 129 142 142 144 143 143 145 130 130 132 138 138 140 138 138 140 118 118 120 122 122 124 127 127 129 125 125 127 137 137 139 132 132 134 139 139 141 127 127 129 128 128 130 129 129 131 142 142 144 129 129 131 127 127 129 115 115 117 140 140 142 123 123 125 133 133 135 141 141 143 116 116 118 118 118 120 135 135 137 139 139 141 121 121 123 123 123 125 117 117 119 141 141 143 128 128 130 133 133 135 144 144 146 122 122 124 143 143 145 144 144 146 135 135 137 134 134 136 134 134 136 129 129 131 121 121 123 127 127 129 130 130 132 132 132 134 135 135 137 129 129 131 119 119 121 115 115 117 124 124 126 142 142 144 129 129 131 116 116 118 117 117 119 123 123 125 137 137 139 128 128 130 119 119 121 125 125 127 124 124 126 143 143 145 119 119 121 125 125 127 124 124 126 143 143 145 144 144 146 140 140 142 143 143 145 119 119 121 126 126 128 125 125 127 145 145 147 127 127 129 117 117 119 121 121 123 141 141 143 119 119 121 117 117 119 119 119 121 127 127 129 143 143 145 143 143 145 120 120 122 137 137 139 133 133 135 128 128 130 116 116 118 140 140 142 132 132 134 139 139 141 123 123 125 133 133 135 141 141 143 121 121 123 124 124 126 143 143 145 121 121 123 129 129 131 145 145 147 127 127 129 136 136 138 132 132 134 117 117 119 118 118 120 124 124 126 120 120 122 124 124 126 144 144 146 136 136 138 125 125 127 131 131 133 118 118 120 122 122 124 144 144 146 138 138 140 138 138 140 121 121 123 118 118 120 128 128 130 141 141 143 143 143 145 138 138 140 129 129 131 135 135 137 140 140 142 134 134 136 123 123 125 121 121 123 126 126 128 116 116 118 144 144 146 118 118 120 115 115 117 132 132 134 140 140 142 124 124 126 132 132 134 133 133 135 133 133 135 123 123 125 137 137 139 128 128 130 129 129 131 124 124 126 133 133 135 144 144 146 115 115 117 130 130 132 121 121 123 121 121 123 115 115 117 125 125 127 132 132 134 123 123 125 134 134 136 139 139 141 133 133 135 136 136 138 145 145 147 131 131 133 138 138 140 117 117 119 139 139 141 125 125 127 141 141 143 124 124 126 138 138 140 130 130 132 141 141 143 143 143 145 130 130 132 137 137 139 139 139 141 115 115 117 117 117 119 122 122 124 118 118 120 128 128 130 145 145 147 125 125 127 117 117 119 130 130 132 135 135 137 141 141 143 131 131 133 132 132 134 122 122 124 142 142 144 133 133 135 133 133 135 115 115 117 135 135 137 120 120 122 120 120 122 134 134 136 115 115 117 121 121 123 124 124 126 137 137 139 116 116 118 132 132 134 125 125 127 118 118 120 139 139 141 140 140 142 141 141 143 123 123 125 118 118 120 125 125 127 124 124 126 133 133 135 137 137 139 121 121 123 124 124 126 118 118 120 136 136 138 130 130 132 133 133 135 116 116 118 121 121 123 
115 115 117 143 143 145 115 115 117 127 127 129 129 129 131 118 118 120 129 129 131 120 120 122 126 126 128 115 115 117 125 125 127 134 134 136 139 139 141 130 130 132 118 118 120 138 138 140 132 132 134 125 125 127 130 130 132 142 142 144 143 143 145 125 125 127 120 120 122 120 120 122 139 139 141 134 134 136 128 128 130 123 123 125 123 123 125 120 120 122 133 133 135 139 139 141 139 139 141 125 125 127 142 142 144 137 137 139 119 119 121 138 138 140 124 124 126 126 126 128 127 127 129 144 144 146 133 133 135 132 132 134 124 124 126 129 129 131 116 116 118 139 139 141 143 143 145 119 119 121 143 143 145 118 118 120 126 126 128 132 132 134 131 131 133 145 145 147 125 125 127 144 144 146 126 126 128 130 130 132 134 134 136 115 115 117 127 127 129 125 125 127 142 142 144 115 115 117 137 137 139 130 130 132 131 131 133 144 144 146 140 140 142 132 132 134 135 135 137 140 140 142 120 120 122 119 119 121 118 118 120 132 132 134 126 126 128 134 134 136 145 145 147 137 137 139 144 144 146 126 126 128 120 120 122 127 127 129 142 142 144 117 117 119 116 116 118 142 142 144 129 129 131 140 140 142 132 132 134 144 144 146 118 118 120 139 139 141 134 134 136 130 130 132 130 130 132 132 132 134 118 118 120 143 143 145 144 144 146 122 122 124 125 125 127 127 127 129 124 124 126 140 140 142 137 137 139 136 136 138 117 117 119 127 127 129 136 136 138 116 116 118 141 141 143 116 116 118 142 142 144 141 141 143 133 133 135 128 128 130 141 141 143 139 139 141 143 143 145 120 120 122 119 119 121 117 117 119 119 119 121 123 123 125 119 119 121 118 118 120 127 127 129 122 122 124 140 140 142 131 131 133 133 133 135 117 117 119 134 134 136 133 133 135 128 128 130 116 116 118 117 117 119 136 136 138 138 138 140 134 134 136 144 144 146 144 144 146 144 144 146 119 119 121 117 117 119 142 142 144 116 116 118 144 144 146 142 142 144 139 139 141 131 131 133 141 141 143 126 126 128 132 132 134 135 135 137 126 126 128 132 132 134 125 125 127 145 145 147 119 119 121 134 134 136 144 144 146 128 128 130 134 134 136 129 129 131 136 136 138 119 119 121 142 142 144 128 128 130 122 122 124 127 127 129 137 137 139 129 129 131 144 144 146 122 122 124 121 121 123 115 115 117 126 126 128 115 115 117 126 126 128 122 122 124 128 128 130 121 121 123 132 132 134 131 131 133 129 129 131 135 135 137 126 126 128 137 137 139 133 133 135 119 119 121 124 124 126 118 118 120 131 131 133 126 126 128 145 145 147 132 132 134 125 125 127 139 139 141 132 132 134 144 144 146 142 142 144 136 136 138 141 141 143 121 121 123 133 133 135 141 141 143 117 117 119 134 134 136 128 128 130 135 135 137 126 126 128 135 135 137 118 118 120 145 145 147 126 126 128 130 130 132 125 125 127 130 130 132 142 142 144 127 127 129 128 128 130 131 131 133 126 126 128 121 121 123 144 144 146 121 121 123 122 122 124 126 126 128 123 123 125 143 143 145 136 136 138 125 125 127 145 145 147 132 132 134 124 124 126 128 128 130 124 124 126 121 121 123 123 123 125 138 138 140 133 133 135 130 130 132 126 126 128 119 119 121 118 118 120 121 121 123 144 144 146 133 133 135 116 116 118 124 124 126 117 117 119 
115 115 117 126 126 128 135 135 137 127 127 129 117 117 119 138 138 140 132 132 134 139 139 141 143 143 145 118 118 120 138 138 140 142 142 144 136 136 138 136 136 138 144 144 146 136 136 138 138 138 140 144 144 146 117 117 119 138 138 140 136 136 138 123 123 125 124 124 126 116 116 118 136 136 138 123 123 125 127 127 129 137 137 139 121 121 123 144 144 146 134 134 136 137 137 139 118 118 120 133 133 135 116 116 118 132 132 134 127 127 129 133 133 135 129 129 131 144 144 146 134 134 136 141 141 143 119 119 121 139 139 141 145 145 147 145 145 147 137 137 139 131 131 133 144 144 146 123 123 125 122 122 124 122 122 124 133 133 135 129 129 131 129 129 131 121 121 123 142 142 144 135 135 137 135 135 137 127 127 129 121 121 123 121 121 123 134 134 136 139 139 141 120 120 122 145 145 147 144 144 146 141 141 143 116 116 118 119 119 121 132 132 134 123 123 125 123 123 125 141 141 143 137 137 139 137 137 139 143 143 145 118 118 120 120 120 122 128 128 130 139 139 141 141 141 143 145 145 147 115 115 117 126 126 128 128 128 130 129 129 131 124 124 126 137 137 139 126 126 128 142 142 144 120 120 122 131 131 133 139 139 141 122 122 124 139 139 141 124 124 126 134 134 136 125 125 127 125 125 127 129 129 131 121 121 123 141 141 143 119 119 121 133 133 135 124 124 126 145 145 147 120 120 122 123 123 125 124 124 126 142 142 144 143 143 145 127 127 129 139 139 141 126 126 128 131 131 133 145 145 147 124 124 126 118 118 120 125 125 127 145 145 147 116 116 118 143 143 145 141 141 143 130 130 132 143 143 145 121 121 123 123 123 125 138 138 140 144 144 146 145 145 147 137 137 139 143 143 145 142 142 144 126 126 128 140 140 142 128 128 130 128 128 130 115 115 117 115 115 117 143 143 145 119 119 121 140 140 142 115 115 117 126 126 128 145 145 147 140 140 142 125 125 127 118 118 120 115 115 117 137 137 139 139 139 141 139 139 141 136 136 138 136 136 138 126 126 128 136 136 138 127 127 129 130 130 132 132 132 134 118 118 120 133 133 135 121 121 123 129 129 131 118 118 120 123 123 125 123 123 125 139 139 141 130 130 132 119 119 121 134 134 136 127 127 129 138 138 140 136 136 138 139 139 141 126 126 128 142 142 144 137 137 139 121 121 123 132 132 134 123 123 125 127 127 129 128 128 130 141 141 143 137 137 139 122 122 124 142 142 144 135 135 137 140 140 142 137 137 139 143 143 145 132 132 134 115 115 117 124 124 126 121 121 123 120 120 122 123 123 125 142 142 144 131 131 133 120 120 122 140 140 142 115 115 117 131 131 133 116 116 118 117 117 119 142 142 144 139 139 141 121 121 123 133 133 135 119 119 121 126 126 128 136 136 138 120 120 122 122 122 124 135 135 137 129 129 131 126 126 128 125 125 127 145 145 147 135 135 137 127 127 129 120 120 122 127 127 129 121 121 123 135 135 137 135 135 137 133 133 135 144 144 146 124 124 126 139 139 141 139 139 141 122 122 124 140 140 142 140 140 142 126 126 128 119 119 121 125 125 127 120 120 122 117 117 119 143 143 145 132 132 134 134 134 136 132 132 134 139 139 141 129 129 131 137 137 139 137 137 139 130 130 132 142 142 144 129 129 131 136 136 138 125 125 127 133 133 135 121 121 123 126 126 128 135 135 137 
131 131 133 135 135 137 116 116 118 139 139 141 137 137 139 126 126 128 139 139 141 126 126 128 127 127 129 129 129 131 136 136 138 130 130 132 133 133 135 141 141 143 133 133 135 143 143 145 124 124 126 139 139 141 122 122 124 135 135 137 136 136 138 115 115 117 121 121 123 132 132 134 120 120 122 140 140 142 138 138 140 141 141 143 129 129 131 119 119 121 124 124 126 122 122 124 126 126 128 143 143 145 119 119 121 138 138 140 125 125 127 129 129 131 122 122 124 142 142 144 136 136 138 134 134 136 135 135 137 121 121 123 122 122 124 115 115 117 135 135 137 137 137 139 116 116 118 117 117 119 116 116 118 134 134 136 142 142 144 140 140 142 120 120 122 124 124 126 127 127 129 136 136 138 117 117 119 132 132 134 139 139 141 120 120 122 139 139 141 128 128 130 130 130 132 131 131 133 139 139 141 123 123 125 138 138 140 125 125 127 116 116 118 141 141 143 116 116 118 117 117 119 119 119 121 125 125 127 117 117 119 129 129 131 141 141 143 141 141 143 118 118 120 120 120 122 117 117 119 124 124 126 140 140 142 134 134 136 130 130 132 119 119 121 142 142 144 127 127 129 141 141 143 120 120 122 121 121 123 128 128 130 137 137 139 127 127 129 126 126 128 138 138 140 135 135 137 127 127 129 141 141 143 116 116 118 120 120 122 142 142 144 121 121 123 139 139 141 144 144 146 131 131 133 140 140 142 145 145 147 125 125 127 118 118 120 142 142 144 136 136 138 140 140 142 141 141 143 115 115 117 144 144 146 136 136 138 145 145 147 144 144 146 116 116 118 132 132 134 130 130 132 139 139 141 134 134 136 134 134 136 143 143 145 141 141 143 142 142 144 135 135 137 144 144 146 133 133 135 123 123 125 133 133 135 143 143 145 142 142 144 137 137 139 143 143 145 118 118 120 126 126 128 117 117 119 144 144 146 144 144 146 129 129 131 120 120 122 118 118 120 120 120 122 124 124 126 136 136 138 118 118 120 139 139 141 136 136 138 136 136 138 132 132 134 140 140 142 137 137 139 141 141 143 137 137 139 133 133 135 140 140 142 121 121 123 124 124 126 119 119 121 127 127 129 131 131 133 138 138 140 143 143 145 116 116 118 132 132 134 143 143 145 143 143 145 117 117 119 120 120 122 140 140 142 127 127 129 145 145 147 130 130 132 133 133 135 135 135 137 119 119 121 140 140 142 117 117 119 145 145 147 122 122 124 134 134 136 124 124 126 140 140 142 144 144 146 117 117 119 126 126 128 128 128 130 119 119 121 145 145 147 141 141 143 137 137 139 124 124 126 142 142 144 139 139 141 145 145 147 145 145 147 143 143 145 144 144 146 140 140 142 128 128 130 140 140 142 120 120 122 126 126 128 131 131 133 137 137 139 141 141 143 131 131 133 121 121 123 130 130 132 134 134 136 139 139 141 134 134 136 115 115 117 127 127 129 141 141 143 130 130 132 116 116 118 122 122 124 142 142 144 127 127 129 124 124 126 119 119 121 116 116 118 134 134 136 116 116 118 132 132 134 130 130 132 115 115 117 136 136 138 134 134 136 120 120 122 136 136 138 143 143 145 145 145 147 119 119 121 124 124 126 117 117 119 122 122 124 116 116 118 129 129 131 130 130 132 139 139 141 125 125 127 138 138 140 133 133 135 136 136 138 121 121 123 135 135 137 117 117 119 118 118 120 140 140 142 
134 134 136 115 115 117 120 120 122 143 143 145 126 126 128 120 120 122 139 139 141 115 115 117 124 124 126 136 136 138 130 130 132 145 145 147 144 144 146 136 136 138 120 120 122 121 121 123 126 126 128 120 120 122 122 122 124 127 127 129 116 116 118 117 117 119 119 119 121 121 121 123 132 132 134 136 136 138 126 126 128 137 137 139 140 140 142 143 143 145 120 120 122 130 130 132 131 131 133 125 125 127 129 129 131 130 130 132 141 141 143 144 144 146 135 135 137 131 131 133 135 135 137 136 136 138 121 121 123 119 119 121 118 118 120 140 140 142 138 138 140 125 125 127 141 141 143 117 117 119 117 117 119 120 120 122 124 124 126 127 127 129 142 142 144 134 134 136 121 121 123 119 119 121 133 133 135 139 139 141 135 135 137 135 135 137 136 136 138 126 126 128 117 117 119 144 144 146 118 118 120 127 127 129 136 136 138 132 132 134 143 143 145 142 142 144 142 142 144 137 137 139 130 130 132 128 128 130 115 115 117 123 123 125 125 125 127 141 141 143 136 136 138 130 130 132 141 141 143 144 144 146 115 115 117 142 142 144 116 116 118 139 139 141 118 118 120 133 133 135 124 124 126 130 130 132 126 126 128 145 145 147 128 128 130 140 140 142 130 130 132 144 144 146 124 124 126 130 130 132 115 115 117 121 121 123 121 121 123 120 120 122 122 122 124 142 142 144 135 135 137 126 126 128 128 128 130 137 137 139 145 145 147 131 131 133 124 124 126 143 143 145 120 120 122 142 142 144 126 126 128 131 131 133 131 131 133 133 133 135 115 115 117 134 134 136 124 124 126 118 118 120 139 139 141 131 131 133 118 118 120 135 135 137 138 138 140 125 125 127 142 142 144 141 141 143 119 119 121 127 127 129 145 145 147 145 145 147 116 116 118 136 136 138 118 118 120 142 142 144 145 145 147 115 115 117 124 124 126 142 142 144 128 128 130 144 144 146 130 130 132 143 143 145 135 135 137 135 135 137 138 138 140 127 127 129 135 135 137 141 141 143 119 119 121 122 122 124 122 122 124 120 120 122 116 116 118 116 116 118 132 132 134 117 117 119 144 144 146 136 136 138 136 136 138 132 132 134 140 140 142 136 136 138 125 125 127 131 131 133 145 145 147 139 139 141 117 117 119 133 133 135 139 139 141 131 131 133 131 131 133 119 119 121 131 131 133 137 137 139 124 124 126 119 119 121 144 144 146 126 126 128 119 119 121 135 135 137 124 124 126 118 118 120 137 137 139 140 140 142 132 132 134 144 144 146 132 132 134 133 133 135 127 127 129 135 135 137 136 136 138 129 129 131 115 115 117 140 140 142 145 145 147 134 134 136 129 129 131 144 144 146 140 140 142 143 143 145 144 144 146 133 133 135 121 121 123 119 119 121 144 144 146 145 145 147 116 116 118 119 119 121 131 131 133 138 138 140 120 120 122 144 144 146 118 118 120 145 145 147 135 135 137 142 142 144 139 139 141 142 142 144 130 130 132 123 123 125 137 137 139 138 138 140 130 130 132 137 137 139 123 123 125 140 140 142 120 120 122 138 138 140 131 131 133 133 133 135 122 122 124 135 135 137 123 123 125 118 118 120 123 123 125 145 145 147 133 133 135 117 117 119 124 124 126 130 130 132 121 121 123 141 141 143 139 139 141 142 142 144 132 132 134 137 137 139 129 129 131 130 130 132 145 145 147 118 118 120 
137 137 139 139 139 141 134 134 136 142 142 144 135 135 137 121 121 123 141 141 143 117 117 119 121 121 123 122 122 124 123 123 125 141 141 143 128 128 130 144 144 146 117 117 119 129 129 131 141 141 143 132 132 134 133 133 135 126 126 128 118 118 120 119 119 121 120 120 122 140 140 142 131 131 133 135 135 137 134 134 136 134 134 136 133 133 135 115 115 117 130 130 132 144 144 146 139 139 141 145 145 147 119 119 121 127 127 129 124 124 126 142 142 144 122 122 124 119 119 121 141 141 143 122 122 124 137 137 139 115 115 117 145 145 147 119 119 121 136 136 138 117 117 119 135 135 137 145 145 147 130 130 132 117 117 119 145 145 147 141 141 143 116 116 118 116 116 118 120 120 122 128 128 130 140 140 142 121 121 123 145 145 147 128 128 130 118 118 120 135 135 137 139 139 141 138 138 140 127 127 129 134 134 136 133 133 135 139 139 141 137 137 139 145 145 147 142 142 144 143 143 145 133 133 135 140 140 142 126 126 128 140 140 142 125 125 127 118 118 120 116 116 118 135 135 137 139 139 141 115 115 117 115 115 117 143 143 145 139 139 141 118 118 120 125 125 127 134 134 136 122 122 124 145 145 147 122 122 124 127 127 129 117 117 119 125 125 127 118 118 120 123 123 125 115 115 117 126 126 128 119 119 121 127 127 129 139 139 141 115 115 117 133 133 135 142 142 144 135 135 137 125 125 127 122 122 124 133 133 135 138 138 140 121 121 123 135 135 137 125 125 127 139 139 141 134 134 136 131 131 133 130 130 132 133 133 135 143 143 145 126 126 128 135 135 137 143 143 145 137 137 139 145 145 147 133 133 135 131 131 133 115 115 117 129 129 131 141 141 143 119 119 121 115 115 117 128 128 130 131 131 133 121 121 123 128 128 130 124 124 126 142 142 144 121 121 123 125 125 127 137 137 139 127 127 129 132 132 134 130 130 132 127 127 129 127 127 129 116 116 118 126 126 128 130 130 132 135 135 137 123 123 125 122 122 124 126 126 128 115 115 117 136 136 138 145 145 147 143 143 145 132 132 134 123 123 125 121 121 123 125 125 127 133 133 135 122 122 124 122 122 124 130 130 132 120 120 122 142 142 144 142 142 144 141 141 143 115 115 117 125 125 127 130 130 132 119 119 121 143 143 145 133 133 135 140 140 142 117 117 119 130 130 132 142 142 144 127 127 129 117 117 119 116 116 118 128 128 130 120 120 122 122 122 124 134 134 136 116 116 118 131 131 133 142 142 144 126 126 128 145 145 147 143 143 145 119 119 121 141 141 143 138 138 140 136 136 138 145 145 147 125 125 127 116 116 118 117 117 119 116 116 118 145 145 147 140 140 142 141 141 143 119 119 121 141 141 143 124 124 126 138 138 140 130 130 132 145 145 147 143 143 145 115 115 117 119 119 121 132 132 134 122 122 124 141 141 143 144 144 146 127 127 129 131 131 133 118 118 120 135 135 137 132 132 134 137 137 139 127 127 129 123 123 125 144 144 146 138 138 140 141 141 143 145 145 147 144 144 146 132 132 134 133 133 135 134 134 136 124 124 126 122 122 124 123 123 125 131 131 133 143 143 145 120 120 122 130 130 132 133 133 135 117 117 119 116 116 118 118 118 120 116 116 118 116 116 118 125 125 127 132 132 134 142 142 144 144 144 146 139 139 141 145 145 147 118 118 120 137 137 139 128 128 130 142 142 144 
142 142 144 127 127 129 139 139 141 119 119 121 137 137 139 126 126 128 130 130 132 127 127 129 116 116 118 137 137 139 139 139 141 142 142 144 136 136 138 122 122 124 134 134 136 121 121 123 133 133 135 119 119 121 140 140 142 121 121 123 119 119 121 133 133 135 145 145 147 142 142 144 139 139 141 144 144 146 127 127 129 142 142 144 137 137 139 142 142 144 135 135 137 119 119 121 141 141 143 128 128 130 138 138 140 122 122 124 140 140 142 140 140 142 141 141 143 132 132 134 131 131 133 115 115 117 119 119 121 129 129 131 141 141 143 126 126 128 115 115 117 135 135 137 132 132 134 123 123 125 133 133 135 125 125 127 145 145 147 131 131 133 131 131 133 142 142 144 123 123 125 118 118 120 144 144 146 129 129 131 121 121 123 122 122 124 139 139 141 144 144 146 143 143 145 133 133 135 139 139 141 139 139 141 120 120 122 138 138 140 132 132 134 139 139 141 142 142 144 131 131 133 119 119 121 124 124 126 128 128 130 142 142 144 136 136 138 124 124 126 129 129 131 133 133 135 126 126 128 133 133 135 123 123 125 115 115 117 140 140 142 118 118 120 140 140 142 118 118 120 132 132 134 119 119 121 120 120 122 117 117 119 122 122 124 129 129 131 142 142 144 136 136 138 132 132 134 115 115 117 125 125 127 139 139 141 140 140 142 120 120 122 133 133 135 125 125 127 135 135 137 121 121 123 123 123 125 129 129 131 140 140 142 138 138 140 118 118 120 117 117 119 133 133 135 132 132 134 137 137 139 137 137 139 141 141 143 142 142 144 137 137 139 140 140 142 123 123 125 133 133 135 122 122 124 115 115 117 131 131 133 140 140 142 143 143 145 124 124 126 115 115 117 144 144 146 144 144 146 128 128 130 123 123 125 125 125 127 141 141 143 123 123 125 128 128 130 129 129 131 133 133 135 127 127 129 134 134 136 126 126 128 115 115 117 138 138 140 133 133 135 119 119 121 144 144 146 123 123 125 142 142 144 138 138 140 138 138 140 125 125 127 131 131 133 143 143 145 129 129 131 131 131 133 122 122 124 141 141 143 124 124 126 128 128 130 120 120 122 132 132 134 133 133 135 131 131 133 140 140 142 139 139 141 138 138 140 144 144 146 139 139 141 130 130 132 131 131 133 132 132 134 143 143 145 121 121 123 119 119 121 138 138 140 121 121 123 133 133 135 117 117 119 125 125 127 140 140 142 131 131 133 139 139 141 133 133 135 122 122 124 143 143 145 122 122 124 145 145 147 141 141 143 131 131 133 144 144 146 143 143 145 130 130 132 127 127 129 141 141 143 136 136 138 134 134 136 121 121 123 129 129 131 125 125 127 133 133 135 129 129 131 116 116 118 123 123 125 142 142 144 145 145 147 123 123 125 130 130 132 141 141 143 132 132 134 117 117 119 137 137 139 126 126 128 145 145 147 115 115 117 132 132 134 117 117 119 144 144 146 135 135 137 134 134 136 142 142 144 138 138 140 122 122 124 126 126 128 137 137 139 133 133 135 118 118 120 140 140 142 123 123 125 120 120 122 139 139 141 143 143 145 127 127 129 137 137 139 136 136 138 135 135 137 140 140 142 144 144 146 137 137 139 119 119 121 121 121 123 129 129 131 125 125 127 140 140 142 127 127 129 130 130 132 118 118 120 141 141 143 120 120 122 134 134 136 141 141 143 123 123 125 130 130 132 134 134 136 
143 143 145 129 129 131 135 135 137 117 117 119 135 135 137 137 137 139 135 135 137 119 119 121 137 137 139 118 118 120 145 145 147 122 122 124 126 126 128 145 145 147 144 144 146 125 125 127 121 121 123 131 131 133 117 117 119 141 141 143 135 135 137 115 115 117 138 138 140 139 139 141 121 121 123 133 133 135 141 141 143 127 127 129 130 130 132 117 117 119 125 125 127 125 125 127 122 122 124 130 130 132 136 136 138 125 125 127 143 143 145 124 124 126 136 136 138 145 145 147 142 142 144 140 140 142 118 118 120 116 116 118 139 139 141 118 118 120 122 122 124 128 128 130 130 130 132 130 130 132 118 118 120 137 137 139 118 118 120 115 115 117 133 133 135 122 122 124 135 135 137 127 127 129 137 137 139 116 116 118 122 122 124 124 124 126 117 117 119 139 139 141 124 124 126 125 125 127 116 116 118 116 116 118 136 136 138 144 144 146 134 134 136 139 139 141 144 144 146 127 127 129 145 145 147 133 133 135 120 120 122 140 140 142 128 128 130 137 137 139 122 122 124 132 132 134 128 128 130 133 133 135 135 135 137 129 129 131 138 138 140 136 136 138 133 133 135 138 138 140 116 116 118 135 135 137 140 140 142 117 117 119 136 136 138 141 141 143 137 137 139 129 129 131 143 143 145 130 130 132 117 117 119 129 129 131 115 115 117 122 122 124 132 132 134 119 119 121 141 141 143 140 140 142 127 127 129 138 138 140 127 127 129 145 145 147 116 116 118 138 138 140 135 135 137 127 127 129 138 138 140 142 142 144 134 134 136 124 124 126 144 144 146 142 142 144 143 143 145 120 120 122 123 123 125 118 118 120 117 117 119 134 134 136 143 143 145 120 120 122 123 123 125 129 129 131 116 116 118 126 126 128 135 135 137 143 143 145 120 120 122 121 121 123 136 136 138 140 140 142 117 117 119 124 124 126 124 124 126 135 135 137 129 129 131 143 143 145 125 125 127 127 127 129 136 136 138 115 115 117 116 116 118 119 119 121 117 117 119 121 121 123 123 123 125 142 142 144 136 136 138 124 124 126 121 121 123 121 121 123 128 128 130 137 137 139 133 133 135 129 129 131 126 126 128 143 143 145 141 141 143 131 131 133 137 137 139 119 119 121 143 143 145 143 143 145 144 144 146 145 145 147 127 127 129 139 139 141 116 116 118 119 119 121 144 144 146 138 138 140 142 142 144 136 136 138 133 133 135 133 133 135 137 137 139 115 115 117 119 119 121 127 127 129 139 139 141 115 115 117 115 115 117 117 117 119 117 117 119 134 134 136 117 117 119 141 141 143 141 141 143 126 126 128 145 145 147 120 120 122 117 117 119 119 119 121 137 137 139 118 118 120 123 123 125 136 136 138 129 129 131 144 144 146 136 136 138 141 141 143 139 139 141 131 131 133 138 138 140 129 129 131 125 125 127 144 144 146 141 141 143 115 115 117 137 137 139 126 126 128 129 129 131 131 131 133 141 141 143 135 135 137 137 137 139 144 144 146 138 138 140 123 123 125 132 132 134 142 142 144 145 145 147 126 126 128 132 132 134 144 144 146 117 117 119 145 145 147 131 131 133 122 122 124 132 132 134 136 136 138 118 118 120 138 138 140 136 136 138 137 137 139 140 140 142 117 117 119 115 115 117 123 123 125 143 143 145 116 116 118 140 140 142 118 118 120 124 124 126 127 127 129 143 143 145 115 115 117 
118 118 120 123 123 125 119 119 121 133 133 135 121 121 123 118 118 120 131 131 133 132 132 134 117 117 119 124 124 126 144 144 146 143 143 145 121 121 123 118 118 120 134 134 136 142 142 144 133 133 135 117 117 119 134 134 136 131 131 133 139 139 141 135 135 137 123 123 125 127 127 129 123 123 125 122 122 124 132 132 134 140 140 142 125 125 127 140 140 142 142 142 144 115 115 117 140 140 142 119 119 121 132 132 134 133 133 135 144 144 146 142 142 144 130 130 132 126 126 128 136 136 138 129 129 131 134 134 136 133 133 135 121 121 123 131 131 133 115 115 117 125 125 127 133 133 135 126 126 128 131 131 133 142 142 144 139 139 141 135 135 137 121 121 123 136 136 138 126 126 128 123 123 125 120 120 122 120 120 122 119 119 121 145 145 147 144 144 146 120 120 122 121 121 123 121 121 123 126 126 128 134 134 136 145 145 147 140 140 142 132 132 134 131 131 133 123 123 125 141 141 143 130 130 132 140 140 142 139 139 141 128 128 130 133 133 135 137 137 139 116 116 118 142 142 144 116 116 118 119 119 121 115 115 117 130 130 132 116 116 118 115 115 117 123 123 125 119 119 121 129 129 131 122 122 124 116 116 118 129 129 131 142 142 144 125 125 127 134 134 136 137 137 139 130 130 132 143 143 145 143 143 145 129 129 131 117 117 119 119 119 121 134 134 136 133 133 135 133 133 135 139 139 141 131 131 133 130 130 132 116 116 118 125 125 127 132 132 134 133 133 135 143 143 145 125 125 127 134 134 136 145 145 147 140 140 142 143 143 145 128 128 130 138 138 140 115 115 117 145 145 147 136 136 138 127 127 129 129 129 131 135 135 137 128 128 130 115 115 117 124 124 126 138 138 140 115 115 117 136 136 138 117 117 119 123 123 125 137 137 139 142 142 144 139 139 141 142 142 144 133 133 135 138 138 140 115 115 117 133 133 135 128 128 130 127 127 129 122 122 124 138 138 140 138 138 140 118 118 120 134 134 136 135 135 137 132 132 134 116 116 118 124 124 126 145 145 147 128 128 130 123 123 125 137 137 139 142 142 144 126 126 128 123 123 125 143 143 145 145 145 147 133 133 135 123 123 125 133 133 135 116 116 118 139 139 141 124 124 126 121 121 123 138 138 140 116 116 118 120 120 122 140 140 142 131 131 133 134 134 136 143 143 145 135 135 137 117 117 119 143 143 145 135 135 137 138 138 140 125 125 127 136 136 138 142 142 144 138 138 140 136 136 138 144 144 146 142 142 144 121 121 123 143 143 145 117 117 119 124 124 126 115 115 117 144 144 146 145 145 147 116 116 118 125 125 127 118 118 120 120 120 122 131 131 133 142 142 144 141 141 143 124 124 126 127 127 129 126 126 128 122 122 124 124 124 126 118 118 120 116 116 118 124 124 126 132 132 134 129 129 131 141 141 143 132 132 134 145 145 147 117 117 119 125 125 127 131 131 133 115 115 117 126 126 128 135 135 137 134 134 136 136 136 138 126 126 128 120 120 122 135 135 137 140 140 142 115 115 117 120 120 122 130 130 132 120 120 122 123 123 125 122 122 124 140 140 142 117 117 119 125 125 127 118 118 120 138 138 140 128 128 130 122 122 124 120 120 122 144 144 146 130 130 132 125 125 127 131 131 133 139 139 141 121 121 123 142 142 144 140 140 142 132 132 134 118 118 120 125 125 127 115 115 117 136 136 138 
145 145 147 125 125 127 139 139 141 141 141 143 120 120 122 126 126 128 142 142 144 140 140 142 131 131 133 129 129 131 117 117 119 123 123 125 136 136 138 143 143 145 124 124 126 117 117 119 117 117 119 123 123 125 120 120 122 122 122 124 125 125 127 124 124 126 129 129 131 128 128 130 133 133 135 145 145 147 122 122 124 135 135 137 127 127 129 135 135 137 142 142 144 138 138 140 145 145 147 124 124 126 141 141 143 128 128 130 132 132 134 124 124 126 135 135 137 125 125 127 133 133 135 124 124 126 124 124 126 127 127 129 140 140 142 118 118 120 143 143 145 143 143 145 127 127 129 125 125 127 122 122 124 138 138 140 126 126 128 135 135 137 134 134 136 118 118 120 137 137 139 130 130 132 135 135 137 140 140 142 130 130 132 142 142 144 142 142 144 140 140 142 125 125 127 137 137 139 126 126 128 129 129 131 142 142 144 132 132 134 122 122 124 135 135 137 134 134 136 122 122 124 139 139 141 126 126 128 129 129 131 117 117 119 143 143 145 129 129 131 122 122 124 128 128 130 127 127 129 131 131 133 125 125 127 115 115 117 121 121 123 118 118 120 123 123 125 119 119 121 130 130 132 126 126 128 143 143 145 135 135 137 140 140 142 115 115 117 143 143 145 139 139 141 140 140 142 135 135 137 115 115 117 115 115 117 128 128 130 132 132 134 127 127 129 120 120 122 138 138 140 121 121 123 127 127 129 141 141 143 144 144 146 130 130 132 121 121 123 131 131 133 144 144 146 115 115 117 116 116 118 130 130 132 139 139 141 118 118 120 121 121 123 119 119 121 118 118 120 129 129 131 136 136 138 144 144 146 144 144 146 125 125 127 132 132 134 135 135 137 139 139 141 134 134 136 145 145 147 132 132 134 124 124 126 133 133 135 118 118 120 142 142 144 121 121 123 143 143 145 141 141 143 125 125 127 136 136 138 137 137 139 116 116 118 141 141 143 119 119 121 144 144 146 131 131 133 132 132 134 133 133 135 125 125 127 130 130 132 134 134 136 137 137 139 130 130 132 125 125 127 135 135 137 130 130 132 125 125 127 132 132 134 138 138 140 139 139 141 121 121 123 136 136 138 131 131 133 128 128 130 118 118 120 115 115 117 136 136 138 136 136 138 144 144 146 125 125 127 137 137 139 117 117 119 134 134 136 118 118 120 116 116 118 129 129 131 136 136 138 128 128 130 139 139 141 137 137 139 125 125 127 125 125 127 125 125 127 136 136 138 126 126 128 136 136 138 127 127 129 145 145 147 136 136 138 127 127 129 125 125 127 141 141 143 142 142 144 133 133 135 143 143 145 133 133 135 145 145 147 133 133 135 119 119 121 138 138 140 141 141 143 116 116 118 130 130 132 139 139 141 141 141 143 140 140 142 123 123 125 122 122 124 118 118 120 142 142 144 128 128 130 127 127 129 119 119 121 138 138 140 124 124 126 138 138 140 127 127 129 123 123 125 144 144 146 125 125 127 131 131 133 136 136 138 132 132 134 135 135 137 119 119 121 135 135 137 115 115 117 144 144 146 136 136 138 117 117 119 128 128 130 125 125 127 134 134 136 137 137 139 137 137 139 143 143 145 119 119 121 135 135 137 136 136 138 126 126 128 139 139 141 125 125 127 130 130 132 117 117 119 145 145 147 133 133 135 129 129 131 141 141 143 115 115 117 122 122 124 141 141 143 141 141 143 116 116 118 
140 140 142 124 124 126 135 135 137 116 116 118 128 128 130 140 140 142 116 116 118 115 115 117 145 145 147 130 130 132 119 119 121 122 122 124 142 142 144 140 140 142 145 145 147 125 125 127 117 117 119 141 141 143 130 130 132 143 143 145 136 136 138 129 129 131 123 123 125 135 135 137 124 124 126 130 130 132 123 123 125 139 139 141 140 140 142 119 119 121 137 137 139 129 129 131 118 118 120 130 130 132 136 136 138 116 116 118 136 136 138 124 124 126 121 121 123 131 131 133 121 121 123 142 142 144 116 116 118 145 145 147 128 128 130 124 124 126 129 129 131 130 130 132 132 132 134 142 142 144 145 145 147 134 134 136 139 139 141 135 135 137 122 122 124 125 125 127 145 145 147 145 145 147 124 124 126 123 123 125 143 143 145 137 137 139 129 129 131 121 121 123 123 123 125 139 139 141 132 132 134 137 137 139 133 133 135 134 134 136 136 136 138 135 135 137 121 121 123 137 137 139 124 124 126 123 123 125 125 125 127 130 130 132 118 118 120 118 118 120 131 131 133 122 122 124 138 138 140 136 136 138 122 122 124 142 142 144 122 122 124 132 132 134 127 127 129 123 123 125 143 143 145 134 134 136 132 132 134 142 142 144 133 133 135 135 135 137 129 129 131 116 116 118 126 126 128 126 126 128 133 133 135 116 116 118 121 121 123 139 139 141 127 127 129 136 136 138 143 143 145 120 120 122 138 138 140 117 117 119 143 143 145 135 135 137 142 142 144 141 141 143 129 129 131 141 141 143 119 119 121 138 138 140 143 143 145 120 120 122 144 144 146 129 129 131 132 132 134 139 139 141 131 131 133 143 143 145 121 121 123 121 121 123 133 133 135 116 116 118 123 123 125 115 115 117 143 143 145 118 118 120 138 138 140 116 116 118 130 130 132 133 133 135 139 139 141 135 135 137 138 138 140 120 120 122 128 128 130 126 126 128 120 120 122 135 135 137 141 141 143 139 139 141 145 145 147 134 134 136 124 124 126 137 137 139 120 120 122 140 140 142 129 129 131 141 141 143 122 122 124 116 116 118 141 141 143 124 124 126 118 118 120 123 123 125 119 119 121 135 135 137 130 130 132 122 122 124 123 123 125 135 135 137 117 117 119 131 131 133 141 141 143 132 132 134 144 144 146 143 143 145 125 125 127 128 128 130 118 118 120 130 130 132 134 134 136 136 136 138 135 135 137 130 130 132 144 144 146 134 134 136 120 120 122 134 134 136 145 145 147 121 121 123 118 118 120 128 128 130 128 128 130 135 135 137 142 142 144 135 135 137 143 143 145 141 141 143 138 138 140 119 119 121 121 121 123 140 140 142 121 121 123 145 145 147 136 136 138 143 143 145 130 130 132 123 123 125 141 141 143 125 125 127 145 145 147 141 141 143 145 145 147 123 123 125 123 123 125 125 125 127 129 129 131 140 140 142 125 125 127 142 142 144 138 138 140 131 131 133 144 144 146 126 126 128 137 137 139 118 118 120 121 121 123 115 115 117 116 116 118 127 127 129 138 138 140 138 138 140 131 131 133 125 125 127 117 117 119 138 138 140 144 144 146 121 121 123 119 119 121 116 116 118 132 132 134 124 124 126 117 117 119 138 138 140 121 121 123 134 134 136 130 130 132 117 117 119 123 123 125 134 134 136 123 123 125 130 130 132 123 123 125 136 136 138 138 138 140 117 117 119 134 134 136 121 121 123 
133 133 135 132 132 134 140 140 142 116 116 118 143 143 145 117 117 119 141 141 143 132 132 134 131 131 133 136 136 138 122 122 124 139 139 141 117 117 119 141 141 143 141 141 143 119 119 121 118 118 120 132 132 134 144 144 146 138 138 140 134 134 136 136 136 138 129 129 131 142 142 144 135 135 137 145 145 147 140 140 142 116 116 118 131 131 133 132 132 134 138 138 140 124 124 126 118 118 120 131 131 133 134 134 136 120 120 122 137 137 139 145 145 147 118 118 120 115 115 117 143 143 145 125 125 127 140 140 142 136 136 138 121 121 123 143 143 145 144 144 146 135 135 137 121 121 123 120 120 122 128 128 130 134 134 136 132 132 134 131 131 133 130 130 132 123 123 125 142 142 144 118 118 120 141 141 143 123 123 125 127 127 129 129 129 131 144 144 146 122 122 124 117 117 119 138 138 140 134 134 136 127 127 129 134 134 136 133 133 135 142 142 144 139 139 141 129 129 131 124 124 126 136 136 138 128 128 130 143 143 145 118 118 120 137 137 139 144 144 146 132 132 134 145 145 147 123 123 125 130 130 132 135 135 137 127 127 129 129 129 131 140 140 142 143 143 145 141 141 143 118 118 120 126 126 128 118 118 120 126 126 128 138 138 140 117 117 119 140 140 142 117 117 119 129 129 131 136 136 138 118 118 120 135 135 137 119 119 121 145 145 147 119 119 121 143 143 145 115 115 117 143 143 145 129 129 131 141 141 143 128 128 130 137 137 139 122 122 124 134 134 136 131 131 133 118 118 120 143 143 145 117 117 119 138 138 140 116 116 118 132 132 134 130 130 132 127 127 129 128 128 130 132 132 134 138 138 140 128 128 130 116 116 118 137 137 139 125 125 127 119 119 121 131 131 133 126 126 128 142 142 144 145 145 147 118 118 120 140 140 142 132 132 134 121 121 123 144 144 146 143 143 145 132 132 134 135 135 137 126 126 128 125 125 127 126 126 128 134 134 136 126 126 128 136 136 138 132 132 134 141 141 143 130 130 132 142 142 144 142 142 144 117 117 119 126 126 128 134 134 136 119 119 121 127 127 129 127 127 129 124 124 126 129 129 131 143 143 145 140 140 142 117 117 119 131 131 133 141 141 143 125 125 127 125 125 127 124 124 126 144 144 146 141 141 143 130 130 132 118 118 120 143 143 145 124 124 126 124 124 126 126 126 128 115 115 117 124 124 126 125 125 127 122 122 124 127 127 129 120 120 122 140 140 142 119 119 121 134 134 136 140 140 142 123 123 125 126 126 128 133 133 135 116 116 118 130 130 132 131 131 133 131 131 133 118 118 120 140 140 142 122 122 124 133 133 135 132 132 134 124 124 126 144 144 146 141 141 143 128 128 130 141 141 143 122 122 124 131 131 133 116 116 118 143 143 145 142 142 144 138 138 140 132 132 134 138 138 140 120 120 122 124 124 126 129 129 131 144 144 146 126 126 128 120 120 122 115 115 117 122 122 124 140 140 142 130 130 132 124 124 126 133 133 135 124 124 126 117 117 119 128 128 130 135 135 137 122 122 124 145 145 147 127 127 129 145 145 147 140 140 142 143 143 145 117 117 119 140 140 142 126 126 128 140 140 142 136 136 138 135 135 137 145 145 147 144 144 146 117 117 119 128 128 130 122 122 124 139 139 141 137 137 139 124 124 126 138 138 140 121 121 123 142 142 144 133 133 135 122 122 124 132 132 134 132 132 134 
115 115 117 140 140 142 141 141 143 121 121 123 117 117 119 116 116 118 128 128 130 132 132 134 131 131 133 121 121 123 131 131 133 115 115 117 128 128 130 117 117 119 122 122 124 117 117 119 140 140 142 145 145 147 139 139 141 130 130 132 127 127 129 125 125 127 135 135 137 119 119 121 122 122 124 139 139 141 131 131 133 120 120 122 144 144 146 119 119 121 128 128 130 134 134 136 125 125 127 136 136 138 137 137 139 137 137 139 130 130 132 133 133 135 139 139 141 143 143 145 137 137 139 117 117 119 135 135 137 135 135 137 137 137 139 127 127 129 138 138 140 130 130 132 118 118 120 141 141 143 136 136 138 145 145 147 125 125 127 117 117 119 126 126 128 137 137 139 142 142 144 121 121 123 130 130 132 128 128 130 120 120 122 129 129 131 127 127 129 124 124 126 137 137 139 132 132 134 126 126 128 127 127 129 141 141 143 115 115 117 133 133 135 117 117 119 115 115 117 143 143 145 125 125 127 140 140 142 136 136 138 115 115 117 123 123 125 128 128 130 134 134 136 136 136 138 137 137 139 142 142 144 130 130 132 144 144 146 129 129 131 117 117 119 124 124 126 144 144 146 131 131 133 137 137 139 127 127 129 138 138 140 126 126 128 133 133 135 144 144 146 129 129 131 129 129 131 145 145 147 125 125 127 126 126 128 132 132 134 116 116 118 118 118 120 118 118 120 144 144 146 141 141 143 129 129 131 122 122 124 138 138 140 124 124 126 127 127 129 132 132 134 128 128 130 118 118 120 127 127 129 141 141 143 116 116 118 122 122 124 124 124 126 134 134 136 125 125 127 132 132 134 136 136 138 141 141 143 139 139 141 131 131 133 128 128 130 143 143 145 115 115 117 121 121 123 117 117 119 120 120 122 144 144 146 127 127 129 144 144 146 117 117 119 134 134 136 116 116 118 131 131 133 116 116 118 118 118 120 141 141 143 119 119 121 134 134 136 128 128 130 127 127 129 144 144 146 119 119 121 138 138 140 126 126 128 130 130 132 133 133 135 126 126 128 115 115 117 125 125 127 129 129 131 134 134 136 124 124 126 136 136 138 144 144 146 123 123 125 131 131 133 141 141 143 139 139 141 118 118 120 132 132 134 139 139 141 116 116 118 134 134 136 115 115 117 136 136 138 136 136 138 126 126 128 131 131 133 116 116 118 142 142 144 132 132 134 137 137 139 115 115 117 143 143 145 127 127 129 126 126 128 127 127 129 118 118 120 140 140 142 134 134 136 117 117 119 120 120 122 135 135 137 123 123 125 145 145 147 132 132 134 137 137 139 117 117 119 134 134 136 123 123 125 126 126 128 123 123 125 115 115 117 126 126 128 130 130 132 145 145 147 117 117 119 128 128 130 141 141 143 138 138 140 141 141 143 130 130 132 128 128 130 132 132 134 120 120 122 128 128 130 118 118 120 136 136 138 129 129 131 117 117 119 129 129 131 125 125 127 140 140 142 123 123 125 116 116 118 139 139 141 143 143 145 116 116 118 135 135 137 141 141 143 130 130 132 125 125 127 127 127 129 131 131 133 116 116 118 136 136 138 135 135 137 134 134 136 123 123 125 130 130 132 143 143 145 144 144 146 130 130 132 130 130 132 119 119 121 116 116 118 138 138 140 123 123 125 136 136 138 143 143 145 145 145 147 140 140 142 130 130 132 145 145 147 142 142 144 128 128 130 125 125 127 119 119 121 
116 116 118 124 124 126 130 130 132 134 134 136 125 125 127 143 143 145 134 134 136 116 116 118 115 115 117 132 132 134 139 139 141 140 140 142 137 137 139 145 145 147 145 145 147 131 131 133 127 127 129 131 131 133 129 129 131 139 139 141 116 116 118 122 122 124 119 119 121 117 117 119 131 131 133 121 121 123 138 138 140 135 135 137 139 139 141 132 132 134 129 129 131 134 134 136 124 124 126 131 131 133 118 118 120 120 120 122 133 133 135 120 120 122 140 140 142 118 118 120 143 143 145 121 121 123 132 132 134 142 142 144 142 142 144 118 118 120 138 138 140 127 127 129 119 119 121 138 138 140 144 144 146 139 139 141 133 133 135 115 115 117 128 128 130 145 145 147 130 130 132 127 127 129 115 115 117 122 122 124 133 133 135 136 136 138 117 117 119 116 116 118 139 139 141 126 126 128 123 123 125 116 116 118 141 141 143 118 118 120 137 137 139 120 120 122 134 134 136 143 143 145 135 135 137 130 130 132 138 138 140 144 144 146 116 116 118 145 145 147 124 124 126 139 139 141 132 132 134 142 142 144 118 118 120 118 118 120 136 136 138 134 134 136 140 140 142 122 122 124 132 132 134 119 119 121 119 119 121 132 132 134 142 142 144 140 140 142 132 132 134 117 117 119 126 126 128 115 115 117 119 119 121 131 131 133 123 123 125 123 123 125 130 130 132 127 127 129 140 140 142 129 129 131 117 117 119 119 119 121 124 124 126 125 125 127 129 129 131 144 144 146 119 119 121 143 143 145 130 130 132 118 118 120 135 135 137 137 137 139 132 132 134 123 123 125 126 126 128 130 130 132 128 128 130 122 122 124 115 115 117 144 144 146 126 126 128 123 123 125 125 125 127 120 120 122 129 129 131 145 145 147 145 145 147 133 133 135 121 121 123 122 122 124 135 135 137 125 125 127 118 118 120 127 127 129 115 115 117 133 133 135 145 145 147 130 130 132 117 117 119 138 138 140 129 129 131 130 130 132 118 118 120 123 123 125 123 123 125 115 115 117 138 138 140 128 128 130 130 130 132 136 136 138 131 131 133 136 136 138 124 124 126 144 144 146 134 134 136 126 126 128 144 144 146 117 117 119 132 132 134 126 126 128 130 130 132 126 126 128 129 129 131 137 137 139 134 134 136 135 135 137 127 127 129 130 130 132 140 140 142 142 142 144 126 126 128 137 137 139 135 135 137 119 119 121 130 130 132 130 130 132 139 139 141 134 134 136 144 144 146 116 116 118 121 121 123 127 127 129 115 115 117 139 139 141 137 137 139 129 129 131 121 121 123 127 127 129 118 118 120 118 118 120 129 129 131 116 116 118 120 120 122 145 145 147 126 126 128 137 137 139 117 117 119 123 123 125 127 127 129 120 120 122 144 144 146 129 129 131 133 133 135 117 117 119 119 119 121 141 141 143 126 126 128 138 138 140 138 138 140 125 125 127 130 130 132 119 119 121 119 119 121 145 145 147 126 126 128 142 142 144 139 139 141 119 119 121 135 135 137 119 119 121 132 132 134 130 130 132 126 126 128 115 115 117 127 127 129 124 124 126 139 139 141 118 118 120 123 123 125 126 126 128 127 127 129 133 133 135 117 117 119 134 134 136 135 135 137 116 116 118 122 122 124 139 139 141 132 132 134 128 128 130 125 125 127 118 118 120 128 128 130 121 121 123 143 143 145 124 124 126 119 119 121 138 138 140 
127 127 129 120 120 122 116 116 118 138 138 140 123 123 125 127 127 129 123 123 125 125 125 127 144 144 146 115 115 117 125 125 127 143 143 145 133 133 135 137 137 139 145 145 147 136 136 138 141 141 143 115 115 117 141 141 143 143 143 145 116 116 118 137 137 139 115 115 117 144 144 146 121 121 123 117 117 119 127 127 129 143 143 145 145 145 147 122 122 124 143 143 145 122 122 124 144 144 146 129 129 131 120 120 122 138 138 140 145 145 147 139 139 141 133 133 135 135 135 137 145 145 147 138 138 140 130 130 132 117 117 119 121 121 123 124 124 126 141 141 143 135 135 137 143 143 145 135 135 137 119 119 121 119 119 121 129 129 131 142 142 144 138 138 140 132 132 134 135 135 137 122 122 124 141 141 143 117 117 119 138 138 140 140 140 142 124 124 126 120 120 122 120 120 122 138 138 140 140 140 142 118 118 120 132 132 134 144 144 146 143 143 145 139 139 141 125 125 127 139 139 141 122 122 124 122 122 124 127 127 129 124 124 126 119 119 121 122 122 124 140 140 142 130 130 132 130 130 132 120 120 122 135 135 137 120 120 122 117 117 119 131 131 133 145 145 147 140 140 142 137 137 139 122 122 124 143 143 145 116 116 118 138 138 140 142 142 144 137 137 139 133 133 135 145 145 147 135 135 137 132 132 134 117 117 119 125 125 127 132 132 134 126 126 128 126 126 128 119 119 121 128 128 130 115 115 117 132 132 134 142 142 144 119 119 121 132 132 134 115 115 117 142 142 144 126 126 128 130 130 132 139 139 141 135 135 137 144 144 146 122 122 124 144 144 146 143 143 145 142 142 144 125 125 127 120 120 122 139 139 141 120 120 122 134 134 136 125 125 127 144 144 146 123 123 125 116 116 118 145 145 147 134 134 136 121 121 123 120 120 122 125 125 127 130 130 132 119 119 121 134 134 136 142 142 144 140 140 142 117 117 119 122 122 124 116 116 118 129 129 131 138 138 140 139 139 141 127 127 129 117 117 119 117 117 119 123 123 125 122 122 124 131 131 133 142 142 144 133 133 135 141 141 143 136 136 138 137 137 139 130 130 132 130 130 132 137 137 139 125 125 127 136 136 138 135 135 137 121 121 123 118 118 120 129 129 131 120 120 122 137 137 139 141 141 143 138 138 140 139 139 141 129 129 131 131 131 133 122 122 124 119 119 121 144 144 146 143 143 145 118 118 120 141 141 143 121 121 123 131 131 133 132 132 134 126 126 128 137 137 139 130 130 132 129 129 131 119 119 121 119 119 121 131 131 133 138 138 140 118 118 120 116 116 118 130 130 132 136 136 138 139 139 141 122 122 124 125 125 127 136 136 138 118 118 120 119 119 121 124 124 126 116 116 118 126 126 128 134 134 136 128 128 130 130 130 132 130 130 132 131 131 133 115 115 117 141 141 143 138 138 140 143 143 145 123 123 125 115 115 117 137 137 139 124 124 126 136 136 138 125 125 127 135 135 137 125 125 127 145 145 147 139 139 141 125 125 127 128 128 130 132 132 134 120 120 122 118 118 120 135 135 137 143 143 145 135 135 137 125 125 127 115 115 117 140 140 142 115 115 117 138 138 140 119 119 121 139 139 141 127 127 129 140 140 142 140 140 142 139 139 141 142 142 144 134 134 136 130 130 132 141 141 143 136 136 138 126 126 128 138 138 140 124 124 126 128 128 130 130 130 132 123 123 125 127 127 129 
116 116 118 138 138 140 129 129 131 116 116 118 130 130 132 134 134 136 139 139 141 130 130 132 123 123 125 142 142 144 127 127 129 115 115 117 144 144 146 129 129 131 134 134 136 124 124 126 136 136 138 133 133 135 122 122 124 136 136 138 137 137 139 116 116 118 123 123 125 119 119 121 128 128 130 136 136 138 116 116 118 138 138 140 135 135 137 137 137 139 140 140 142 125 125 127 123 123 125 135 135 137 122 122 124 118 118 120 140 140 142 122 122 124 129 129 131 133 133 135 136 136 138 145 145 147 127 127 129 134 134 136 142 142 144 129 129 131 145 145 147 120 120 122 143 143 145 125 125 127 135 135 137 122 122 124 140 140 142 122 122 124 118 118 120 130 130 132 128 128 130 135 135 137 123 123 125 125 125 127 139 139 141 139 139 141 145 145 147 131 131 133 138 138 140 123 123 125 121 121 123 126 126 128 141 141 143 139 139 141 132 132 134 140 140 142 128 128 130 130 130 132 129 129 131 126 126 128 120 120 122 121 121 123 126 126 128 125 125 127 145 145 147 132 132 134 140 140 142 140 140 142 142 142 144 117 117 119 130 130 132 118 118 120 138 138 140 139 139 141 144 144 146 133 133 135 123 123 125 122 122 124 132 132 134 127 127 129 123 123 125 131 131 133 128 128 130 118 118 120 133 133 135 135 135 137 122 122 124 127 127 129 142 142 144 127 127 129 123 123 125 121 121 123 142 142 144 141 141 143 133 133 135 135 135 137 119 119 121 137 137 139 137 137 139 136 136 138 117 117 119 129 129 131 133 133 135 138 138 140 144 144 146 119 119 121 117 117 119 145 145 147 133 133 135 118 118 120 144 144 146 125 125 127 132 132 134 136 136 138 138 138 140 122 122 124 129 129 131 131 131 133 125 125 127 140 140 142 140 140 142 134 134 136 145 145 147 123 123 125 128 128 130 121 121 123 115 115 117 119 119 121 123 123 125 133 133 135 142 142 144 118 118 120 127 127 129 134 134 136 125 125 127 127 127 129 120 120 122 128 128 130 144 144 146 136 136 138 143 143 145 139 139 141 134 134 136 143 143 145 127 127 129 144 144 146 144 144 146 119 119 121 141 141 143 139 139 141 121 121 123 141 141 143 131 131 133 121 121 123 134 134 136 123 123 125 126 126 128 141 141 143 145 145 147 140 140 142 145 145 147 145 145 147 136 136 138 128 128 130 134 134 136 137 137 139 122 122 124 136 136 138 145 145 147 128 128 130 132 132 134 129 129 131 124 124 126 124 124 126 123 123 125 136 136 138 116 116 118 139 139 141 116 116 118 126 126 128 137 137 139 129 129 131 123 123 125 117 117 119 128 128 130 132 132 134 128 128 130 131 131 133 139 139 141 137 137 139 122 122 124 137 137 139 139 139 141 138 138 140 143 143 145 134 134 136 128 128 130 122 122 124 133 133 135 132 132 134 119 119 121 120 120 122 143 143 145 119 119 121 129 129 131 144 144 146 115 115 117 137 137 139 131 131 133 138 138 140 119 119 121 117 117 119 130 130 132 115 115 117 130 130 132 142 142 144 142 142 144 143 143 145 136 136 138 121 121 123 129 129 131 122 122 124 121 121 123 125 125 127 136 136 138 127 127 129 117 117 119 130 130 132 139 139 141 115 115 117 115 115 117 145 145 147 140 140 142 124 124 126 139 139 141 118 118 120 128 128 130 120 120 122 139 139 141 126 126 128 
133 133 135 125 125 127 144 144 146 127 127 129 117 117 119 120 120 122 143 143 145 120 120 122 121 121 123 116 116 118 118 118 120 119 119 121 125 125 127 140 140 142 130 130 132 126 126 128 119 119 121 137 137 139 142 142 144 120 120 122 142 142 144 120 120 122 140 140 142 130 130 132 121 121 123 117 117 119 138 138 140 128 128 130 119 119 121 132 132 134 120 120 122 125 125 127 128 128 130 120 120 122 140 140 142 125 125 127 138 138 140 129 129 131 122 122 124 122 122 124 135 135 137 122 122 124 115 115 117 130 130 132 127 127 129 120 120 122 138 138 140 118 118 120 120 120 122 137 137 139 132 132 134 115 115 117 121 121 123 123 123 125 139 139 141 120 120 122 141 141 143 130 130 132 141 141 143 138 138 140 136 136 138 126 126 128 123 123 125 134 134 136 144 144 146 131 131 133 138 138 140 126 126 128 118 118 120 145 145 147 143 143 145 132 132 134 131 131 133 143 143 145 125 125 127 123 123 125 139 139 141 134 134 136 131 131 133 137 137 139 145 145 147 115 115 117 129 129 131 131 131 133 133 133 135 125 125 127 135 135 137 144 144 146 134 134 136 133 133 135 142 142 144 123 123 125 127 127 129 138 138 140 122 122 124 124 124 126 115 115 117 128 128 130 122 122 124 124 124 126 125 125 127 125 125 127 117 117 119 123 123 125 129 129 131 145 145 147 130 130 132 130 130 132 145 145 147 137 137 139 119 119 121 122 122 124 140 140 142 123 123 125 143 143 145 121 121 123 138 138 140 115 115 117 136 136 138 124 124 126 130 130 132 134 134 136 140 140 142 144 144 146 144 144 146 124 124 126 116 116 118 132 132 134 135 135 137 143 143 145 127 127 129 139 139 141 120 120 122 122 122 124 138 138 140 118 118 120 131 131 133 127 127 129 130 130 132 128 128 130 120 120 122 132 132 134 145 145 147 138 138 140 126 126 128 118 118 120 143 143 145 134 134 136 131 131 133 125 125 127 142 142 144 129 129 131 115 115 117 140 140 142 139 139 141 118 118 120 136 136 138 120 120 122 137 137 139 135 135 137 125 125 127 115 115 117 130 130 132 116 116 118 129 129 131 132 132 134 127 127 129 135 135 137 126 126 128 136 136 138 124 124 126 115 115 117 137 137 139 121 121 123 136 136 138 132 132 134 144 144 146 130 130 132 125 125 127 144 144 146 128 128 130 122 122 124 139 139 141 128 128 130 128 128 130 135 135 137 133 133 135 128 128 130 119 119 121 122 122 124 128 128 130 120 120 122 143 143 145 119 119 121 129 129 131 143 143 145 126 126 128 124 124 126 120 120 122 141 141 143 141 141 143 121 121 123 117 117 119 117 117 119 128 128 130 137 137 139 134 134 136 122 122 124 133 133 135 135 135 137 121 121 123 141 141 143 143 143 145 121 121 123 128 128 130 122 122 124 134 134 136 130 130 132 119 119 121 139 139 141 120 120 122 136 136 138 131 131 133 124 124 126 134 134 136 145 145 147 131 131 133 137 137 139 131 131 133 120 120 122 129 129 131 133 133 135 133 133 135 119 119 121 138 138 140 136 136 138 138 138 140 131 131 133 142 142 144 118 118 120 117 117 119 144 144 146 117 117 119 133 133 135 126 126 128 134 134 136 123 123 125 116 116 118 119 119 121 128 128 130 123 123 125 122 122 124 115 115 117 120 120 122 140 140 142 126 126 128 
140 140 142 120 120 122 115 115 117 122 122 124 143 143 145 136 136 138 124 124 126 120 120 122 139 139 141 117 117 119 129 129 131 124 124 126 127 127 129 127 127 129 117 117 119 139 139 141 136 136 138 128 128 130 116 116 118 143 143 145 130 130 132 142 142 144 145 145 147 123 123 125 132 132 134 137 137 139 117 117 119 126 126 128 121 121 123 122 122 124 126 126 128 117 117 119 115 115 117 129 129 131 129 129 131 129 129 131 116 116 118 129 129 131 125 125 127 122 122 124 116 116 118 127 127 129 133 133 135 126 126 128 132 132 134 129 129 131 141 141 143 137 137 139 119 119 121 139 139 141 123 123 125 144 144 146 129 129 131 145 145 147 116 116 118 128 128 130 145 145 147 132 132 134 127 127 129 119 119 121 120 120 122 122 122 124 126 126 128 145 145 147 127 127 129 115 115 117 120 120 122 144 144 146 120 120 122 129 129 131 138 138 140 122 122 124 144 144 146 126 126 128 124 124 126 125 125 127 143 143 145 120 120 122 119 119 121 137 137 139 132 132 134 143 143 145 122 122 124 125 125 127 143 143 145 133 133 135 115 115 117 127 127 129 140 140 142 120 120 122 125 125 127 120 120 122 132 132 134 137 137 139 142 142 144 117 117 119 133 133 135 117 117 119 126 126 128 122 122 124 138 138 140 115 115 117 117 117 119 139 139 141 116 116 118 141 141 143 139 139 141 121 121 123 143 143 145 116 116 118 124 124 126 128 128 130 124 124 126 115 115 117 127 127 129 133 133 135 120 120 122 115 115 117 132 132 134 144 144 146 127 127 129 138 138 140 129 129 131 144 144 146 140 140 142 137 137 139 120 120 122 138 138 140 133 133 135 130 130 132 132 132 134 136 136 138 140 140 142 131 131 133 143 143 145 124 124 126 140 140 142 128 128 130 141 141 143 138 138 140 122 122 124 145 145 147 118 118 120 130 130 132 138 138 140 129 129 131 131 131 133 143 143 145 119 119 121 133 133 135 123 123 125 129 129 131 128 128 130 118 118 120 131 131 133 131 131 133 126 126 128 139 139 141 119 119 121 140 140 142 126 126 128 132 132 134 127 127 129 138 138 140 135 135 137 129 129 131 116 116 118 137 137 139 138 138 140 119 119 121 135 135 137 126 126 128 115 115 117 145 145 147 142 142 144 119 119 121 123 123 125 135 135 137 130 130 132 117 117 119 120 120 122 131 131 133 145 145 147 120 120 122 124 124 126 139 139 141 119 119 121 131 131 133 130 130 132 145 145 147 129 129 131 132 132 134 127 127 129 117 117 119 143 143 145 120 120 122 135 135 137 138 138 140 144 144 146 134 134 136 126 126 128 141 141 143 122 122 124 119 119 121 121 121 123 117 117 119 142 142 144 124 124 126 129 129 131 130 130 132 124 124 126 142 142 144 139 139 141 115 115 117 133 133 135 121 121 123 123 123 125 141 141 143 122 122 124 127 127 129 123 123 125 115 115 117 125 125 127 136 136 138 116 116 118 145 145 147 121 121 123 142 142 144 132 132 134 125 125 127 127 127 129 135 135 137 135 135 137 145 145 147 116 116 118 120 120 122 144 144 146 129 129 131 120 120 122 123 123 125 125 125 127 126 126 128 121 121 123 130 130 132 116 116 118 118 118 120 140 140 142 126 126 128 126 126 128 124 124 126 144 144 146 145 145 147 130 130 132 143 143 145 144 144 146 134 134 136 
131 131 133 144 144 146 129 129 131 130 130 132 118 118 120 122 122 124 125 125 127 115 115 117 134 134 136 135 135 137 145 145 147 145 145 147 141 141 143 118 118 120 125 125 127 115 115 117 142 142 144 130 130 132 144 144 146 135 135 137 125 125 127 136 136 138 125 125 127 125 125 127 122 122 124 132 132 134 116 116 118 122 122 124 133 133 135 126 126 128 119 119 121 116 116 118 124 124 126 130 130 132 119 119 121 125 125 127 129 129 131 142 142 144 134 134 136 115 115 117 139 139 141 129 129 131 121 121 123 118 118 120 127 127 129 144 144 146 143 143 145 123 123 125 128 128 130 133 133 135 130 130 132 117 117 119 140 140 142 128 128 130 144 144 146 117 117 119 116 116 118 123 123 125 133 133 135 122 122 124 133 133 135 144 144 146 133 133 135 140 140 142 134 134 136 115 115 117 127 127 129 132 132 134 122 122 124 125 125 127 139 139 141 131 131 133 134 134 136 125 125 127 116 116 118 125 125 127 121 121 123 120 120 122 145 145 147 123 123 125 131 131 133 119 119 121 139 139 141 132 132 134 118 118 120 137 137 139 125 125 127 127 127 129 138 138 140 130 130 132 124 124 126 123 123 125 124 124 126 132 132 134 145 145 147 145 145 147 118 118 120 129 129 131 120 120 122 145 145 147 137 137 139 119 119 121 128 128 130 124 124 126 124 124 126 118 118 120 132 132 134 121 121 123 144 144 146 135 135 137 126 126 128 131 131 133 138 138 140 134 134 136 134 134 136 131 131 133 136 136 138 137 137 139 130 130 132 138 138 140 121 121 123 129 129 131 138 138 140 143 143 145 145 145 147 125 125 127 142 142 144 123 123 125 126 126 128 133 133 135 118 118 120 121 121 123 126 126 128 122 122 124 145 145 147 120 120 122 131 131 133 117 117 119 145 145 147 133 133 135 124 124 126 135 135 137 141 141 143 130 130 132 144 144 146 133 133 135 116 116 118 129 129 131 139 139 141 133 133 135 137 137 139 140 140 142 116 116 118 127 127 129 123 123 125 121 121 123 134 134 136 119 119 121 137 137 139 140 140 142 126 126 128 141 141 143 117 117 119 134 134 136 126 126 128 139 139 141 132 132 134 126 126 128 138 138 140 133 133 135 142 142 144 124 124 126 130 130 132 119 119 121 131 131 133 116 116 118 136 136 138 123 123 125 145 145 147 144 144 146 134 134 136 120 120 122 143 143 145 141 141 143 129 129 131 136 136 138 142 142 144 145 145 147 119 119 121 139 139 141 116 116 118 145 145 147 121 121 123 132 132 134 117 117 119 142 142 144 125 125 127 122 122 124 117 117 119 126 126 128 132 132 134 133 133 135 143 143 145 128 128 130 131 131 133 135 135 137 138 138 140 140 140 142 131 131 133 133 133 135 124 124 126 142 142 144 115 115 117 130 130 132 127 127 129 127 127 129 135 135 137 127 127 129 132 132 134 140 140 142 137 137 139 138 138 140 119 119 121 128 128 130 144 144 146 142 142 144 116 116 118 139 139 141 129 129 131 141 141 143 139 139 141 121 121 123 128 128 130 115 115 117 128 128 130 133 133 135 126 126 128 134 134 136 129 129 131 115 115 117 124 124 126 120 120 122 133 133 135 138 138 140 139 139 141 127 127 129 132 132 134 130 130 132 128 128 130 117 117 119 145 145 147 120 120 122 119 119 121 115 115 117 135 135 137 145 145 147 
141 141 143 140 140 142 134 134 136 140 140 142 130 130 132 136 136 138 115 115 117 142 142 144 143 143 145 138 138 140 122 122 124 135 135 137 118 118 120 117 117 119 143 143 145 119 119 121 126 126 128 120 120 122 142 142 144 116 116 118 131 131 133 131 131 133 124 124 126 135 135 137 128 128 130 143 143 145 139 139 141 126 126 128 122 122 124 123 123 125 131 131 133 115 115 117 135 135 137 123 123 125 131 131 133 119 119 121 120 120 122 129 129 131 128 128 130 126 126 128 130 130 132 130 130 132 140 140 142 116 116 118 139 139 141 123 123 125 122 122 124 116 116 118 123 123 125 123 123 125 115 115 117 144 144 146 139 139 141 140 140 142 120 120 122 124 124 126 136 136 138 125 125 127 129 129 131 130 130 132 128 128 130 123 123 125 138 138 140 122 122 124 122 122 124 142 142 144 139 139 141 145 145 147 126 126 128 139 139 141 119 119 121 118 118 120 123 123 125 139 139 141 122 122 124 136 136 138 131 131 133 132 132 134 137 137 139 126 126 128 118 118 120 144 144 146 132 132 134 140 140 142 125 125 127 120 120 122 118 118 120 120 120 122 126 126 128 131 131 133 119 119 121 126 126 128 116 116 118 126 126 128 128 128 130 144 144 146 117 117 119 123 123 125 124 124 126 121 121 123 143 143 145 124 124 126 144 144 146 130 130 132 144 144 146 123 123 125 142 142 144 131 131 133 137 137 139 133 133 135 141 141 143 119 119 121 131 131 133 125 125 127 139 139 141 140 140 142 142 142 144 143 143 145 123 123 125 117 117 119 144 144 146 130 130 132 139 139 141 116 116 118 143 143 145 127 127 129 134 134 136 127 127 129 138 138 140 119 119 121 137 137 139 120 120 122 136 136 138 121 121 123 117 117 119 126 126 128 122 122 124 123 123 125 134 134 136 134 134 136 118 118 120 126 126 128 137 137 139 133 133 135 139 139 141 116 116 118 136 136 138 127 127 129 122 122 124 133 133 135 140 140 142 138 138 140 118 118 120 141 141 143 133 133 135 117 117 119 115 115 117 118 118 120 130 130 132 125 125 127 117 117 119 120 120 122 136 136 138 144 144 146 143 143 145 142 142 144 132 132 134 126 126 128 131 131 133 131 131 133 145 145 147 137 137 139 128 128 130 139 139 141 129 129 131 132 132 134 115 115 117 124 124 126 123 123 125 132 132 134 125 125 127 135 135 137 145 145 147 131 131 133 139 139 141 145 145 147 116 116 118 128 128 130 139 139 141 123 123 125 144 144 146 138 138 140 137 137 139 115 115 117 126 126 128 120 120 122 142 142 144 123 123 125 136 136 138 143 143 145 145 145 147 143 143 145 133 133 135 129 129 131 128 128 130 137 137 139 142 142 144 138 138 140 140 140 142 128 128 130 121 121 123 127 127 129 124 124 126 118 118 120 131 131 133 134 134 136 129 129 131 119 119 121 145 145 147 144 144 146 129 129 131 143 143 145 142 142 144 125 125 127 138 138 140 123 123 125 123 123 125 120 120 122 135 135 137 130 130 132 123 123 125 145 145 147 135 135 137 124 124 126 121 121 123 122 122 124 133 133 135 128 128 130 118 118 120 115 115 117 130 130 132 118 118 120 119 119 121 136 136 138 118 118 120 136 136 138 144 144 146 117 117 119 122 122 124 139 139 141 119 119 121 131 131 133 126 126 128 119 119 121 116 116 118 121 121 123 
123 123 125 115 115 117 138 138 140 136 136 138 121 121 123 145 145 147 137 137 139 125 125 127 117 117 119 128 128 130 142 142 144 145 145 147 126 126 128 127 127 129 126 126 128 133 133 135 115 115 117 135 135 137 126 126 128 116 116 118 141 141 143 131 131 133 118 118 120 143 143 145 132 132 134 125 125 127 142 142 144 124 124 126 130 130 132 138 138 140 140 140 142 123 123 125 140 140 142 121 121 123 135 135 137 131 131 133 121 121 123 125 125 127 136 136 138 136 136 138 133 133 135 143 143 145 127 127 129 119 119 121 128 128 130 132 132 134 138 138 140 122 122 124 138 138 140 144 144 146 126 126 128 144 144 146 117 117 119 129 129 131 138 138 140 119 119 121 126 126 128 145 145 147 127 127 129 128 128 130 143 143 145 117 117 119 132 132 134 137 137 139 123 123 125 123 123 125 115 115 117 138 138 140 124 124 126 138 138 140 131 131 133 128 128 130 122 122 124 115 115 117 132 132 134 136 136 138 123 123 125 130 130 132 139 139 141 115 115 117 128 128 130 120 120 122 121 121 123 130 130 132 144 144 146 137 137 139 116 116 118 121 121 123 139 139 141 121 121 123 122 122 124 116 116 118 122 122 124 120 120 122 143 143 145 139 139 141 129 129 131 145 145 147 132 132 134 137 137 139 128 128 130 143 143 145 141 141 143 139 139 141 117 117 119 132 132 134 125 125 127 144 144 146 122 122 124 128 128 130 144 144 146 144 144 146 144 144 146 145 145 147 123 123 125 120 120 122 143 143 145 142 142 144 118 118 120 118 118 120 124 124 126 133 133 135 139 139 141 121 121 123 117 117 119 144 144 146 143 143 145 138 138 140 132 132 134 115 115 117 124 124 126 126 126 128 118 118 120 130 130 132 133 133 135 141 141 143 133 133 135 138 138 140 132 132 134 124 124 126 123 123 125 120 120 122 120 120 122 118 118 120 144 144 146 145 145 147 127 127 129 118 118 120 138 138 140 134 134 136 135 135 137 139 139 141 125 125 127 134 134 136 139 139 141 119 119 121 123 123 125 115 115 117 125 125 127 141 141 143 120 120 122 143 143 145 144 144 146 136 136 138 133 133 135 137 137 139 116 116 118 135 135 137 138 138 140 124 124 126 128 128 130 126 126 128 144 144 146 140 140 142 140 140 142 137 137 139 130 130 132 126 126 128 134 134 136 129 129 131 143 143 145 130 130 132 136 136 138 131 131 133 126 126 128 137 137 139 135 135 137 130 130 132 132 132 134 129 129 131 130 130 132 131 131 133 133 133 135 120 120 122 121 121 123 144 144 146 141 141 143 116 116 118 135 135 137 118 118 120 128 128 130 134 134 136 144 144 146 133 133 135 131 131 133 124 124 126 133 133 135 124 124 126 115 115 117 136 136 138 133 133 135 145 145 147 137 137 139 127 127 129 141 141 143 116 116 118 115 115 117 129 129 131 144 144 146 144 144 146 128 128 130 128 128 130 129 129 131 128 128 130 137 137 139 145 145 147 116 116 118 142 142 144 129 129 131 126 126 128 121 121 123 126 126 128 145 145 147 135 135 137 127 127 129 132 132 134 122 122 124 128 128 130 142 142 144 142 142 144 134 134 136 125 125 127 122 122 124 119 119 121 124 124 126 126 126 128 130 130 132 136 136 138 134 134 136 143 143 145 125 125 127 139 139 141 133 133 135 140 140 142 129 129 131 119 119 121 
137 137 139 121 121 123 139 139 141 144 144 146 140 140 142 125 125 127 116 116 118 121 121 123 116 116 118 140 140 142 137 137 139 133 133 135 126 126 128 144 144 146 124 124 126 128 128 130 126 126 128 127 127 129 120 120 122 137 137 139 121 121 123 117 117 119 128 128 130 124 124 126 129 129 131 120 120 122 117 117 119 119 119 121 124 124 126 134 134 136 120 120 122 124 124 126 124 124 126 120 120 122 129 129 131 127 127 129 135 135 137 139 139 141 139 139 141 130 130 132 141 141 143 126 126 128 118 118 120 134 134 136 117 117 119 127 127 129 137 137 139 124 124 126 115 115 117 136 136 138 135 135 137 126 126 128 131 131 133 139 139 141 119 119 121 116 116 118 130 130 132 116 116 118 121 121 123 126 126 128 139 139 141 126 126 128 143 143 145 126 126 128 138 138 140 137 137 139 115 115 117 132 132 134 118 118 120 142 142 144 139 139 141 141 141 143 126 126 128 144 144 146 120 120 122 115 115 117 145 145 147 140 140 142 136 136 138 124 124 126 117 117 119 145 145 147 123 123 125 117 117 119 128 128 130 124 124 126 132 132 134 116 116 118 130 130 132 128 128 130 128 128 130 119 119 121 121 121 123 115 115 117 129 129 131 125 125 127 122 122 124 129 129 131 139 139 141 123 123 125 143 143 145 141 141 143 121 121 123 135 135 137 115 115 117 118 118 120 126 126 128 126 126 128 138 138 140 118 118 120 140 140 142 143 143 145 128 128 130 121 121 123 122 122 124 138 138 140 120 120 122 121 121 123 127 127 129 125 125 127 132 132 134 122 122 124 121 121 123 126 126 128 138 138 140 137 137 139 141 141 143 124 124 126 128 128 130 144 144 146 139 139 141 143 143 145 141 141 143 114 114 116 124 124 126 118 118 120 127 127 129 125 125 127 144 144 146 145 145 147 116 116 118 137 137 139 143 143 145 139 139 141 119 119 121 144 144 146 131 131 133 144 144 146 120 120 122 125 125 127 117 117 119 119 119 121 131 131 133 126 126 128 128 128 130 121 121 123 130 130 132 116 116 118 120 120 122 121 121 123 131 131 133 117 117 119 124 124 126 128 128 130 141 141 143 131 131 133 135 135 137 127 127 129 125 125 127 122 122 124 130 130 132 140 140 142 117 117 119 115 115 117 115 115 117 137 137 139 144 144 146 128 128 130 120 120 122 124 124 126 136 136 138 119 119 121 134 134 136 117 117 119 143 143 145 119 119 121 132 132 134 128 128 130 124 124 126 137 137 139 126 126 128 124 124 126 133 133 135 144 144 146 130 130 132 144 144 146 135 135 137 124 124 126 117 117 119 128 128 130 135 135 137 127 127 129 134 134 136 122 122 124 118 118 120 129 129 131 129 129 131 140 140 142 125 125 127 132 132 134 120 120 122 127 127 129 119 119 121 122 122 124 120 120 122 139 139 141 116 116 118 132 132 134 135 135 137 119 119 121 130 130 132 133 133 135 139 139 141 115 115 117 145 145 147 122 122 124 129 129 131 136 136 138 131 131 133 133 133 135 128 128 130 145 145 147 144 144 146 137 137 139 136 136 138 128 128 130 145 145 147 127 127 129 138 138 140 131 131 133 125 125 127 122 122 124 127 127 129 139 139 141 142 142 144 123 123 125 126 126 128 121 121 123 135 135 137 136 136 138 132 132 134 135 135 137 143 143 145 124 124 126 132 132 134 134 134 136 
142 142 144 122 122 124 115 115 117 138 138 140 135 135 137 135 135 137 127 127 129 133 133 135 125 125 127 125 125 127 143 143 145 128 128 130 119 119 121 129 129 131 122 122 124 123 123 125 125 125 127 140 140 142 128 128 130 116 116 118 131 131 133 119 119 121 138 138 140 145 145 147 119 119 121 126 126 128 118 118 120 135 135 137 125 125 127 137 137 139 121 121 123 143 143 145 120 120 122 143 143 145 120 120 122 119 119 121 132 132 134 127 127 129 139 139 141 126 126 128 115 115 117 119 119 121 133 133 135 118 118 120 145 145 147 126 126 128 145 145 147 127 127 129 138 138 140 145 145 147 118 118 120 136 136 138 144 144 146 131 131 133 127 127 129 118 118 120 133 133 135 138 138 140 115 115 117 131 131 133 120 120 122 136 136 138 125 125 127 128 128 130 137 137 139 123 123 125 133 133 135 131 131 133 144 144 146 136 136 138 126 126 128 143 143 145 141 141 143 133 133 135 129 129 131 118 118 120 119 119 121 126 126 128 137 137 139 132 132 134 138 138 140 142 142 144 115 115 117 137 137 139 117 117 119 140 140 142 132 132 134 131 131 133 142 142 144 141 141 143 141 141 143 124 124 126 123 123 125 123 123 125 130 130 132 124 124 126 139 139 141 142 142 144 116 116 118 145 145 147 138 138 140 121 121 123 141 141 143 140 140 142 129 129 131 145 145 147 117 117 119 144 144 146 136 136 138 121 121 123 139 139 141 120 120 122 143 143 145 136 136 138 143 143 145 123 123 125 128 128 130 142 142 144 119 119 121 115 115 117 118 118 120 142 142 144 131 131 133 115 115 117 125 125 127 142 142 144 128 128 130 128 128 130 144 144 146 139 139 141 125 125 127 140 140 142 140 140 142 130 130 132 117 117 119 121 121 123 136 136 138 131 131 133 131 131 133 126 126 128 116 116 118 118 118 120 129 129 131 144 144 146 141 141 143 123 123 125 141 141 143 140 140 142 128 128 130 130 130 132 142 142 144 144 144 146 119 119 121 144 144 146 126 126 128 141 141 143 139 139 141 138 138 140 144 144 146 133 133 135 143 143 145 144 144 146 124 124 126 126 126 128 132 132 134 138 138 140 139 139 141 134 134 136 138 138 140 126 126 128 131 131 133 145 145 147 138 138 140 134 134 136 131 131 133 139 139 141 120 120 122 122 122 124 116 116 118 116 116 118 135 135 137 130 130 132 143 143 145 123 123 125 132 132 134 131 131 133 125 125 127 144 144 146 135 135 137 140 140 142 120 120 122 123 123 125 128 128 130 123 123 125 131 131 133 130 130 132 120 120 122 117 117 119 128 128 130 122 122 124 117 117 119 133 133 135 138 138 140 115 115 117 142 142 144 135 135 137 119 119 121 114 114 116 132 132 134 132 132 134 134 134 136 119 119 121 120 120 122 120 120 122 143 143 145 131 131 133 128 128 130 122 122 124 143 143 145 120 120 122 116 116 118 142 142 144 131 131 133 124 124 126 132 132 134 126 126 128 135 135 137 145 145 147 117 117 119 121 121 123 123 123 125 129 129 131 145 145 147 119 119 121 123 123 125 130 130 132 127 127 129 142 142 144 130 130 132 142 142 144 136 136 138 122 122 124 130 130 132 133 133 135 138 138 140 137 137 139 144 144 146 127 127 129 136 136 138 132 132 134 122 122 124 138 138 140 142 142 144 135 135 137 120 120 122 140 140 142 
127 127 129 136 136 138 125 125 127 133 133 135 119 119 121 145 145 147 138 138 140 118 118 120 139 139 141 136 136 138 145 145 147 138 138 140 133 133 135 134 134 136 141 141 143 125 125 127 138 138 140 118 118 120 125 125 127 131 131 133 120 120 122 125 125 127 116 116 118 125 125 127 133 133 135 137 137 139 136 136 138 129 129 131 122 122 124 139 139 141 145 145 147 136 136 138 115 115 117 118 118 120 142 142 144 144 144 146 122 122 124 143 143 145 145 145 147 133 133 135 135 135 137 138 138 140 143 143 145 127 127 129 143 143 145 141 141 143 134 134 136 139 139 141 134 134 136 118 118 120 127 127 129 129 129 131 130 130 132 140 140 142 131 131 133 120 120 122 136 136 138 116 116 118 131 131 133 140 140 142 120 120 122 131 131 133 118 118 120 136 136 138 137 137 139 136 136 138 124 124 126 144 144 146 127 127 129 119 119 121 141 141 143 122 122 124 116 116 118 136 136 138 121 121 123 123 123 125 144 144 146 133 133 135 135 135 137 130 130 132 123 123 125 136 136 138 116 116 118 139 139 141 129 129 131 131 131 133 119 119 121 115 115 117 142 142 144 125 125 127 145 145 147 134 134 136 125 125 127 138 138 140 143 143 145 133 133 135 127 127 129 135 135 137 139 139 141 144 144 146 135 135 137 128 128 130 130 130 132 129 129 131 126 126 128 119 119 121 140 140 142 116 116 118 130 130 132 118 118 120 115 115 117 121 121 123 143 143 145 126 126 128 116 116 118 144 144 146 131 131 133 135 135 137 145 145 147 119 119 121 117 117 119 142 142 144 128 128 130 118 118 120 134 134 136 129 129 131 138 138 140 145 145 147 134 134 136 115 115 117 120 120 122 134 134 136 126 126 128 123 123 125 120 120 122 118 118 120 140 140 142 130 130 132 132 132 134 127 127 129 119 119 121 128 128 130 119 119 121 117 117 119 132 132 134 136 136 138 127 127 129 133 133 135 137 137 139 138 138 140 131 131 133 136 136 138 115 115 117 139 139 141 145 145 147 143 143 145 142 142 144 120 120 122 135 135 137 118 118 120 126 126 128 123 123 125 138 138 140 133 133 135 138 138 140 117 117 119 127 127 129 125 125 127 134 134 136 121 121 123 139 139 141 130 130 132 122 122 124 123 123 125 123 123 125 128 128 130 129 129 131 118 118 120 135 135 137 131 131 133 143 143 145 132 132 134 135 135 137 134 134 136 120 120 122 117 117 119 133 133 135 129 129 131 125 125 127 139 139 141 141 141 143 120 120 122 142 142 144 132 132 134 132 132 134 117 117 119 128 128 130 132 132 134 143 143 145 115 115 117 144 144 146 118 118 120 133 133 135 131 131 133 118 118 120 126 126 128 140 140 142 123 123 125 129 129 131 134 134 136 115 115 117 139 139 141 139 139 141 117 117 119 134 134 136 137 137 139 134 134 136 133 133 135 123 123 125 129 129 131 132 132 134 119 119 121 123 123 125 134 134 136 125 125 127 119 119 121 121 121 123 130 130 132 140 140 142 138 138 140 120 120 122 119 119 121 139 139 141 135 135 137 117 117 119 144 144 146 121 121 123 116 116 118 139 139 141 136 136 138 141 141 143 115 115 117 116 116 118 142 142 144 117 117 119 117 117 119 127 127 129 135 135 137 122 122 124 132 132 134 136 136 138 135 135 137 130 130 132 118 118 120 118 118 120 121 121 123 
115 115 117 119 119 121 129 129 131 120 120 122 145 145 147 140 140 142 143 143 145 131 131 133 138 138 140 122 122 124 139 139 141 144 144 146 121 121 123 142 142 144 136 136 138 124 124 126 123 123 125 120 120 122 138 138 140 118 118 120 129 129 131 143 143 145 130 130 132 126 126 128 119 119 121 119 119 121 128 128 130 126 126 128 132 132 134 123 123 125 136 136 138 119 119 121 128 128 130 123 123 125 142 142 144 126 126 128 139 139 141 142 142 144 125 125 127 129 129 131 119 119 121 141 141 143 132 132 134 129 129 131 114 114 116 138 138 140 125 125 127 133 133 135 117 117 119 115 115 117 123 123 125 133 133 135 143 143 145 143 143 145 142 142 144 126 126 128 137 137 139 118 118 120 128 128 130 120 120 122 124 124 126 141 141 143 126 126 128 127 127 129 124 124 126 124 124 126 139 139 141 119 119 121 143 143 145 123 123 125 138 138 140 136 136 138 128 128 130 119 119 121 143 143 145 128 128 130 136 136 138 119 119 121 135 135 137 121 121 123 116 116 118 144 144 146 132 132 134 140 140 142 126 126 128 137 137 139 117 117 119 122 122 124 127 127 129 135 135 137 134 134 136 133 133 135 139 139 141 138 138 140 139 139 141 135 135 137 140 140 142 115 115 117 144 144 146 127 127 129 136 136 138 137 137 139 130 130 132 133 133 135 118 118 120 121 121 123 118 118 120 144 144 146 133 133 135 133 133 135 132 132 134 139 139 141 122 122 124 130 130 132 138 138 140 120 120 122 138 138 140 145 145 147 123 123 125 116 116 118 136 136 138 115 115 117 139 139 141 121 121 123 123 123 125 136 136 138 122 122 124 127 127 129 140 140 142 134 134 136 121 121 123 144 144 146 142 142 144 128 128 130 134 134 136 138 138 140 142 142 144 142 142 144 115 115 117 121 121 123 121 121 123 120 120 122 126 126 128 128 128 130 120 120 122 142 142 144 137 137 139 140 140 142 116 116 118 130 130 132 144 144 146 137 137 139 145 145 147 126 126 128 115 115 117 128 128 130 135 135 137 130 130 132 142 142 144 133 133 135 135 135 137 145 145 147 144 144 146 124 124 126 144 144 146 115 115 117 139 139 141 126 126 128 124 124 126 118 118 120 134 134 136 127 127 129 120 120 122 126 126 128 132 132 134 134 134 136 123 123 125 132 132 134 141 141 143 142 142 144 128 128 130 115 115 117 117 117 119 119 119 121 145 145 147 139 139 141 117 117 119 134 134 136 123 123 125 126 126 128 118 118 120 123 123 125 123 123 125 124 124 126 121 121 123 140 140 142 117 117 119 136 136 138 120 120 122 141 141 143 138 138 140 144 144 146 131 131 133 118 118 120 122 122 124 136 136 138 131 131 133 131 131 133 119 119 121 140 140 142 141 141 143 139 139 141 121 121 123 122 122 124 115 115 117 137 137 139 122 122 124 119 119 121 120 120 122 122 122 124 125 125 127 140 140 142 123 123 125 120 120 122 143 143 145 141 141 143 133 133 135 119 119 121 126 126 128 144 144 146 145 145 147 126 126 128 139 139 141 121 121 123 128 128 130 137 137 139 127 127 129 140 140 142 132 132 134 141 141 143 135 135 137 145 145 147 144 144 146 120 120 122 127 127 129 126 126 128 141 141 143 140 140 142 136 136 138 132 132 134 117 117 119 125 125 127 139 139 141 127 127 129 134 134 136 135 135 137 
137 137 139 144 144 146 115 115 117 125 125 127 134 134 136 130 130 132 116 116 118 118 118 120 129 129 131 126 126 128 145 145 147 131 131 133 119 119 121 132 132 134 124 124 126 116 116 118 133 133 135 143 143 145 138 138 140 144 144 146 132 132 134 138 138 140 117 117 119 129 129 131 126 126 128 116 116 118 122 122 124 144 144 146 117 117 119 134 134 136 145 145 147 120 120 122 137 137 139 132 132 134 115 115 117 139 139 141 141 141 143 142 142 144 125 125 127 117 117 119 137 137 139 132 132 134 119 119 121 119 119 121 136 136 138 140 140 142 131 131 133 130 130 132 136 136 138 128 128 130 134 134 136 129 129 131 137 137 139 145 145 147 144 144 146 125 125 127 138 138 140 131 131 133 135 135 137 140 140 142 141 141 143 141 141 143 136 136 138 118 118 120 118 118 120 134 134 136 125 125 127 120 120 122 145 145 147 126 126 128 122 122 124 133 133 135 143 143 145 131 131 133 122 122 124 117 117 119 116 116 118 139 139 141 121 121 123 140 140 142 120 120 122 129 129 131 137 137 139 139 139 141 143 143 145 142 142 144 122 122 124 127 127 129 123 123 125 133 133 135 119 119 121 115 115 117 144 144 146 123 123 125 139 139 141 140 140 142 127 127 129 127 127 129 122 122 124 143 143 145 143 143 145 126 126 128 132 132 134 116 116 118 120 120 122 125 125 127 142 142 144 116 116 118 139 139 141 142 142 144 133 133 135 123 123 125 142 142 144 125 125 127 139 139 141 127 127 129 143 143 145 124 124 126 139 139 141 119 119 121 120 120 122 138 138 140 123 123 125 115 115 117 126 126 128 123 123 125 115 115 117 136 136 138 141 141 143 126 126 128 137 137 139 132 132 134 118 118 120 114 114 116 118 118 120 141 141 143 138 138 140 118 118 120 123 123 125 115 115 117 124 124 126 133 133 135 145 145 147 144 144 146 136 136 138 123 123 125 118 118 120 141 141 143 130 130 132 130 130 132 141 141 143 140 140 142 127 127 129 132 132 134 137 137 139 121 121 123 131 131 133 124 124 126 125 125 127 132 132 134 130 130 132 129 129 131 128 128 130 124 124 126 116 116 118 132 132 134 117 117 119 126 126 128 143 143 145 141 141 143 128 128 130 131 131 133 126 126 128 141 141 143 144 144 146 123 123 125 131 131 133 121 121 123 135 135 137 121 121 123 117 117 119 137 137 139 141 141 143 123 123 125 134 134 136 127 127 129 122 122 124 135 135 137 121 121 123 135 135 137 136 136 138 143 143 145 117 117 119 122 122 124 136 136 138 138 138 140 141 141 143 115 115 117 121 121 123 124 124 126 116 116 118 145 145 147 142 142 144 120 120 122 141 141 143 137 137 139 127 127 129 145 145 147 137 137 139 126 126 128 136 136 138 121 121 123 144 144 146 125 125 127 137 137 139 132 132 134 138 138 140 138 138 140 131 131 133 131 131 133 143 143 145 137 137 139 127 127 129 125 125 127 131 131 133 121 121 123 133 133 135 126 126 128 122 122 124 116 116 118 117 117 119 139 139 141 135 135 137 118 118 120 126 126 128 120 120 122 119 119 121 138 138 140 134 134 136 116 116 118 122 122 124 121 121 123 144 144 146 118 118 120 135 135 137 124 124 126 131 131 133 143 143 145 139 139 141 120 120 122 115 115 117 122 122 124 118 118 120 130 130 132 133 133 135 125 125 127 
136 136 138 139 139 141 126 126 128 144 144 146 121 121 123 130 130 132 132 132 134 136 136 138 117 117 119 135 135 137 131 131 133 130 130 132 125 125 127 142 142 144 133 133 135 140 140 142 135 135 137 141 141 143 117 117 119 127 127 129 140 140 142 143 143 145 115 115 117 134 134 136 133 133 135 133 133 135 141 141 143 132 132 134 133 133 135 130 130 132 124 124 126 142 142 144 136 136 138 126 126 128 124 124 126 143 143 145 138 138 140 119 119 121 140 140 142 115 115 117 141 141 143 144 144 146 137 137 139 127 127 129 121 121 123 136 136 138 123 123 125 118 118 120 131 131 133 117 117 119 132 132 134 132 132 134 117 117 119 115 115 117 142 142 144 140 140 142 116 116 118 133 133 135 115 115 117 127 127 129 122 122 124 138 138 140 126 126 128 122 122 124 125 125 127 138 138 140 142 142 144 131 131 133 118 118 120 116 116 118 124 124 126 129 129 131 117 117 119 119 119 121 140 140 142 123 123 125 143 143 145 120 120 122 124 124 126 140 140 142 129 129 131 132 132 134 143 143 145 138 138 140 137 137 139 143 143 145 132 132 134 118 118 120 134 134 136 119 119 121 127 127 129 130 130 132 127 127 129 126 126 128 138 138 140 117 117 119 125 125 127 120 120 122 118 118 120 137 137 139 130 130 132 139 139 141 125 125 127 115 115 117 116 116 118 121 121 123 116 116 118 120 120 122 115 115 117 126 126 128 142 142 144 134 134 136 145 145 147 116 116 118 129 129 131 132 132 134 139 139 141 131 131 133 139 139 141 131 131 133 115 115 117 119 119 121 127 127 129 123 123 125 144 144 146 130 130 132 126 126 128 136 136 138 130 130 132 115 115 117 120 120 122 129 129 131 118 118 120 125 125 127 130 130 132 125 125 127 130 130 132 140 140 142 129 129 131 126 126 128 145 145 147 120 120 122 128 128 130 133 133 135 116 116 118 137 137 139 123 123 125 127 127 129 143 143 145 128 128 130 121 121 123 131 131 133 131 131 133 116 116 118 142 142 144 143 143 145 128 128 130 139 139 141 138 138 140 129 129 131 133 133 135 117 117 119 140 140 142 125 125 127 126 126 128 138 138 140 142 142 144 121 121 123 141 141 143 116 116 118 136 136 138 140 140 142 143 143 145 124 124 126 133 133 135 129 129 131 141 141 143 120 120 122 121 121 123 116 116 118 125 125 127 127 127 129 142 142 144 132 132 134 121 121 123 145 145 147 133 133 135 143 143 145 133 133 135 143 143 145 127 127 129 119 119 121 132 132 134 116 116 118 135 135 137 126 126 128 144 144 146 134 134 136 136 136 138 119 119 121 136 136 138 115 115 117 145 145 147 128 128 130 129 129 131 117 117 119 125 125 127 129 129 131 120 120 122 142 142 144 143 143 145 121 121 123 124 124 126 137 137 139 130 130 132 118 118 120 138 138 140 127 127 129 141 141 143 126 126 128 116 116 118 144 144 146 126 126 128 121 121 123 120 120 122 137 137 139 116 116 118 144 144 146 144 144 146 140 140 142 121 121 123 124 124 126 115 115 117 133 133 135 122 122 124 133 133 135 115 115 117 123 123 125 136 136 138 115 115 117 133 133 135 145 145 147 122 122 124 136 136 138 128 128 130 121 121 123 132 132 134 138 138 140 138 138 140 116 116 118 132 132 134 126 126 128 130 130 132 136 136 138 137 137 139 143 143 145 
118 118 120 133 133 135 140 140 142 123 123 125 123 123 125 139 139 141 117 117 119 121 121 123 117 117 119 134 134 136 122 122 124 119 119 121 120 120 122 124 124 126 121 121 123 126 126 128 119 119 121 129 129 131 130 130 132 143 143 145 130 130 132 132 132 134 116 116 118 141 141 143 118 118 120 136 136 138 121 121 123 137 137 139 116 116 118 144 144 146 140 140 142 127 127 129 135 135 137 116 116 118 132 132 134 125 125 127 142 142 144 126 126 128 136 136 138 138 138 140 137 137 139 133 133 135 120 120 122 119 119 121 128 128 130 142 142 144 115 115 117 136 136 138 136 136 138 119 119 121 145 145 147 122 122 124 129 129 131 144 144 146 134 134 136 121 121 123 139 139 141 132 132 134 124 124 126 136 136 138 114 114 116 139 139 141 138 138 140 140 140 142 140 140 142 124 124 126 124 124 126 141 141 143 125 125 127 142 142 144 137 137 139 128 128 130 145 145 147 124 124 126 127 127 129 120 120 122 126 126 128 133 133 135 125 125 127 127 127 129 123 123 125 126 126 128 129 129 131 133 133 135 140 140 142 143 143 145 119 119 121 142 142 144 142 142 144 141 141 143 132 132 134 138 138 140 130 130 132 124 124 126 138 138 140 134 134 136 139 139 141 125 125 127 143 143 145 145 145 147 117 117 119 142 142 144 120 120 122 141 141 143 128 128 130 144 144 146 144 144 146 141 141 143 131 131 133 144 144 146 128 128 130 130 130 132 115 115 117 126 126 128 117 117 119 132 132 134 127 127 129 136 136 138 117 117 119 114 114 116 122 122 124 134 134 136 144 144 146 143 143 145 138 138 140 138 138 140 137 137 139 127 127 129 118 118 120 144 144 146 124 124 126 124 124 126 132 132 134 133 133 135 141 141 143 119 119 121 138 138 140 123 123 125 135 135 137 133 133 135 124 124 126 133 133 135 136 136 138 143 143 145 119 119 121 141 141 143 133 133 135 136 136 138 144 144 146 142 142 144 139 139 141 134 134 136 130 130 132 143 143 145 131 131 133 122 122 124 133 133 135 134 134 136 141 141 143 134 134 136 135 135 137 121 121 123 137 137 139 125 125 127 143 143 145 128 128 130 140 140 142 129 129 131 120 120 122 133 133 135 116 116 118 145 145 147 123 123 125 130 130 132 140 140 142 117 117 119 139 139 141 144 144 146 142 142 144 131 131 133 125 125 127 130 130 132 145 145 147 134 134 136 126 126 128 117 117 119 141 141 143 144 144 146 136 136 138 139 139 141 136 136 138 131 131 133 115 115 117 128 128 130 141 141 143 145 145 147 144 144 146 143 143 145 136 136 138 138 138 140 128 128 130 115 115 117 115 115 117 138 138 140 127 127 129 137 137 139 124 124 126 144 144 146 131 131 133 115 115 117 141 141 143 129 129 131 119 119 121 134 134 136 139 139 141 121 121 123 145 145 147 128 128 130 122 122 124 125 125 127 119 119 121 125 125 127 133 133 135 135 135 137 121 121 123 126 126 128 130 130 132 145 145 147 124 124 126 137 137 139 116 116 118 118 118 120 130 130 132 129 129 131 133 133 135 136 136 138 133 133 135 123 123 125 116 116 118 143 143 145 145 145 147 139 139 141 116 116 118 117 117 119 141 141 143 119 119 121 125 125 127 143 143 145 138 138 140 125 125 127 130 130 132 142 142 144 133 133 135 126 126 128 139 139 141 115 115 117 
130 130 132 121 121 123 134 134 136 134 134 136 139 139 141 142 142 144 124 124 126 124 124 126 128 128 130 134 134 136 117 117 119 137 137 139 125 125 127 145 145 147 126 126 128 121 121 123 138 138 140 136 136 138 134 134 136 142 142 144 137 137 139 115 115 117 130 130 132 143 143 145 132 132 134 140 140 142 123 123 125 143 143 145 144 144 146 127 127 129 132 132 134 119 119 121 138 138 140 124 124 126 144 144 146 135 135 137 124 124 126 128 128 130 119 119 121 128 128 130 124 124 126 114 114 116 131 131 133 145 145 147 121 121 123 127 127 129 143 143 145 144 144 146 138 138 140 139 139 141 128 128 130 121 121 123 137 137 139 136 136 138 145 145 147 141 141 143 141 141 143 125 125 127 136 136 138 137 137 139 143 143 145 123 123 125 124 124 126 131 131 133 137 137 139 122 122 124 127 127 129 121 121 123 145 145 147 136 136 138 141 141 143 122 122 124 126 126 128 130 130 132 117 117 119 140 140 142 122 122 124 130 130 132 128 128 130 125 125 127 122 122 124 127 127 129 116 116 118 139 139 141 134 134 136 132 132 134 129 129 131 122 122 124 135 135 137 120 120 122 121 121 123 141 141 143 141 141 143 125 125 127 124 124 126 134 134 136 139 139 141 138 138 140 133 133 135 140 140 142 127 127 129 139 139 141 115 115 117 142 142 144 119 119 121 118 118 120 134 134 136 115 115 117 116 116 118 116 116 118 121 121 123 124 124 126 141 141 143 118 118 120 126 126 128 128 128 130 118 118 120 138 138 140 127 127 129 124 124 126 140 140 142 123 123 125 128 128 130 120 120 122 118 118 120 141 141 143 138 138 140 137 137 139 124 124 126 141 141 143 136 136 138 128 128 130 126 126 128 130 130 132 128 128 130 135 135 137 137 137 139 129 129 131 134 134 136 138 138 140 140 140 142 131 131 133 133 133 135 114 114 116 124 124 126 121 121 123 122 122 124 140 140 142 116 116 118 133 133 135 128 128 130 145 145 147 127 127 129 123 123 125 136 136 138 132 132 134 142 142 144 121 121 123 120 120 122 115 115 117 143 143 145 115 115 117 126 126 128 130 130 132 127 127 129 129 129 131 145 145 147 127 127 129 125 125 127 128 128 130 121 121 123 116 116 118 139 139 141 132 132 134 115 115 117 119 119 121 145 145 147 115 115 117 134 134 136 125 125 127 127 127 129 121 121 123 131 131 133 130 130 132 131 131 133 125 125 127 131 131 133 130 130 132 129 129 131 124 124 126 123 123 125 115 115 117 136 136 138 132 132 134 127 127 129 136 136 138 132 132 134 121 121 123 119 119 121 117 117 119 134 134 136 136 136 138 121 121 123 136 136 138 122 122 124 143 143 145 117 117 119 137 137 139 140 140 142 141 141 143 135 135 137 145 145 147 129 129 131 129 129 131 120 120 122 126 126 128 125 125 127 124 124 126 129 129 131 126 126 128 120 120 122 135 135 137 122 122 124 121 121 123 144 144 146 128 128 130 145 145 147 137 137 139 137 137 139 116 116 118 128 128 130 116 116 118 135 135 137 135 135 137 136 136 138 115 115 117 130 130 132 124 124 126 128 128 130 135 135 137 122 122 124 119 119 121 135 135 137 139 139 141 136 136 138 128 128 130 134 134 136 116 116 118 134 134 136 135 135 137 122 122 124 127 127 129 116 116 118 137 137 139 122 122 124 130 130 132 
133 133 135 123 123 125 141 141 143 132 132 134 140 140 142 140 140 142 128 128 130 131 131 133 136 136 138 131 131 133 121 121 123 123 123 125 120 120 122 129 129 131 133 133 135 117 117 119 126 126 128 137 137 139 115 115 117 144 144 146 116 116 118 136 136 138 132 132 134 120 120 122 135 135 137 136 136 138 120 120 122 134 134 136 123 123 125 134 134 136 124 124 126 117 117 119 119 119 121 142 142 144 125 125 127 144 144 146 126 126 128 124 124 126 144 144 146 120 120 122 119 119 121 126 126 128 126 126 128 144 144 146 140 140 142 135 135 137 140 140 142 129 129 131 131 131 133 140 140 142 143 143 145 134 134 136 127 127 129 129 129 131 128 128 130 127 127 129 124 124 126 130 130 132 130 130 132 135 135 137 135 135 137 139 139 141 121 121 123 141 141 143 139 139 141 124 124 126 124 124 126 139 139 141 133 133 135 133 133 135 131 131 133 141 141 143 128 128 130 142 142 144 141 141 143 137 137 139 139 139 141 135 135 137 115 115 117 118 118 120 120 120 122 117 117 119 127 127 129 125 125 127 124 124 126 124 124 126 122 122 124 145 145 147 142 142 144 141 141 143 138 138 140 135 135 137 126 126 128 119 119 121 144 144 146 138 138 140 123 123 125 142 142 144 144 144 146 118 118 120 117 117 119 145 145 147 115 115 117 124 124 126 138 138 140 122 122 124 145 145 147 123 123 125 127 127 129 142 142 144 128 128 130 136 136 138 123 123 125 136 136 138 132 132 134 135 135 137 140 140 142 117 117 119 143 143 145 137 137 139 117 117 119 123 123 125 121 121 123 130 130 132 133 133 135 136 136 138 138 138 140 143 143 145 118 118 120 130 130 132 123 123 125 122 122 124 133 133 135 131 131 133 121 121 123 132 132 134 135 135 137 122 122 124 143 143 145 139 139 141 140 140 142 131 131 133 120 120 122 126 126 128 143 143 145 125 125 127 141 141 143 136 136 138 124 124 126 140 140 142 122 122 124 122 122 124 133 133 135 136 136 138 125 125 127 143 143 145 145 145 147 145 145 147 125 125 127 122 122 124 125 125 127 141 141 143 116 116 118 133 133 135 130 130 132 143 143 145 140 140 142 144 144 146 121 121 123 129 129 131 134 134 136 130 130 132 134 134 136 115 115 117 140 140 142 117 117 119 120 120 122 118 118 120 136 136 138 137 137 139 130 130 132 118 118 120 120 120 122 132 132 134 123 123 125 114 114 116 117 117 119 127 127 129 120 120 122 133 133 135 120 120 122 123 123 125 125 125 127 132 132 134 117 117 119 141 141 143 133 133 135 138 138 140 137 137 139 144 144 146 131 131 133 141 141 143 138 138 140 129 129 131 120 120 122 131 131 133 144 144 146 133 133 135 132 132 134 138 138 140 130 130 132 126 126 128 142 142 144 135 135 137 121 121 123 135 135 137 118 118 120 141 141 143 142 142 144 115 115 117 137 137 139 135 135 137 122 122 124 130 130 132 123 123 125 129 129 131 117 117 119 118 118 120 117 117 119 142 142 144 115 115 117 137 137 139 133 133 135 134 134 136 143 143 145 119 119 121 143 143 145 145 145 147 124 124 126 120 120 122 115 115 117 115 115 117 137 137 139 133 133 135 135 135 137 126 126 128 127 127 129 129 129 131 142 142 144 127 127 129 128 128 130 141 141 143 115 115 117 144 144 146 139 139 141 131 131 133 
117 117 119 119 119 121 123 123 125 134 134 136 141 141 143 121 121 123 143 143 145 117 117 119 119 119 121 142 142 144 128 128 130 138 138 140 144 144 146 118 118 120 115 115 117 116 116 118 120 120 122 121 121 123 130 130 132 138 138 140 127 127 129 127 127 129 117 117 119 139 139 141 115 115 117 128 128 130 141 141 143 145 145 147 116 116 118 124 124 126 115 115 117 143 143 145 142 142 144 118 118 120 141 141 143 133 133 135 119 119 121 141 141 143 114 114 116 136 136 138 119 119 121 144 144 146 118 118 120 124 124 126 121 121 123 116 116 118 121 121 123 142 142 144 120 120 122 115 115 117 139 139 141 117 117 119 140 140 142 137 137 139 141 141 143 142 142 144 141 141 143 128 128 130 141 141 143 116 116 118 133 133 135 143 143 145 124 124 126 130 130 132 136 136 138 137 137 139 140 140 142 140 140 142 138 138 140 138 138 140 137 137 139 124 124 126 144 144 146 130 130 132 121 121 123 123 123 125 141 141 143 127 127 129 122 122 124 121 121 123 124 124 126 133 133 135 140 140 142 142 142 144 138 138 140 141 141 143 124 124 126 127 127 129 132 132 134 126 126 128 142 142 144 117 117 119 131 131 133 141 141 143 145 145 147 132 132 134 139 139 141 121 121 123 138 138 140 140 140 142 122 122 124 142 142 144 119 119 121 142 142 144 137 137 139 134 134 136 118 118 120 145 145 147 130 130 132 145 145 147 118 118 120 135 135 137 140 140 142 121 121 123 116 116 118 132 132 134 144 144 146 123 123 125 137 137 139 144 144 146 120 120 122 144 144 146 127 127 129 141 141 143 126 126 128 115 115 117 120 120 122 128 128 130 128 128 130 122 122 124 118 118 120 129 129 131 118 118 120 123 123 125 140 140 142 131 131 133 133 133 135 136 136 138 143 143 145 125 125 127 126 126 128 116 116 118 125 125 127 123 123 125 145 145 147 121 121 123 141 141 143 120 120 122 137 137 139 123 123 125 131 131 133 119 119 121 115 115 117 117 117 119 143 143 145 142 142 144 122 122 124 132 132 134 120 120 122 117 117 119 123 123 125 145 145 147 142 142 144 126 126 128 115 115 117 139 139 141 127 127 129 119 119 121 120 120 122 134 134 136 141 141 143 129 129 131 130 130 132 135 135 137 136 136 138 117 117 119 144 144 146 139 139 141 125 125 127 129 129 131 133 133 135 129 129 131 136 136 138 139 139 141 115 115 117 117 117 119 119 119 121 136 136 138 123 123 125 121 121 123 137 137 139 126 126 128 124 124 126 136 136 138 131 131 133 123 123 125 131 131 133 131 131 133 130 130 132 118 118 120 114 114 116 123 123 125 118 118 120 120 120 122 144 144 146 118 118 120 130 130 132 121 121 123 140 140 142 121 121 123 123 123 125 129 129 131 126 126 128 140 140 142 122 122 124 134 134 136 132 132 134 130 130 132 140 140 142 137 137 139 135 135 137 134 134 136 133 133 135 141 141 143 122 122 124 142 142 144 124 124 126 121 121 123 122 122 124 120 120 122 139 139 141 119 119 121 138 138 140 114 114 116 128 128 130 119 119 121 137 137 139 122 122 124 114 114 116 120 120 122 140 140 142 145 145 147 130 130 132 130 130 132 143 143 145 121 121 123 117 117 119 128 128 130 120 120 122 121 121 123 131 131 133 143 143 145 143 143 145 133 133 135 117 117 119 135 135 137 
127 127 129 123 123 125 117 117 119 116 116 118 131 131 133 116 116 118 136 136 138 126 126 128 138 138 140 140 140 142 122 122 124 117 117 119 125 125 127 140 140 142 144 144 146 143 143 145 128 128 130 132 132 134 136 136 138 139 139 141 138 138 140 124 124 126 144 144 146 130 130 132 127 127 129 137 137 139 142 142 144 120 120 122 115 115 117 123 123 125 138 138 140 121 121 123 136 136 138 119 119 121 117 117 119 145 145 147 136 136 138 136 136 138 134 134 136 142 142 144 134 134 136 120 120 122 138 138 140 120 120 122 116 116 118 134 134 136 140 140 142 132 132 134 119 119 121 145 145 147 140 140 142 117 117 119 126 126 128 141 141 143 125 125 127 124 124 126 140 140 142 137 137 139 137 137 139 119 119 121 137 137 139 115 115 117 144 144 146 130 130 132 118 118 120 135 135 137 137 137 139 120 120 122 124 124 126 134 134 136 142 142 144 125 125 127 135 135 137 145 145 147 116 116 118 120 120 122 118 118 120 140 140 142 127 127 129 119 119 121 139 139 141 127 127 129 144 144 146 142 142 144 120 120 122 132 132 134 118 118 120 139 139 141 132 132 134 125 125 127 137 137 139 115 115 117 116 116 118 141 141 143 141 141 143 128 128 130 122 122 124 126 126 128 134 134 136 120 120 122 138 138 140 133 133 135 131 131 133 121 121 123 115 115 117 128 128 130 130 130 132 122 122 124 129 129 131 125 125 127 120 120 122 132 132 134 117 117 119 119 119 121 118 118 120 135 135 137 119 119 121 129 129 131 145 145 147 128 128 130 122 122 124 127 127 129 139 139 141 142 142 144 134 134 136 121 121 123 144 144 146 120 120 122 131 131 133 132 132 134 126 126 128 124 124 126 129 129 131 119 119 121 140 140 142 116 116 118 125 125 127 131 131 133 117 117 119 137 137 139 122 122 124 120 120 122 116 116 118 142 142 144 138 138 140 119 119 121 127 127 129 133 133 135 132 132 134 115 115 117 126 126 128 142 142 144 135 135 137 138 138 140 124 124 126 129 129 131 132 132 134 134 134 136 128 128 130 131 131 133 134 134 136 140 140 142 125 125 127 145 145 147 132 132 134 116 116 118 134 134 136 119 119 121 131 131 133 130 130 132 139 139 141 120 120 122 144 144 146 121 121 123 119 119 121 133 133 135 125 125 127 135 135 137 136 136 138 129 129 131 123 123 125 133 133 135 132 132 134 118 118 120 122 122 124 136 136 138 131 131 133 127 127 129 128 128 130 133 133 135 126 126 128 127 127 129 118 118 120 122 122 124 128 128 130 119 119 121 141 141 143 126 126 128 135 135 137 144 144 146 131 131 133 143 143 145 122 122 124 127 127 129 126 126 128 121 121 123 124 124 126 140 140 142 132 132 134 120 120 122 143 143 145 124 124 126 116 116 118 143 143 145 140 140 142 129 129 131 121 121 123 121 121 123 135 135 137 118 118 120 125 125 127 140 140 142 138 138 140 138 138 140 138 138 140 131 131 133 127 127 129 138 138 140 115 115 117 122 122 124 132 132 134 141 141 143 115 115 117 120 120 122 125 125 127 121 121 123 124 124 126 118 118 120 135 135 137 123 123 125 122 122 124 138 138 140 138 138 140 128 128 130 117 117 119 127 127 129 131 131 133 122 122 124 137 137 139 117 117 119 131 131 133 130 130 132 143 143 145 138 138 140 124 124 126 123 123 125 
141 141 143 135 135 137 122 122 124 131 131 133 129 129 131 134 134 136 136 136 138 137 137 139 128 128 130 143 143 145 140 140 142 137 137 139 116 116 118 118 118 120 124 124 126 114 114 116 127 127 129 117 117 119 135 135 137 118 118 120 140 140 142 116 116 118 145 145 147 139 139 141 144 144 146 121 121 123 116 116 118 145 145 147 117 117 119 144 144 146 122 122 124 117 117 119 122 122 124 131 131 133 120 120 122 116 116 118 142 142 144 130 130 132 144 144 146 127 127 129 123 123 125 126 126 128 141 141 143 141 141 143 128 128 130 134 134 136 117 117 119 117 117 119 140 140 142 117 117 119 130 130 132 132 132 134 122 122 124 130 130 132 128 128 130 118 118 120 118 118 120 141 141 143 123 123 125 124 124 126 133 133 135 123 123 125 141 141 143 136 136 138 120 120 122 123 123 125 122 122 124 145 145 147 132 132 134 140 140 142 117 117 119 118 118 120 137 137 139 118 118 120 132 132 134 143 143 145 135 135 137 143 143 145 115 115 117 129 129 131 117 117 119 119 119 121 137 137 139 127 127 129 132 132 134 143 143 145 127 127 129 115 115 117 137 137 139 116 116 118 118 118 120 127 127 129 128 128 130 119 119 121 124 124 126 131 131 133 143 143 145 122 122 124 130 130 132 134 134 136 140 140 142 143 143 145 140 140 142 135 135 137 114 114 116 125 125 127 123 123 125 118 118 120 124 124 126 127 127 129 115 115 117 134 134 136 132 132 134 142 142 144 129 129 131 137 137 139 144 144 146 117 117 119 144 144 146 130 130 132 130 130 132 116 116 118 136 136 138 124 124 126 120 120 122 143 143 145 130 130 132 137 137 139 131 131 133 137 137 139 118 118 120 141 141 143 134 134 136 120 120 122 121 121 123 122 122 124 137 137 139 124 124 126 144 144 146 117 117 119 116 116 118 140 140 142 130 130 132 122 122 124 124 124 126 116 116 118 120 120 122 140 140 142 140 140 142 118 118 120 128 128 130 130 130 132 127 127 129 143 143 145 118 118 120 132 132 134 134 134 136 128 128 130 119 119 121 129 129 131 116 116 118 120 120 122 140 140 142 123 123 125 136 136 138 134 134 136 120 120 122 122 122 124 138 138 140 125 125 127 119 119 121 121 121 123 141 141 143 124 124 126 115 115 117 130 130 132 121 121 123 115 115 117 132 132 134 140 140 142 127 127 129 144 144 146 115 115 117 117 117 119 127 127 129 125 125 127 139 139 141 131 131 133 136 136 138 115 115 117 145 145 147 125 125 127 132 132 134 131 131 133 128 128 130 130 130 132 123 123 125 125 125 127 138 138 140 120 120 122 121 121 123 127 127 129 136 136 138 141 141 143 141 141 143 116 116 118 122 122 124 135 135 137 135 135 137 121 121 123 116 116 118 120 120 122 122 122 124 117 117 119 141 141 143 133 133 135 125 125 127 122 122 124 143 143 145 138 138 140 131 131 133 131 131 133 131 131 133 145 145 147 114 114 116 119 119 121 139 139 141 129 129 131 141 141 143 145 145 147 126 126 128 134 134 136 122 122 124 119 119 121 132 132 134 136 136 138 135 135 137 125 125 127 135 135 137 121 121 123 133 133 135 140 140 142 121 121 123 143 143 145 133 133 135 135 135 137 134 134 136 143 143 145 136 136 138 120 120 122 142 142 144 127 127 129 142 142 144 144 144 146 123 123 125 127 127 129 
115 115 117 140 140 142 138 138 140 139 139 141 129 129 131 131 131 133 135 135 137 140 140 142 140 140 142 118 118 120 142 142 144 138 138 140 132 132 134 143 143 145 127 127 129 126 126 128 142 142 144 131 131 133 126 126 128 132 132 134 141 141 143 117 117 119 144 144 146 117 117 119 133 133 135 127 127 129 127 127 129 137 137 139 116 116 118 118 118 120 137 137 139 145 145 147 139 139 141 122 122 124 122 122 124 140 140 142 143 143 145 138 138 140 126 126 128 129 129 131 130 130 132 116 116 118 122 122 124 125 125 127 125 125 127 124 124 126 131 131 133 144 144 146 115 115 117 141 141 143 125 125 127 117 117 119 140 140 142 115 115 117 130 130 132 139 139 141 119 119 121 137 137 139 145 145 147 115 115 117 115 115 117 120 120 122 120 120 122 116 116 118 134 134 136 130 130 132 119 119 121 136 136 138 133 133 135 132 132 134 117 117 119 124 124 126 145 145 147 130 130 132 143 143 145 120 120 122 118 118 120 127 127 129 136 136 138 140 140 142 141 141 143 133 133 135 143 143 145 132 132 134 136 136 138 130 130 132 118 118 120 133 133 135 121 121 123 137 137 139 137 137 139 123 123 125 132 132 134 137 137 139 118 118 120 120 120 122 140 140 142 136 136 138 138 138 140 115 115 117 131 131 133 141 141 143 124 124 126 128 128 130 119 119 121 133 133 135 123 123 125 144 144 146 127 127 129 114 114 116 121 121 123 124 124 126 143 143 145 120 120 122 128 128 130 127 127 129 136 136 138 131 131 133 138 138 140 135 135 137 132 132 134 118 118 120 118 118 120 140 140 142 131 131 133 145 145 147 140 140 142 128 128 130 129 129 131 137 137 139 137 137 139 145 145 147 141 141 143 134 134 136 144 144 146 116 116 118 116 116 118 128 128 130 127 127 129 127 127 129 126 126 128 125 125 127 130 130 132 123 123 125 140 140 142 137 137 139 114 114 116 130 130 132 140 140 142 138 138 140 137 137 139 137 137 139 133 133 135 118 118 120 133 133 135 129 129 131 142 142 144 135 135 137 127 127 129 144 144 146 128 128 130 137 137 139 132 132 134 141 141 143 138 138 140 117 117 119 133 133 135 118 118 120 134 134 136 140 140 142 138 138 140 143 143 145 142 142 144 123 123 125 136 136 138 125 125 127 124 124 126 121 121 123 132 132 134 117 117 119 122 122 124 120 120 122 137 137 139 121 121 123 119 119 121 140 140 142 138 138 140 144 144 146 143 143 145 143 143 145 135 135 137 142 142 144 119 119 121 143 143 145 131 131 133 117 117 119 126 126 128 131 131 133 144 144 146 116 116 118 123 123 125 125 125 127 132 132 134 138 138 140 125 125 127 132 132 134 139 139 141 129 129 131 127 127 129 120 120 122 123 123 125 116 116 118 145 145 147 139 139 141 131 131 133 130 130 132 125 125 127 135 135 137 131 131 133 126 126 128 131 131 133 123 123 125 126 126 128 133 133 135 122 122 124 136 136 138 116 116 118 128 128 130 144 144 146 115 115 117 122 122 124 131 131 133 123 123 125 137 137 139 115 115 117 130 130 132 117 117 119 120 120 122 121 121 123 122 122 124 140 140 142 143 143 145 133 133 135 138 138 140 123 123 125 125 125 127 118 118 120 139 139 141 142 142 144 140 140 142 118 118 120 133 133 135 138 138 140 143 143 145 134 134 136 119 119 121 
129 129 131 118 118 120 120 120 122 139 139 141 140 140 142 130 130 132 128 128 130 134 134 136 134 134 136 126 126 128 136 136 138 134 134 136 133 133 135 125 125 127 117 117 119 133 133 135 120 120 122 134 134 136 142 142 144 134 134 136 138 138 140 121 121 123 134 134 136 141 141 143 137 137 139 125 125 127 119 119 121 118 118 120 134 134 136 131 131 133 139 139 141 120 120 122 135 135 137 125 125 127 118 118 120 137 137 139 141 141 143 129 129 131 145 145 147 135 135 137 139 139 141 135 135 137 129 129 131 128 128 130 141 141 143 118 118 120 141 141 143 142 142 144 130 130 132 115 115 117 138 138 140 125 125 127 144 144 146 128 128 130 131 131 133 137 137 139 143 143 145 126 126 128 122 122 124 124 124 126 143 143 145 132 132 134 145 145 147 130 130 132 126 126 128 126 126 128 141 141 143 116 116 118 135 135 137 115 115 117 115 115 117 125 125 127 136 136 138 143 143 145 117 117 119 140 140 142 123 123 125 129 129 131 131 131 133 129 129 131 118 118 120 140 140 142 137 137 139 117 117 119 143 143 145 122 122 124 143 143 145 141 141 143 130 130 132 116 116 118 124 124 126 134 134 136 129 129 131 117 117 119 125 125 127 120 120 122 141 141 143 131 131 133 143 143 145 131 131 133 130 130 132 119 119 121 120 120 122 125 125 127 120 120 122 130 130 132 125 125 127 143 143 145 117 117 119 143 143 145 119 119 121 138 138 140 142 142 144 143 143 145 141 141 143 121 121 123 131 131 133 131 131 133 143 143 145 144 144 146 144 144 146 123 123 125 120 120 122 132 132 134 117 117 119 135 135 137 132 132 134 131 131 133 130 130 132 129 129 131 141 141 143 126 126 128 142 142 144 136 136 138 140 140 142 138 138 140 130 130 132 128 128 130 143 143 145 121 121 123 144 144 146 132 132 134 136 136 138 134 134 136 134 134 136 133 133 135 131 131 133 123 123 125 121 121 123 141 141 143 126 126 128 121 121 123 131 131 133 114 114 116 128 128 130 135 135 137 127 127 129 132 132 134 137 137 139 120 120 122 122 122 124 125 125 127 145 145 147 133 133 135 115 115 117 129 129 131 133 133 135 118 118 120 136 136 138 129 129 131 126 126 128 125 125 127 131 131 133 121 121 123 135 135 137 138 138 140 140 140 142 140 140 142 117 117 119 127 127 129 129 129 131 125 125 127 129 129 131 118 118 120 144 144 146 144 144 146 127 127 129 140 140 142 131 131 133 132 132 134 134 134 136 136 136 138 131 131 133 140 140 142 119 119 121 121 121 123 131 131 133 137 137 139 125 125 127 131 131 133 117 117 119 142 142 144 124 124 126 133 133 135 127 127 129 116 116 118 125 125 127 128 128 130 138 138 140 119 119 121 125 125 127 123 123 125 144 144 146 142 142 144 116 116 118 136 136 138 137 137 139 145 145 147 119 119 121 115 115 117 129 129 131 137 137 139 143 143 145 145 145 147 126 126 128 137 137 139 117 117 119 136 136 138 133 133 135 115 115 117 140 140 142 140 140 142 130 130 132 136 136 138 143 143 145 136 136 138 127 127 129 138 138 140 128 128 130 132 132 134 127 127 129 122 122 124 125 125 127 125 125 127 116 116 118 116 116 118 143 143 145 118 118 120 117 117 119 142 142 144 120 120 122 124 124 126 128 128 130 132 132 134 126 126 128 140 140 142 
141 141 143 119 119 121 121 121 123 123 123 125 114 114 116 123 123 125 139 139 141 118 118 120 126 126 128 135 135 137 137 137 139 129 129 131 125 125 127 116 116 118 142 142 144 143 143 145 127 127 129 114 114 116 132 132 134 138 138 140 130 130 132 127 127 129 130 130 132 114 114 116 121 121 123 125 125 127 129 129 131 126 126 128 145 145 147 117 117 119 139 139 141 125 125 127 117 117 119 137 137 139 124 124 126 137 137 139 120 120 122 138 138 140 123 123 125 137 137 139 138 138 140 128 128 130 144 144 146 132 132 134 131 131 133 134 134 136 133 133 135 121 121 123 125 125 127 128 128 130 137 137 139 134 134 136 122 122 124 132 132 134 134 134 136 136 136 138 144 144 146 136 136 138 129 129 131 122 122 124 140 140 142 139 139 141 141 141 143 143 143 145 144 144 146 132 132 134 138 138 140 117 117 119 133 133 135 126 126 128 120 120 122 124 124 126 137 137 139 125 125 127 123 123 125 144 144 146 117 117 119 133 133 135 129 129 131 129 129 131 125 125 127 131 131 133 135 135 137 134 134 136 129 129 131 137 137 139 115 115 117 133 133 135 130 130 132 124 124 126 135 135 137 143 143 145 142 142 144 136 136 138 135 135 137 115 115 117 134 134 136 142 142 144 128 128 130 123 123 125 129 129 131 120 120 122 144 144 146 135 135 137 143 143 145 116 116 118 131 131 133 120 120 122 142 142 144 125 125 127 133 133 135 134 134 136 145 145 147 131 131 133 120 120 122 139 139 141 116 116 118 137 137 139 116 116 118 134 134 136 122 122 124 116 116 118 123 123 125 141 141 143 116 116 118 138 138 140 126 126 128 122 122 124 134 134 136 140 140 142 135 135 137 131 131 133 137 137 139 131 131 133 138 138 140 142 142 144 128 128 130 141 141 143 132 132 134 119 119 121 144 144 146 134 134 136 140 140 142 120 120 122 141 141 143 116 116 118 126 126 128 114 114 116 127 127 129 122 122 124 130 130 132 145 145 147 126 126 128 127 127 129 144 144 146 129 129 131 129 129 131 132 132 134 143 143 145 121 121 123 115 115 117 139 139 141 116 116 118 116 116 118 115 115 117 127 127 129 124 124 126 138 138 140 126 126 128 129 129 131 141 141 143 144 144 146 119 119 121 119 119 121 140 140 142 133 133 135 141 141 143 120 120 122 119 119 121 133 133 135 122 122 124 118 118 120 116 116 118 123 123 125 115 115 117 132 132 134 118 118 120 137 137 139 138 138 140 127 127 129 124 124 126 120 120 122 132 132 134 119 119 121 124 124 126 134 134 136 120 120 122 142 142 144 125 125 127 139 139 141 121 121 123 140 140 142 116 116 118 138 138 140 140 140 142 120 120 122 145 145 147 128 128 130 142 142 144 145 145 147 122 122 124 126 126 128 138 138 140 134 134 136 129 129 131 122 122 124 116 116 118 115 115 117 135 135 137 136 136 138 135 135 137 142 142 144 129 129 131 121 121 123 132 132 134 140 140 142 134 134 136 120 120 122 120 120 122 139 139 141 116 116 118 124 124 126 138 138 140 144 144 146 141 141 143 119 119 121 142 142 144 125 125 127 116 116 118 144 144 146 140 140 142 122 122 124 117 117 119 137 137 139 120 120 122 115 115 117 136 136 138 145 145 147 132 132 134 134 134 136 129 129 131 122 122 124 120 120 122 144 144 146 143 143 145 143 143 145 
138 138 140 116 116 118 135 135 137 145 145 147 117 117 119 132 132 134 124 124 126 140 140 142 123 123 125 145 145 147 141 141 143 141 141 143 117 117 119 122 122 124 143 143 145 119 119 121 141 141 143 132 132 134 142 142 144 136 136 138 135 135 137 138 138 140 134 134 136 140 140 142 124 124 126 137 137 139 139 139 141 131 131 133 135 135 137 137 137 139 130 130 132 127 127 129 127 127 129 141 141 143 143 143 145 126 126 128 118 118 120 137 137 139 132 132 134 120 120 122 127 127 129 135 135 137 116 116 118 114 114 116 127 127 129 139 139 141 125 125 127 138 138 140 136 136 138 127 127 129 142 142 144 127 127 129 118 118 120 138 138 140 131 131 133 123 123 125 134 134 136 130 130 132 122 122 124 122 122 124 132 132 134 115 115 117 137 137 139 120 120 122 139 139 141 115 115 117 117 117 119 116 116 118 139 139 141 132 132 134 137 137 139 144 144 146 141 141 143 139 139 141 126 126 128 140 140 142 118 118 120 131 131 133 118 118 120 119 119 121 127 127 129 131 131 133 131 131 133 129 129 131 132 132 134 135 135 137 135 135 137 138 138 140 140 140 142 128 128 130 119 119 121 135 135 137 120 120 122 131 131 133 122 122 124 124 124 126 138 138 140 143 143 145 123 123 125 131 131 133 125 125 127 119 119 121 144 144 146 145 145 147 130 130 132 140 140 142 137 137 139 122 122 124 138 138 140 138 138 140 133 133 135 136 136 138 123 123 125 127 127 129 123 123 125 133 133 135 128 128 130 142 142 144 132 132 134 137 137 139 127 127 129 129 129 131 136 136 138 135 135 137 132 132 134 139 139 141 119 119 121 138 138 140 120 120 122 115 115 117 141 141 143 141 141 143 117 117 119 141 141 143 119 119 121 136 136 138 114 114 116 122 122 124 144 144 146 125 125 127 133 133 135 118 118 120 144 144 146 122 122 124 118 118 120 134 134 136 122 122 124 137 137 139 142 142 144 127 127 129 135 135 137 138 138 140 131 131 133 145 145 147 142 142 144 132 132 134 132 132 134 116 116 118 127 127 129 138 138 140 141 141 143 115 115 117 127 127 129 145 145 147 124 124 126 127 127 129 121 121 123 120 120 122 134 134 136 130 130 132 139 139 141 145 145 147 139 139 141 140 140 142 128 128 130 116 116 118 141 141 143 136 136 138 116 116 118 119 119 121 139 139 141 121 121 123 119 119 121 127 127 129 125 125 127 145 145 147 120 120 122 133 133 135 142 142 144 115 115 117 122 122 124 134 134 136 125 125 127 133 133 135 125 125 127 122 122 124 143 143 145 117 117 119 114 114 116 117 117 119 138 138 140 141 141 143 140 140 142 140 140 142 143 143 145 133 133 135 141 141 143 130 130 132 130 130 132 145 145 147 134 134 136 136 136 138 137 137 139 128 128 130 139 139 141 144 144 146 119 119 121 138 138 140 140 140 142 136 136 138 126 126 128 115 115 117 137 137 139 142 142 144 130 130 132 134 134 136 132 132 134 144 144 146 138 138 140 122 122 124 140 140 142 128 128 130 123 123 125 134 134 136 120 120 122 122 122 124 117 117 119 129 129 131 136 136 138 116 116 118 123 123 125 134 134 136 139 139 141 122 122 124 120 120 122 141 141 143 116 116 118 129 129 131 116 116 118 132 132 134 139 139 141 144 144 146 143 143 145 141 141 143 120 120 122 117 117 119 
145 145 147 116 116 118 144 144 146 128 128 130 129 129 131 131 131 133 137 137 139 141 141 143 132 132 134 132 132 134 141 141 143 131 131 133 133 133 135 125 125 127 119 119 121 130 130 132 140 140 142 145 145 147 131 131 133 141 141 143 142 142 144 119 119 121 139 139 141 137 137 139 145 145 147 137 137 139 123 123 125 131 131 133 120 120 122 142 142 144 139 139 141 127 127 129 122 122 124 122 122 124 124 124 126 145 145 147 140 140 142 129 129 131 130 130 132 122 122 124 145 145 147 128 128 130 124 124 126 140 140 142 123 123 125 124 124 126 127 127 129 131 131 133 141 141 143 122 122 124 121 121 123 131 131 133 135 135 137 131 131 133 137 137 139 127 127 129 125 125 127 115 115 117 123 123 125 129 129 131 133 133 135 116 116 118 115 115 117 141 141 143 127 127 129 144 144 146 138 138 140 140 140 142 129 129 131 119 119 121 130 130 132 129 129 131 131 131 133 141 141 143 141 141 143 128 128 130 122 122 124 131 131 133 134 134 136 133 133 135 139 139 141 137 137 139 135 135 137 137 137 139 145 145 147 126 126 128 141 141 143 143 143 145 122 122 124 138 138 140 119 119 121 140 140 142 144 144 146 115 115 117 136 136 138 120 120 122 115 115 117 133 133 135 121 121 123 136 136 138 141 141 143 125 125 127 115 115 117 128 128 130 132 132 134 128 128 130 129 129 131 114 114 116 120 120 122 116 116 118 136 136 138 140 140 142 131 131 133 133 133 135 117 117 119 128 128 130 129 129 131 115 115 117 124 124 126 141 141 143 137 137 139 140 140 142 124 124 126 118 118 120 140 140 142 141 141 143 126 126 128 138 138 140 144 144 146 140 140 142 118 118 120 142 142 144 125 125 127 133 133 135 143 143 145 129 129 131 143 143 145 136 136 138 127 127 129 122 122 124 123 123 125 130 130 132 121 121 123 137 137 139 115 115 117 126 126 128 143 143 145 121 121 123 133 133 135 135 135 137 118 118 120 122 122 124 118 118 120 125 125 127 130 130 132 128 128 130 127 127 129 126 126 128 115 115 117 119 119 121 120 120 122 135 135 137 125 125 127 132 132 134 115 115 117 116 116 118 125 125 127 117 117 119 132 132 134 130 130 132 134 134 136 139 139 141 116 116 118 125 125 127 143 143 145 119 119 121 120 120 122 134 134 136 119 119 121 137 137 139 114 114 116 129 129 131 131 131 133 144 144 146 136 136 138 122 122 124 131 131 133 131 131 133 137 137 139 127 127 129 119 119 121 119 119 121 116 116 118 135 135 137 125 125 127 122 122 124 117 117 119 129 129 131 127 127 129 122 122 124 138 138 140 140 140 142 126 126 128 141 141 143 125 125 127 137 137 139 128 128 130 134 134 136 122 122 124 119 119 121 134 134 136 131 131 133 143 143 145 141 141 143 129 129 131 133 133 135 139 139 141 139 139 141 137 137 139 115 115 117 136 136 138 143 143 145 137 137 139 130 130 132 118 118 120 119 119 121 125 125 127 132 132 134 126 126 128 132 132 134 142 142 144 121 121 123 139 139 141 132 132 134 118 118 120 134 134 136 124 124 126 119 119 121 136 136 138 130 130 132 126 126 128 134 134 136 130 130 132 141 141 143 132 132 134 122 122 124 131 131 133 140 140 142 129 129 131 144 144 146 125 125 127 118 118 120 137 137 139 135 135 137 134 134 136 130 130 132 
132 132 134 135 135 137 118 118 120 126 126 128 133 133 135 145 145 147 140 140 142 134 134 136 134 134 136 136 136 138 129 129 131 120 120 122 115 115 117 141 141 143 125 125 127 115 115 117 141 141 143 124 124 126 136 136 138 140 140 142 117 117 119 126 126 128 137 137 139 123 123 125 122 122 124 114 114 116 140 140 142 131 131 133 128 128 130 138 138 140 139 139 141 124 124 126 134 134 136 118 118 120 125 125 127 117 117 119 117 117 119 126 126 128 144 144 146 130 130 132 130 130 132 144 144 146 140 140 142 119 119 121 129 129 131 126 126 128 144 144 146 117 117 119 132 132 134 131 131 133 129 129 131 120 120 122 145 145 147 116 116 118 115 115 117 137 137 139 123 123 125 116 116 118 143 143 145 128 128 130 141 141 143 136 136 138 135 135 137 118 118 120 140 140 142 117 117 119 134 134 136 141 141 143 130 130 132 135 135 137 133 133 135 137 137 139 121 121 123 125 125 127 126 126 128 145 145 147 140 140 142 136 136 138 117 117 119 145 145 147 132 132 134 128 128 130 121 121 123 128 128 130 133 133 135 118 118 120 126 126 128 115 115 117 129 129 131 134 134 136 116 116 118 126 126 128 142 142 144 120 120 122 129 129 131 120 120 122 136 136 138 140 140 142 140 140 142 137 137 139 125 125 127 133 133 135 127 127 129 126 126 128 115 115 117 143 143 145 118 118 120 131 131 133 120 120 122 142 142 144 130 130 132 139 139 141 132 132 134 134 134 136 140 140 142 115 115 117 141 141 143 141 141 143 115 115 117 141 141 143 127 127 129 119 119 121 127 127 129 119 119 121 138 138 140 127 127 129 134 134 136 142 142 144 132 132 134 138 138 140 122 122 124 129 129 131 138 138 140 135 135 137 138 138 140 134 134 136 123 123 125 125 125 127 119 119 121 114 114 116 134 134 136 143 143 145 137 137 139 129 129 131 144 144 146 135 135 137 127 127 129 144 144 146 132 132 134 145 145 147 128 128 130 131 131 133 136 136 138 116 116 118 135 135 137 139 139 141 123 123 125 127 127 129 131 131 133 121 121 123 144 144 146 130 130 132 126 126 128 141 141 143 130 130 132 114 114 116 144 144 146 130 130 132 135 135 137 120 120 122 117 117 119 126 126 128 132 132 134 120 120 122 134 134 136 119 119 121 143 143 145 115 115 117 145 145 147 125 125 127 123 123 125 132 132 134 131 131 133 120 120 122 121 121 123 132 132 134 124 124 126 136 136 138 116 116 118 139 139 141 133 133 135 141 141 143 130 130 132 128 128 130 129 129 131 121 121 123 142 142 144 120 120 122 143 143 145 139 139 141 136 136 138 130 130 132 130 130 132 120 120 122 115 115 117 132 132 134 137 137 139 142 142 144 116 116 118 140 140 142 144 144 146 125 125 127 143 143 145 118 118 120 117 117 119 119 119 121 121 121 123 138 138 140 120 120 122 125 125 127 119 119 121 129 129 131 137 137 139 118 118 120 134 134 136 128 128 130 114 114 116 143 143 145 145 145 147 115 115 117 142 142 144 140 140 142 137 137 139 123 123 125 140 140 142 139 139 141 143 143 145 117 117 119 143 143 145 129 129 131 129 129 131 134 134 136 119 119 121 117 117 119 116 116 118 136 136 138 130 130 132 115 115 117 132 132 134 119 119 121 142 142 144 140 140 142 138 138 140 134 134 136 142 142 144 137 137 139 
122 122 124 141 141 143 136 136 138 127 127 129 123 123 125 142 142 144 115 115 117 134 134 136 118 118 120 121 121 123 128 128 130 121 121 123 140 140 142 121 121 123 125 125 127 140 140 142 135 135 137 129 129 131 116 116 118 143 143 145 116 116 118 123 123 125 118 118 120 129 129 131 128 128 130 123 123 125 139 139 141 129 129 131 142 142 144 141 141 143 142 142 144 123 123 125 144 144 146 120 120 122 123 123 125 125 125 127 132 132 134 126 126 128 117 117 119 123 123 125 125 125 127 116 116 118 119 119 121 122 122 124 134 134 136 131 131 133 118 118 120 117 117 119 125 125 127 114 114 116 139 139 141 125 125 127 139 139 141 136 136 138 118 118 120 130 130 132 114 114 116 142 142 144 129 129 131 129 129 131 128 128 130 116 116 118 137 137 139 123 123 125 142 142 144 144 144 146 127 127 129 117 117 119 138 138 140 135 135 137 134 134 136 122 122 124 145 145 147 140 140 142 139 139 141 140 140 142 118 118 120 140 140 142 131 131 133 138 138 140 136 136 138 135 135 137 137 137 139 130 130 132 136 136 138 144 144 146 115 115 117 131 131 133 127 127 129 122 122 124 132 132 134 123 123 125 140 140 142 127 127 129 132 132 134 142 142 144 141 141 143 132 132 134 141 141 143 127 127 129 133 133 135 141 141 143 127 127 129 123 123 125 144 144 146 122 122 124 123 123 125 133 133 135 137 137 139 117 117 119 133 133 135 115 115 117 141 141 143 133 133 135 115 115 117 119 119 121 122 122 124 140 140 142 144 144 146 124 124 126 134 134 136 118 118 120 117 117 119 129 129 131 131 131 133 132 132 134 132 132 134 117 117 119 140 140 142 129 129 131 128 128 130 121 121 123 140 140 142 143 143 145 137 137 139 142 142 144 118 118 120 119 119 121 120 120 122 117 117 119 128 128 130 126 126 128 125 125 127 117 117 119 125 125 127 120 120 122 121 121 123 125 125 127 140 140 142 134 134 136 117 117 119 144 144 146 133 133 135 137 137 139 129 129 131 135 135 137 139 139 141 133 133 135 128 128 130 124 124 126 130 130 132 136 136 138 116 116 118 132 132 134 144 144 146 141 141 143 132 132 134 114 114 116 132 132 134 116 116 118 144 144 146 127 127 129 144 144 146 122 122 124 137 137 139 142 142 144 116 116 118 144 144 146 123 123 125 121 121 123 126 126 128 135 135 137 121 121 123 144 144 146 134 134 136 121 121 123 145 145 147 133 133 135 121 121 123 143 143 145 125 125 127 124 124 126 130 130 132 134 134 136 138 138 140 138 138 140 116 116 118 134 134 136 131 131 133 130 130 132 131 131 133 120 120 122 123 123 125 122 122 124 136 136 138 145 145 147 121 121 123 135 135 137 145 145 147 143 143 145 116 116 118 126 126 128 138 138 140 120 120 122 144 144 146 145 145 147 134 134 136 130 130 132 144 144 146 132 132 134 137 137 139 134 134 136 126 126 128 134 134 136 133 133 135 125 125 127 115 115 117 124 124 126 116 116 118 138 138 140 140 140 142 125 125 127 114 114 116 130 130 132 120 120 122 131 131 133 131 131 133 116 116 118 142 142 144 125 125 127 132 132 134 128 128 130 132 132 134 128 128 130 137 137 139 120 120 122 131 131 133 143 143 145 134 134 136 133 133 135 131 131 133 123 123 125 140 140 142 115 115 117 120 120 122 138 138 140 
130 130 132 121 121 123 127 127 129 124 124 126 121 121 123 116 116 118 128 128 130 130 130 132 126 126 128 117 117 119 117 117 119 115 115 117 145 145 147 133 133 135 118 118 120 140 140 142 118 118 120 124 124 126 134 134 136 139 139 141 123 123 125 140 140 142 127 127 129 125 125 127 141 141 143 145 145 147 125 125 127 127 127 129 124 124 126 142 142 144 123 123 125 136 136 138 122 122 124 138 138 140 117 117 119 126 126 128 124 124 126 128 128 130 122 122 124 124 124 126 133 133 135 134 134 136 121 121 123 114 114 116 117 117 119 123 123 125 142 142 144 145 145 147 138 138 140 139 139 141 130 130 132 128 128 130 132 132 134 124 124 126 138 138 140 118 118 120 117 117 119 145 145 147 120 120 122 140 140 142 140 140 142 135 135 137 125 125 127 133 133 135 142 142 144 123 123 125 144 144 146 130 130 132 121 121 123 141 141 143 135 135 137 144 144 146 141 141 143 123 123 125 116 116 118 137 137 139 130 130 132 123 123 125 120 120 122 127 127 129 131 131 133 118 118 120 118 118 120 139 139 141 136 136 138 123 123 125 122 122 124 143 143 145 136 136 138 131 131 133 121 121 123 114 114 116 114 114 116 119 119 121 128 128 130 143 143 145 140 140 142 119 119 121 117 117 119 122 122 124 128 128 130 144 144 146 120 120 122 135 135 137 128 128 130 141 141 143 116 116 118 137 137 139 127 127 129 137 137 139 140 140 142 123 123 125 127 127 129 118 118 120 131 131 133 130 130 132 139 139 141 139 139 141 136 136 138 142 142 144 122 122 124 138 138 140 120 120 122 144 144 146 124 124 126 128 128 130 118 118 120 125 125 127 140 140 142 132 132 134 115 115 117 132 132 134 118 118 120 118 118 120 138 138 140 136 136 138 125 125 127 125 125 127 120 120 122 131 131 133 135 135 137 128 128 130 139 139 141 133 133 135 125 125 127 137 137 139 126 126 128 135 135 137 141 141 143 129 129 131 142 142 144 126 126 128 142 142 144 125 125 127 116 116 118 122 122 124 135 135 137 130 130 132 140 140 142 139 139 141 138 138 140 119 119 121 132 132 134 131 131 133 133 133 135 119 119 121 135 135 137 129 129 131 134 134 136 143 143 145 143 143 145 142 142 144 120 120 122 136 136 138 114 114 116 121 121 123 125 125 127 115 115 117 133 133 135 121 121 123 116 116 118 136 136 138 124 124 126 136 136 138 132 132 134 117 117 119 120 120 122 127 127 129 121 121 123 142 142 144 120 120 122 140 140 142 123 123 125 132 132 134 115 115 117 118 118 120 133 133 135 141 141 143 121 121 123 141 141 143 122 122 124 123 123 125 115 115 117 143 143 145 134 134 136 136 136 138 135 135 137 124 124 126 127 127 129 131 131 133 137 137 139 136 136 138 132 132 134 118 118 120 143 143 145 120 120 122 136 136 138 128 128 130 128 128 130 126 126 128 126 126 128 129 129 131 115 115 117 116 116 118 124 124 126 121 121 123 117 117 119 137 137 139 115 115 117 143 143 145 126 126 128 118 118 120 140 140 142 133 133 135 133 133 135 132 132 134 117 117 119 133 133 135 133 133 135 130 130 132 118 118 120 125 125 127 138 138 140 136 136 138 136 136 138 133 133 135 115 115 117 129 129 131 139 139 141 139 139 141 129 129 131 118 118 120 138 138 140 123 123 125 132 132 134 143 143 145 
143 143 145 139 139 141 119 119 121 136 136 138 124 124 126 127 127 129 115 115 117 145 145 147 129 129 131 131 131 133 118 118 120 140 140 142 128 128 130 139 139 141 118 118 120 138 138 140 118 118 120 131 131 133 119 119 121 144 144 146 122 122 124 138 138 140 136 136 138 117 117 119 131 131 133 142 142 144 126 126 128 142 142 144 130 130 132 127 127 129 121 121 123 131 131 133 135 135 137 132 132 134 118 118 120 119 119 121 118 118 120 140 140 142 119 119 121 134 134 136 143 143 145 115 115 117 136 136 138 141 141 143 135 135 137 121 121 123 138 138 140 128 128 130 143 143 145 119 119 121 124 124 126 117 117 119 134 134 136 129 129 131 131 131 133 127 127 129 131 131 133 117 117 119 116 116 118 143 143 145 118 118 120 124 124 126 129 129 131 124 124 126 120 120 122 137 137 139 145 145 147 139 139 141 136 136 138 115 115 117 135 135 137 119 119 121 137 137 139 144 144 146 134 134 136 132 132 134 123 123 125 129 129 131 116 116 118 125 125 127 132 132 134 122 122 124 118 118 120 123 123 125 143 143 145 123 123 125 115 115 117 135 135 137 116 116 118 134 134 136 124 124 126 130 130 132 142 142 144 136 136 138 115 115 117 128 128 130 126 126 128 130 130 132 145 145 147 138 138 140 135 135 137 138 138 140 133 133 135 137 137 139 133 133 135 120 120 122 136 136 138 145 145 147 133 133 135 120 120 122 131 131 133 118 118 120 143 143 145 122 122 124 123 123 125 120 120 122 139 139 141 123 123 125 142 142 144 116 116 118 126 126 128 131 131 133 122 122 124 145 145 147 138 138 140 139 139 141 122 122 124 142 142 144 140 140 142 125 125 127 138 138 140 131 131 133 141 141 143 119 119 121 126 126 128 114 114 116 134 134 136 142 142 144 121 121 123 139 139 141 118 118 120 137 137 139 118 118 120 115 115 117 139 139 141 133 133 135 126 126 128 128 128 130 118 118 120 136 136 138 144 144 146 138 138 140 134 134 136 128 128 130 124 124 126 130 130 132 136 136 138 120 120 122 124 124 126 117 117 119 144 144 146 118 118 120 141 141 143 134 134 136 123 123 125 121 121 123 126 126 128 118 118 120 128 128 130 138 138 140 135 135 137 119 119 121 127 127 129 129 129 131 138 138 140 143 143 145 123 123 125 141 141 143 128 128 130 126 126 128 119 119 121 129 129 131 121 121 123 133 133 135 124 124 126 138 138 140 115 115 117 140 140 142 130 130 132 123 123 125 122 122 124 135 135 137 138 138 140 120 120 122 116 116 118 139 139 141 129 129 131 121 121 123 131 131 133 145 145 147 128 128 130 131 131 133 125 125 127 115 115 117 131 131 133 145 145 147 122 122 124 125 125 127 125 125 127 134 134 136 130 130 132 138 138 140 138 138 140 145 145 147 116 116 118 121 121 123 123 123 125 141 141 143 127 127 129 125 125 127 122 122 124 122 122 124 144 144 146 144 144 146 124 124 126 135 135 137 120 120 122 121 121 123 143 143 145 121 121 123 120 120 122 128 128 130 117 117 119 120 120 122 117 117 119 136 136 138 137 137 139 141 141 143 130 130 132 126 126 128 136 136 138 125 125 127 135 135 137 131 131 133 138 138 140 124 124 126 130 130 132 116 116 118 120 120 122 132 132 134 115 115 117 141 141 143 115 115 117 142 142 144 133 133 135 137 137 139 
130 130 132 139 139 141 135 135 137 117 117 119 114 114 116 123 123 125 132 132 134 142 142 144 132 132 134 129 129 131 115 115 117 121 121 123 126 126 128 144 144 146 136 136 138 122 122 124 136 136 138 131 131 133 132 132 134 131 131 133 142 142 144 143 143 145 141 141 143 136 136 138 134 134 136 125 125 127 123 123 125 114 114 116 140 140 142 136 136 138 122 122 124 126 126 128 142 142 144 130 130 132 126 126 128 124 124 126 141 141 143 123 123 125 119 119 121 126 126 128 121 121 123 128 128 130 116 116 118 145 145 147 131 131 133 135 135 137 142 142 144 135 135 137 126 126 128 135 135 137 144 144 146 134 134 136 138 138 140 138 138 140 131 131 133 143 143 145 136 136 138 130 130 132 141 141 143 122 122 124 117 117 119 130 130 132 117 117 119 136 136 138 132 132 134 145 145 147 120 120 122 119 119 121 120 120 122 122 122 124 131 131 133 137 137 139 132 132 134 138 138 140 133 133 135 121 121 123 128 128 130 139 139 141 123 123 125 125 125 127 117 117 119 124 124 126 129 129 131 123 123 125 142 142 144 124 124 126 115 115 117 126 126 128 128 128 130 135 135 137 142 142 144 119 119 121 143 143 145 115 115 117 117 117 119 118 118 120 145 145 147 140 140 142 127 127 129 145 145 147 122 122 124 138 138 140 138 138 140 135 135 137 142 142 144 143 143 145 139 139 141 141 141 143 120 120 122 130 130 132 119 119 121 142 142 144 134 134 136 141 141 143 135 135 137 116 116 118 131 131 133 123 123 125 132 132 134 142 142 144 126 126 128 145 145 147 139 139 141 122 122 124 119 119 121 137 137 139 122 122 124 137 137 139 144 144 146 143 143 145 136 136 138 138 138 140 134 134 136 114 114 116 115 115 117 125 125 127 129 129 131 119 119 121 127 127 129 137 137 139 117 117 119 116 116 118 118 118 120 124 124 126 124 124 126 121 121 123 121 121 123 126 126 128 131 131 133 136 136 138 123 123 125 139 139 141 134 134 136 123 123 125 141 141 143 140 140 142 131 131 133 140 140 142 135 135 137 124 124 126 124 124 126 128 128 130 126 126 128 120 120 122 126 126 128 136 136 138 131 131 133 129 129 131 137 137 139 137 137 139 130 130 132 133 133 135 120 120 122 132 132 134 118 118 120 143 143 145 125 125 127 118 118 120 116 116 118 115 115 117 120 120 122 115 115 117 130 130 132 130 130 132 132 132 134 130 130 132 117 117 119 132 132 134 141 141 143 123 123 125 129 129 131 135 135 137 139 139 141 143 143 145 119 119 121 119 119 121 132 132 134 145 145 147 121 121 123 140 140 142 137 137 139 134 134 136 140 140 142 121 121 123 131 131 133 138 138 140 129 129 131 124 124 126 126 126 128 124 124 126 125 125 127 115 115 117 142 142 144 129 129 131 117 117 119 145 145 147 137 137 139 125 125 127 125 125 127 131 131 133 122 122 124 125 125 127 140 140 142 126 126 128 143 143 145 132 132 134 132 132 134 133 133 135 126 126 128 129 129 131 131 131 133 120 120 122 120 120 122 142 142 144 139 139 141 130 130 132 127 127 129 118 118 120 130 130 132 126 126 128 136 136 138 122 122 124 122 122 124 144 144 146 142 142 144 125 125 127 137 137 139 124 124 126 145 145 147 119 119 121 126 126 128 133 133 135 128 128 130 134 134 136 132 132 134 124 124 126 
133 133 135 129 129 131 129 129 131 124 124 126 131 131 133 123 123 125 131 131 133 140 140 142 133 133 135 137 137 139 120 120 122 134 134 136 120 120 122 139 139 141 123 123 125 122 122 124 128 128 130 133 133 135 124 124 126 145 145 147 140 140 142 116 116 118 128 128 130 129 129 131 121 121 123 126 126 128 144 144 146 142 142 144 140 140 142 118 118 120 134 134 136 131 131 133 131 131 133 129 129 131 118 118 120 143 143 145 115 115 117 129 129 131 116 116 118 138 138 140 131 131 133 135 135 137 124 124 126 140 140 142 143 143 145 136 136 138 122 122 124 116 116 118 125 125 127 143 143 145 141 141 143 130 130 132 118 118 120 137 137 139 136 136 138 142 142 144 118 118 120 138 138 140 115 115 117 131 131 133 116 116 118 120 120 122 135 135 137 118 118 120 120 120 122 133 133 135 131 131 133 136 136 138 115 115 117 126 126 128 144 144 146 142 142 144 134 134 136 121 121 123 122 122 124 124 124 126 138 138 140 118 118 120 139 139 141 125 125 127 120 120 122 138 138 140 130 130 132 131 131 133 126 126 128 130 130 132 145 145 147 144 144 146 115 115 117 125 125 127 135 135 137 130 130 132 122 122 124 126 126 128 115 115 117 134 134 136 133 133 135 123 123 125 114 114 116 122 122 124 136 136 138 139 139 141 138 138 140 132 132 134 119 119 121 137 137 139 115 115 117 123 123 125 114 114 116 121 121 123 139 139 141 132 132 134 138 138 140 140 140 142 135 135 137 133 133 135 124 124 126 137 137 139 143 143 145 144 144 146 136 136 138 116 116 118 136 136 138 122 122 124 121 121 123 123 123 125 127 127 129 124 124 126 116 116 118 116 116 118 128 128 130 136 136 138 140 140 142 137 137 139 126 126 128 141 141 143 135 135 137 138 138 140 130 130 132 143 143 145 138 138 140 144 144 146 116 116 118 133 133 135 131 131 133 135 135 137 122 122 124 136 136 138 143 143 145 118 118 120 143 143 145 136 136 138 141 141 143 141 141 143 129 129 131 140 140 142 136 136 138 128 128 130 120 120 122 120 120 122 117 117 119 137 137 139 128 128 130 115 115 117 145 145 147 144 144 146 116 116 118 127 127 129 120 120 122 137 137 139 127 127 129 141 141 143 124 124 126 145 145 147 118 118 120 142 142 144 140 140 142 124 124 126 137 137 139 133 133 135 121 121 123 127 127 129 132 132 134 134 134 136 129 129 131 119 119 121 142 142 144 139 139 141 115 115 117 124 124 126 129 129 131 121 121 123 134 134 136 122 122 124 127 127 129 139 139 141 120 120 122 131 131 133 138 138 140 125 125 127 114 114 116 116 116 118 120 120 122 140 140 142 141 141 143 118 118 120 128 128 130 122 122 124 140 140 142 117 117 119 133 133 135 121 121 123 125 125 127 116 116 118 136 136 138 114 114 116 132 132 134 144 144 146 145 145 147 126 126 128 142 142 144 119 119 121 127 127 129 139 139 141 131 131 133 122 122 124 130 130 132 139 139 141 140 140 142 143 143 145 136 136 138 136 136 138 136 136 138 140 140 142 143 143 145 125 125 127 141 141 143 142 142 144 142 142 144 117 117 119 136 136 138 119 119 121 122 122 124 128 128 130 127 127 129 116 116 118 138 138 140 121 121 123 144 144 146 143 143 145 138 138 140 135 135 137 145 145 147 128 128 130 124 124 126 127 127 129 
145 145 147 127 127 129 140 140 142 119 119 121 145 145 147 126 126 128 119 119 121 128 128 130 127 127 129 119 119 121 134 134 136 127 127 129 115 115 117 137 137 139 128 128 130 128 128 130 120 120 122 118 118 120 133 133 135 131 131 133 132 132 134 126 126 128 140 140 142 144 144 146 117 117 119 119 119 121 143 143 145 132 132 134 125 125 127 140 140 142 137 137 139 129 129 131 139 139 141 123 123 125 115 115 117 139 139 141 144 144 146 118 118 120 142 142 144 116 116 118 119 119 121 121 121 123 123 123 125 132 132 134 138 138 140 134 134 136 123 123 125 138 138 140 115 115 117 142 142 144 139 139 141 115 115 117 138 138 140 142 142 144 119 119 121 141 141 143 126 126 128 125 125 127 131 131 133 118 118 120 121 121 123 130 130 132 134 134 136 134 134 136 124 124 126 126 126 128 138 138 140 142 142 144 127 127 129 135 135 137 135 135 137 123 123 125 135 135 137 132 132 134 138 138 140 119 119 121 136 136 138 124 124 126 140 140 142 130 130 132 126 126 128 116 116 118 145 145 147 138 138 140 144 144 146 130 130 132 125 125 127 134 134 136 122 122 124 117 117 119 134 134 136 115 115 117 127 127 129 134 134 136 131 131 133 117 117 119 135 135 137 141 141 143 139 139 141 130 130 132 124 124 126 141 141 143 125 125 127 125 125 127 141 141 143 124 124 126 115 115 117 134 134 136 138 138 140 125 125 127 125 125 127 127 127 129 121 121 123 122 122 124 115 115 117 132 132 134 139 139 141 141 141 143 142 142 144 124 124 126 145 145 147 127 127 129 132 132 134 128 128 130 129 129 131 120 120 122 132 132 134 123 123 125 131 131 133 115 115 117 117 117 119 140 140 142 144 144 146 115 115 117 118 118 120 132 132 134 128 128 130 136 136 138 144 144 146 128 128 130 121 121 123 132 132 134 138 138 140 138 138 140 114 114 116 138 138 140 120 120 122 129 129 131 131 131 133 119 119 121 139 139 141 137 137 139 129 129 131 115 115 117 131 131 133 138 138 140 141 141 143 140 140 142 118 118 120 139 139 141 124 124 126 130 130 132 120 120 122 137 137 139 139 139 141 121 121 123 137 137 139 135 135 137 145 145 147 128 128 130 142 142 144 144 144 146 133 133 135 122 122 124 141 141 143 122 122 124 115 115 117 120 120 122 129 129 131 141 141 143 121 121 123 137 137 139 129 129 131 132 132 134 135 135 137 139 139 141 131 131 133 126 126 128 120 120 122 121 121 123 141 141 143 121 121 123 121 121 123 124 124 126 114 114 116 117 117 119 132 132 134 135 135 137 139 139 141 141 141 143 134 134 136 122 122 124 121 121 123 117 117 119 131 131 133 122 122 124 118 118 120 121 121 123 140 140 142 142 142 144 117 117 119 115 115 117 120 120 122 138 138 140 141 141 143 121 121 123 126 126 128 115 115 117 123 123 125 145 145 147 118 118 120 138 138 140 131 131 133 127 127 129 130 130 132 128 128 130 136 136 138 137 137 139 143 143 145 121 121 123 134 134 136 121 121 123 117 117 119 117 117 119 131 131 133 143 143 145 143 143 145 137 137 139 118 118 120 134 134 136 131 131 133 120 120 122 139 139 141 145 145 147 132 132 134 123 123 125 138 138 140 119 119 121 121 121 123 136 136 138 115 115 117 140 140 142 124 124 126 131 131 133 114 114 116 135 135 137 
139 139 141 144 144 146 115 115 117 121 121 123 125 125 127 144 144 146 127 127 129 135 135 137 131 131 133 126 126 128 119 119 121 122 122 124 140 140 142 144 144 146 139 139 141 133 133 135 130 130 132 127 127 129 135 135 137 114 114 116 134 134 136 133 133 135 119 119 121 139 139 141 133 133 135 140 140 142 118 118 120 125 125 127 116 116 118 141 141 143 115 115 117 142 142 144 137 137 139 139 139 141 136 136 138 134 134 136 131 131 133 126 126 128 126 126 128 114 114 116 143 143 145 116 116 118 136 136 138 116 116 118 115 115 117 116 116 118 122 122 124 136 136 138 142 142 144 138 138 140 143 143 145 119 119 121 133 133 135 115 115 117 138 138 140 135 135 137 122 122 124 140 140 142 132 132 134 134 134 136 132 132 134 123 123 125 137 137 139 124 124 126 130 130 132 144 144 146 117 117 119 128 128 130 130 130 132 115 115 117 136 136 138 135 135 137 128 128 130 121 121 123 137 137 139 117 117 119 121 121 123 143 143 145 128 128 130 118 118 120 134 134 136 145 145 147 134 134 136 143 143 145 141 141 143 130 130 132 138 138 140 141 141 143 131 131 133 124 124 126 117 117 119 137 137 139 131 131 133 130 130 132 129 129 131 137 137 139 123 123 125 138 138 140 120 120 122 119 119 121 145 145 147 136 136 138 145 145 147 116 116 118 141 141 143 136 136 138 130 130 132 130 130 132 137 137 139 115 115 117 140 140 142 137 137 139 128 128 130 115 115 117 128 128 130 140 140 142 119 119 121 119 119 121 136 136 138 122 122 124 115 115 117 145 145 147 140 140 142 116 116 118 141 141 143 144 144 146 119 119 121 125 125 127 117 117 119 138 138 140 134 134 136 118 118 120 119 119 121 124 124 126 138 138 140 137 137 139 136 136 138 136 136 138 116 116 118 129 129 131 137 137 139 125 125 127 141 141 143 143 143 145 126 126 128 131 131 133 132 132 134 119 119 121 122 122 124 139 139 141 130 130 132 139 139 141 144 144 146 123 123 125 124 124 126 143 143 145 124 124 126 132 132 134 128 128 130 133 133 135 141 141 143 141 141 143 126 126 128 119 119 121 119 119 121 142 142 144 130 130 132 143 143 145 126 126 128 127 127 129 117 117 119 138 138 140 140 140 142 135 135 137 141 141 143 122 122 124 143 143 145 144 144 146 142 142 144 122 122 124 126 126 128 115 115 117 116 116 118 128 128 130 142 142 144 119 119 121 132 132 134 141 141 143 141 141 143 143 143 145 124 124 126 137 137 139 143 143 145 144 144 146 137 137 139 137 137 139 131 131 133 129 129 131 133 133 135 129 129 131 119 119 121 144 144 146 122 122 124 114 114 116 130 130 132 124 124 126 121 121 123 121 121 123 115 115 117 125 125 127 133 133 135 126 126 128 121 121 123 132 132 134 115 115 117 143 143 145 120 120 122 120 120 122 141 141 143 129 129 131 127 127 129 139 139 141 142 142 144 119 119 121 145 145 147 127 127 129 119 119 121 141 141 143 144 144 146 124 124 126 127 127 129 131 131 133 115 115 117 128 128 130 143 143 145 134 134 136 116 116 118 137 137 139 127 127 129 128 128 130 139 139 141 137 137 139 119 119 121 140 140 142 136 136 138 118 118 120 126 126 128 130 130 132 143 143 145 145 145 147 145 145 147 119 119 121 129 129 131 125 125 127 119 119 121 115 115 117 
145 145 147 143 143 145 139 139 141 126 126 128 121 121 123 136 136 138 142 142 144 137 137 139 122 122 124 142 142 144 138 138 140 144 144 146 136 136 138 132 132 134 116 116 118 130 130 132 118 118 120 126 126 128 126 126 128 127 127 129 115 115 117 117 117 119 143 143 145 130 130 132 118 118 120 120 120 122 116 116 118 133 133 135 115 115 117 145 145 147 138 138 140 137 137 139 128 128 130 121 121 123 131 131 133 143 143 145 142 142 144 137 137 139 140 140 142 140 140 142 124 124 126 144 144 146 122 122 124 144 144 146 136 136 138 131 131 133 123 123 125 141 141 143 123 123 125 117 117 119 116 116 118 119 119 121 118 118 120 116 116 118 119 119 121 134 134 136 137 137 139 127 127 129 125 125 127 138 138 140 125 125 127 131 131 133 124 124 126 130 130 132 125 125 127 133 133 135 115 115 117 124 124 126 127 127 129 134 134 136 125 125 127 121 121 123 144 144 146 118 118 120 118 118 120 115 115 117 143 143 145 137 137 139 115 115 117 126 126 128 134 134 136 121 121 123 134 134 136 122 122 124 118 118 120 134 134 136 139 139 141 136 136 138 132 132 134 141 141 143 118 118 120 144 144 146 116 116 118 130 130 132 115 115 117 130 130 132 133 133 135 119 119 121 131 131 133 131 131 133 116 116 118 134 134 136 135 135 137 132 132 134 133 133 135 127 127 129 136 136 138 145 145 147 130 130 132 130 130 132 125 125 127 131 131 133 117 117 119 141 141 143 132 132 134 129 129 131 116 116 118 121 121 123 128 128 130 114 114 116 120 120 122 122 122 124 124 124 126 128 128 130 135 135 137 126 126 128 139 139 141 119 119 121 126 126 128 117 117 119 132 132 134 121 121 123 120 120 122 140 140 142 130 130 132 140 140 142 139 139 141 144 144 146 142 142 144 119 119 121 132 132 134 139 139 141 120 120 122 132 132 134 127 127 129 141 141 143 140 140 142 142 142 144 128 128 130 117 117 119 116 116 118 132 132 134 142 142 144 138 138 140 134 134 136 132 132 134 115 115 117 128 128 130 144 144 146 145 145 147 138 138 140 126 126 128 137 137 139 138 138 140 116 116 118 121 121 123 116 116 118 139 139 141 142 142 144 128 128 130 136 136 138 116 116 118 129 129 131 134 134 136 115 115 117 126 126 128 137 137 139 134 134 136 124 124 126 115 115 117 121 121 123 142 142 144 123 123 125 124 124 126 142 142 144 137 137 139 131 131 133 140 140 142 139 139 141 137 137 139 134 134 136 119 119 121 140 140 142 131 131 133 122 122 124 121 121 123 127 127 129 144 144 146 131 131 133 119 119 121 121 121 123 135 135 137 137 137 139 116 116 118 120 120 122 128 128 130 119 119 121 116 116 118 129 129 131 123 123 125 132 132 134 115 115 117 123 123 125 133 133 135 121 121 123 142 142 144 130 130 132 144 144 146 116 116 118 129 129 131 121 121 123 133 133 135 136 136 138 117 117 119 141 141 143 143 143 145 125 125 127 145 145 147 135 135 137 131 131 133 118 118 120 115 115 117 139 139 141 133 133 135 125 125 127 116 116 118 143 143 145 145 145 147 116 116 118 118 118 120 129 129 131 119 119 121 127 127 129 117 117 119 125 125 127 131 131 133 141 141 143 119 119 121 114 114 116 144 144 146 132 132 134 123 123 125 135 135 137 133 133 135 116 116 118 120 120 122 
118 118 120 130 130 132 126 126 128 144 144 146 132 132 134 135 135 137 116 116 118 132 132 134 135 135 137 120 120 122 118 118 120 142 142 144 143 143 145 115 115 117 118 118 120 141 141 143 132 132 134 143 143 145 123 123 125 139 139 141 126 126 128 126 126 128 133 133 135 122 122 124 133 133 135 137 137 139 117 117 119 132 132 134 143 143 145 115 115 117 130 130 132 135 135 137 123 123 125 139 139 141 134 134 136 142 142 144 116 116 118 122 122 124 122 122 124 120 120 122 145 145 147 115 115 117 119 119 121 126 126 128 116 116 118 144 144 146 133 133 135 129 129 131 137 137 139 115 115 117 135 135 137 122 122 124 131 131 133 134 134 136 129 129 131 124 124 126 141 141 143 115 115 117 135 135 137 130 130 132 129 129 131 116 116 118 124 124 126 135 135 137 115 115 117 140 140 142 124 124 126 125 125 127 131 131 133 136 136 138 140 140 142 140 140 142 132 132 134 116 116 118 132 132 134 126 126 128 130 130 132 115 115 117 135 135 137 126 126 128 115 115 117 131 131 133 128 128 130 144 144 146 133 133 135 124 124 126 131 131 133 144 144 146 119 119 121 129 129 131 140 140 142 131 131 133 124 124 126 135 135 137 135 135 137 119 119 121 119 119 121 124 124 126 128 128 130 121 121 123 140 140 142 129 129 131 138 138 140 139 139 141 142 142 144 131 131 133 133 133 135 133 133 135 138 138 140 136 136 138 138 138 140 127 127 129 122 122 124 141 141 143 121 121 123 117 117 119 123 123 125 132 132 134 132 132 134 126 126 128 138 138 140 143 143 145 141 141 143 134 134 136 143 143 145 118 118 120 125 125 127 116 116 118 132 132 134 131 131 133 137 137 139 125 125 127 141 141 143 138 138 140 116 116 118 143 143 145 132 132 134 120 120 122 143 143 145 120 120 122 126 126 128 125 125 127 134 134 136 123 123 125 124 124 126 116 116 118 136 136 138 142 142 144 127 127 129 129 129 131 118 118 120 135 135 137 133 133 135 117 117 119 120 120 122 144 144 146 120 120 122 127 127 129 129 129 131 143 143 145 125 125 127 141 141 143 141 141 143 143 143 145 134 134 136 128 128 130 124 124 126 137 137 139 124 124 126 126 126 128 122 122 124 115 115 117 116 116 118 142 142 144 123 123 125 126 126 128 121 121 123 117 117 119 118 118 120 130 130 132 141 141 143 116 116 118 138 138 140 125 125 127 118 118 120 140 140 142 144 144 146 117 117 119 120 120 122 141 141 143 143 143 145 135 135 137 117 117 119 135 135 137 139 139 141 124 124 126 141 141 143 137 137 139 121 121 123 121 121 123 129 129 131 133 133 135 129 129 131 130 130 132 145 145 147 123 123 125 142 142 144 119 119 121 144 144 146 117 117 119 122 122 124 121 121 123 118 118 120 131 131 133 133 133 135 144 144 146 128 128 130 116 116 118 132 132 134 142 142 144 143 143 145 116 116 118 121 121 123 124 124 126 126 126 128 129 129 131 115 115 117 133 133 135 140 140 142 116 116 118 117 117 119 127 127 129 145 145 147 116 116 118 129 129 131 126 126 128 139 139 141 142 142 144 145 145 147 139 139 141 143 143 145 119 119 121 129 129 131 142 142 144 130 130 132 126 126 128 124 124 126 122 122 124 132 132 134 123 123 125 127 127 129 137 137 139 116 116 118 134 134 136 116 116 118 122 122 124 
132 132 134 144 144 146 141 141 143 142 142 144 134 134 136 128 128 130 128 128 130 133 133 135 143 143 145 119 119 121 119 119 121 132 132 134 126 126 128 122 122 124 145 145 147 118 118 120 115 115 117 128 128 130 135 135 137 127 127 129 120 120 122 130 130 132 117 117 119 144 144 146 133 133 135 136 136 138 128 128 130 115 115 117 126 126 128 140 140 142 137 137 139 115 115 117 122 122 124 139 139 141 139 139 141 116 116 118 120 120 122 129 129 131 119 119 121 121 121 123 144 144 146 144 144 146 126 126 128 121 121 123 123 123 125 123 123 125 126 126 128 134 134 136 140 140 142 137 137 139 124 124 126 118 118 120 141 141 143 131 131 133 130 130 132 124 124 126 132 132 134 141 141 143 133 133 135 144 144 146 129 129 131 131 131 133 119 119 121 145 145 147 115 115 117 120 120 122 141 141 143 137 137 139 130 130 132 144 144 146 129 129 131 137 137 139 121 121 123 122 122 124 120 120 122 145 145 147 120 120 122 143 143 145 115 115 117 123 123 125 120 120 122 139 139 141 129 129 131 117 117 119 141 141 143 139 139 141 144 144 146 142 142 144 136 136 138 119 119 121 132 132 134 124 124 126 123 123 125 138 138 140 131 131 133 139 139 141 129 129 131 129 129 131 139 139 141 129 129 131 129 129 131 134 134 136 130 130 132 138 138 140 123 123 125 126 126 128 124 124 126 124 124 126 116 116 118 137 137 139 131 131 133 128 128 130 115 115 117 133 133 135 119 119 121 115 115 117 128 128 130 134 134 136 133 133 135 124 124 126 138 138 140 144 144 146 131 131 133 121 121 123 132 132 134 117 117 119 129 129 131 131 131 133 129 129 131 143 143 145 139 139 141 120 120 122 139 139 141 129 129 131 117 117 119 133 133 135 124 124 126 120 120 122 117 117 119 118 118 120 141 141 143 116 116 118 133 133 135 120 120 122 126 126 128 135 135 137 139 139 141 144 144 146 143 143 145 117 117 119 128 128 130 137 137 139 127 127 129 122 122 124 126 126 128 122 122 124 129 129 131 127 127 129 137 137 139 139 139 141 124 124 126 142 142 144 116 116 118 131 131 133 120 120 122 121 121 123 118 118 120 134 134 136 126 126 128 122 122 124 140 140 142 130 130 132 128 128 130 115 115 117 131 131 133 130 130 132 121 121 123 119 119 121 121 121 123 128 128 130 128 128 130 120 120 122 116 116 118 123 123 125 126 126 128 115 115 117 143 143 145 129 129 131 125 125 127 137 137 139 144 144 146 119 119 121 117 117 119 144 144 146 130 130 132 135 135 137 126 126 128 130 130 132 139 139 141 141 141 143 137 137 139 139 139 141 139 139 141 119 119 121 137 137 139 143 143 145 128 128 130 129 129 131 138 138 140 136 136 138 129 129 131 132 132 134 130 130 132 134 134 136 135 135 137 115 115 117 117 117 119 125 125 127 137 137 139 142 142 144 123 123 125 119 119 121 118 118 120 118 118 120 139 139 141 120 120 122 140 140 142 136 136 138 128 128 130 133 133 135 136 136 138 129 129 131 139 139 141 127 127 129 144 144 146 115 115 117 142 142 144 134 134 136 119 119 121 139 139 141 116 116 118 140 140 142 135 135 137 139 139 141 117 117 119 130 130 132 117 117 119 130 130 132 115 115 117 131 131 133 131 131 133 123 123 125 116 116 118 136 136 138 129 129 131 145 145 147 
90 90 90 90 90 90 90 90 90 90 90 90 90 90 90 90 90 90 90 90 90 90 90 90 90 90 90 90 90 90 90 90 90 90 90 90 90 90 90 90 90 90 90 90 90 90 90 90 90 90 90 90 90 90 90 90 90 90 90 90 90 90 90 90 90 90 90 90 90 90 90 90 90 90 90 90 90 90 90 90 90 90 90 90 90 90 90 90 90 90 90 90 90 90 90 90 90 90 90 90 90 90 90 90 90 90 90 90 90 90 90 90 90 90 90 90 90 90 90 90 90 90 90 90 90 90 90 90 90 90 90 90 90 90 90 90 90 90 90 90 90 90 90 90 90 90 90 90 90 90 90 90 90 90 90 90 90 90 90 90 90 90 90 90 90 90 90 90 90 90 90 90 90 90 90 90 90 90 90 90 90 90 90 90 90 90 90 90 90 90 90 90 90 90 90 90 90 90 90 90 90 90 90 90 90 90 90 90 90 90 90 90 90 90 90 90 90 90 90 90 90 90 90 90 90 90 90 90 90 90 90 90 90 90 90 90 90 90 90 90 90 90 90 90 90 90 90 90 90 90 90 90 90 90 90 90 90 90 90 90 90 90 90 90 90 90 90 90 90 90 90 90 90 90 90 90 90 90 90 90 90 90 90 90 90 90 90 90 90 90 90 90 90 90 90 90 90 90 90 90 90 90 90 90 90 90 90 90 90 90 90 90 90 90 90 90 90 90 90 90 90 90 90 90 90 90 90 90 90 90 90 90 90 90 90 90 90 90 90 90 90 90 90 90 90 90 90 90 90 90 90 90 90 90 90 90 90 90 90 90 90 90 90 90 90 90 90 90 90 90 90 90 90 90 90 90 90 90 90 90 90 90 90 90 90 90 90 90 90 90 90 90 90 90 90 90 90 90 90 90 90 90 90 90 90 90 90 90 90 90 90 90 90 90 90 90 90 90 90 90 90 90 90 90 90 90 90 90 90 90 90 90 90 90 90 90 90 90 90 90 90 90 90 90 90 90 90 90 90 90 90 90 90 90 90 90 90 90 90 90 90 90 90 90 90 90 90 90 90 90 90 90 90 90 90 90 90 90 90 90 90 90 90 90 90 90 90 90 90 90 90 90 90 90 90 90 90 90 90 90 90 90 90 90 90 90 90 90 90 90 90 90 90 90 90 90 90 90 90 90 90 90 90 90 90 90 90 90 90 90 90 90 90 90 90 90 90 90 90 90 90 90 90 90 90 90 90 90 90 90 90 90 90 90 90 90 90 90 90 90 90 90 90 90 90 90 90 90 90 90 90 90 90 90 90 90 90 90 90 90 90 90 90 90 90 90 90 90 90 90 90 90 90 90 90 90 90 90 90 90 90 90 90 90 90 90 90 90 90 90 90 90 90 90 90 90 90 90 90 90 90 90 90 90 90 90 90 90 90 90 90 90 90 90 90 90 90 90 90 90 90 90 90 90 90 90 90 90 90 90 90 90 90 90 90 90 90 90 90 90 90 90 90 90 90 90 90 90 90 90 90 90 90 90 90 90 90 90 90 90 90 90 90 90 90 90 90 90 90 90 90 90 90 90 90 90 90 90 90 90 90 90 90 90 90 90 90 90 90 90 90 90 90 90 90 90 90 90 90 90 90 90 90 90 90 90 90 90 90 90 90 90 90 90 90 90 90 90 90 90 90 90 90 90 90 90 90 90 90 90 90 90 90 90 90 90 90 90 90 90 90 90 90 90 90 90 90 90 
130 130 132 143 143 145 123 123 125 142 142 144 119 119 121 128 128 130 144 144 146 134 134 136 134 134 136 140 140 142 138 138 140 139 139 141 118 118 120 125 125 127 125 125 127 142 142 144 117 117 119 135 135 137 136 136 138 129 129 131 119 119 121 139 139 141 142 142 144 133 133 135 123 123 125 136 136 138 124 124 126 117 117 119 127 127 129 130 130 132 134 134 136 134 134 136 117 117 119 118 118 120 131 131 133 136 136 138 115 115 117 123 123 125 144 144 146 138 138 140 144 144 146 138 138 140 142 142 144 129 129 131 116 116 118 120 120 122 117 117 119 114 114 116 141 141 143 129 129 131 116 116 118 118 118 120 128 128 130 121 121 123 130 130 132 134 134 136 141 141 143 120 120 122 121 121 123 135 135 137 139 139 141 142 142 144 128 128 130 134 134 136 129 129 131 140 140 142 117 117 119 139 139 141 142 142 144 145 145 147 138 138 140 124 124 126 127 127 129 143 143 145 115 115 117 119 119 121 134 134 136 122 122 124 145 145 147 119 119 121 127 127 129 132 132 134 115 115 117 121 121 123 134 134 136 119 119 121 134 134 136 131 131 133 128 128 130 122 122 124 140 140 142 120 120 122 127 127 129 130 130 132 136 136 138 119 119 121 113 113 115 125 125 127 116 116 118 124 124 126 124 124 126 144 144 146 136 136 138 139 139 141 115 115 117 121 121 123 142 142 144 117 117 119 116 116 118 143 143 145 134 134 136 116 116 118 131 131 133 115 115 117 121 121 123 116 116 118 143 143 145 119 119 121 136 136 138 119 119 121 116 116 118 136 136 138 118 118 120 124 124 126 120 120 122 140 140 142 136 136 138 127 127 129 134 134 136 142 142 144 114 114 116 131 131 133 125 125 127 134 134 136 122 122 124 121 121 123 128 128 130 128 128 130 138 138 140 128 128 130 136 136 138 120 120 122 127 127 129 122 122 124 145 145 147 131 131 133 143 143 145 120 120 122 125 125 127 142 142 144 122 122 124 117 117 119 144 144 146 129 129 131 135 135 137 131 131 133 122 122 124 143 143 145 126 126 128 135 135 137 135 135 137 120 120 122 115 115 117 144 144 146 124 124 126 115 115 117 137 137 139 140 140 142 125 125 127 115 115 117 128 128 130 124 124 126 144 144 146 118 118 120 129 129 131 138 138 140 129 129 131 116 116 118 133 133 135 131 131 133 121 121 123 128 128 130 118 118 120 121 121 123 136 136 138 144 144 146 116 116 118 130 130 132 127 127 129 134 134 136 131 131 133 119 119 121 125 125 127 118 118 120 115 115 117 133 133 135 126 126 128 116 116 118 137 137 139 145 145 147 144 144 146 133 133 135 143 143 145 125 125 127 143 143 145 121 121 123 145 145 147 127 127 129 130 130 132 128 128 130 121 121 123 132 132 134 128 128 130 135 135 137 118 118 120 138 138 140 132 132 134 133 133 135 116 116 118 145 145 147 139 139 141 137 137 139 142 142 144 127 127 129 134 134 136 146 146 148 140 140 142 125 125 127 118 118 120 115 115 117 138 138 140 126 126 128 130 130 132 129 129 131 129 129 131 137 137 139 144 144 146 141 141 143 129 129 131 128 128 130 124 124 126 139 139 141 121 121 123 121 121 123 121 121 123 132 132 134 124 124 126 119 119 121 145 145 147 124 124 126 141 141 143 145 145 147 120 120 122 119 119 121 117 117 119 115 115 117 
127 127 129 126 126 128 130 130 132 130 130 132 117 117 119 132 132 134 139 139 141 114 114 116 116 116 118 132 132 134 144 144 146 133 133 135 138 138 140 137 137 139 131 131 133 145 145 147 141 141 143 140 140 142 133 133 135 118 118 120 142 142 144 143 143 145 134 134 136 126 126 128 124 124 126 122 122 124 141 141 143 135 135 137 133 133 135 132 132 134 133 133 135 126 126 128 121 121 123 131 131 133 127 127 129 116 116 118 134 134 136 120 120 122 137 137 139 125 125 127 139 139 141 131 131 133 124 124 126 127 127 129 117 117 119 122 122 124 123 123 125 122 122 124 137 137 139 136 136 138 144 144 146 120 120 122 124 124 126 122 122 124 125 125 127 130 130 132 141 141 143 129 129 131 144 144 146 115 115 117 129 129 131 117 117 119 126 126 128 142 142 144 139 139 141 142 142 144 130 130 132 141 141 143 143 143 145 126 126 128 121 121 123 144 144 146 126 126 128 142 142 144 116 116 118 126 126 128 115 115 117 119 119 121 144 144 146 137 137 139 131 131 133 129 129 131 135 135 137 138 138 140 129 129 131 142 142 144 140 140 142 129 129 131 126 126 128 116 116 118 113 113 115 118 118 120 142 142 144 138 138 140 116 116 118 119 119 121 142 142 144 115 115 117 142 142 144 145 145 147 123 123 125 136 136 138 140 140 142 123 123 125 143 143 145 130 130 132 129 129 131 125 125 127 127 127 129 143 143 145 144 144 146 118 118 120 116 116 118 134 134 136 138 138 140 126 126 128 131 131 133 115 115 117 128 128 130 121 121 123 119 119 121 125 125 127 138 138 140 141 141 143 145 145 147 133 133 135 118 118 120 118 118 120 144 144 146 115 115 117 138 138 140 125 125 127 130 130 132 140 140 142 119 119 121 132 132 134 127 127 129 142 142 144 132 132 134 118 118 120 129 129 131 136 136 138 119 119 121 123 123 125 117 117 119 120 120 122 136 136 138 141 141 143 143 143 145 122 122 124 142 142 144 140 140 142 120 120 122 118 118 120 128 128 130 130 130 132 144 144 146 130 130 132 119 119 121 144 144 146 123 123 125 141 141 143 128 128 130 126 126 128 144 144 146 123 123 125 125 125 127 136 136 138 130 130 132 142 142 144 136 136 138 120 120 122 118 118 120 128 128 130 137 137 139 119 119 121 122 122 124 137 137 139 120 120 122 135 135 137 123 123 125 117 117 119 127 127 129 132 132 134 137 137 139 131 131 133 136 136 138 134 134 136 121 121 123 141 141 143 144 144 146 141 141 143 124 124 126 140 140 142 118 118 120 118 118 120 134 134 136 118 118 120 120 120 122 143 143 145 128 128 130 136 136 138 115 115 117 139 139 141 124 124 126 136 136 138 139 139 141 127 127 129 124 124 126 137 137 139 140 140 142 116 116 118 133 133 135 133 133 135 144 144 146 130 130 132 123 123 125 117 117 119 136 136 138 115 115 117 126 126 128 132 132 134 131 131 133 119 119 121 118 118 120 127 127 129 143 143 145 122 122 124 116 116 118 128 128 130 126 126 128 114 114 116 128 128 130 145 145 147 125 125 127 135 135 137 136 136 138 145 145 147 139 139 141 123 123 125 127 127 129 130 130 132 123 123 125 143 143 145 133 133 135 128 128 130 122 122 124 142 142 144 118 118 120 117 117 119 142 142 144 136 136 138 121 121 123 126 126 128 144 144 146 124 124 126 
121 121 123 117 117 119 131 131 133 124 124 126 142 142 144 128 128 130 145 145 147 144 144 146 138 138 140 140 140 142 121 121 123 118 118 120 121 121 123 130 130 132 122 122 124 140 140 142 126 126 128 142 142 144 142 142 144 129 129 131 133 133 135 126 126 128 125 125 127 118 118 120 122 122 124 146 146 148 128 128 130 137 137 139 118 118 120 118 118 120 123 123 125 128 128 130 141 141 143 142 142 144 115 115 117 143 143 145 143 143 145 129 129 131 134 134 136 134 134 136 133 133 135 120 120 122 117 117 119 114 114 116 123 123 125 129 129 131 124 124 126 142 142 144 137 137 139 126 126 128 143 143 145 121 121 123 123 123 125 140 140 142 118 118 120 120 120 122 128 128 130 116 116 118 124 124 126 126 126 128 118 118 120 120 120 122 115 115 117 122 122 124 145 145 147 132 132 134 137 137 139 114 114 116 138 138 140 145 145 147 127 127 129 141 141 143 142 142 144 115 115 117 137 137 139 143 143 145 125 125 127 137 137 139 128 128 130 144 144 146 119 119 121 125 125 127 131 131 133 127 127 129 133 133 135 126 126 128 132 132 134 120 120 122 142 142 144 139 139 141 114 114 116 119 119 121 142 142 144 142 142 144 134 134 136 134 134 136 142 142 144 130 130 132 117 117 119 145 145 147 145 145 147 132 132 134 145 145 147 144 144 146 119 119 121 137 137 139 127 127 129 120 120 122 144 144 146 116 116 118 120 120 122 126 126 128 137 137 139 125 125 127 143 143 145 144 144 146 137 137 139 126 126 128 117 117 119 122 122 124 139 139 141 121 121 123 145 145 147 143 143 145 119 119 121 139 139 141 133 133 135 132 132 134 118 118 120 120 120 122 134 134 136 130 130 132 133 133 135 123 123 125 137 137 139 126 126 128 143 143 145 126 126 128 128 128 130 122 122 124 126 126 128 138 138 140 116 116 118 133 133 135 139 139 141 137 137 139 126 126 128 116 116 118 143 143 145 143 143 145 116 116 118 120 120 122 131 131 133 136 136 138 124 124 126 128 128 130 127 127 129 142 142 144 126 126 128 135 135 137 127 127 129 134 134 136 134 134 136 143 143 145 115 115 117 126 126 128 135 135 137 130 130 132 132 132 134 135 135 137 137 137 139 127 127 129 134 134 136 115 115 117 121 121 123 127 127 129 130 130 132 129 129 131 135 135 137 131 131 133 135 135 137 116 116 118 116 116 118 115 115 117 139 139 141 115 115 117 124 124 126 139 139 141 142 142 144 138 138 140 140 140 142 130 130 132 141 141 143 130 130 132 124 124 126 140 140 142 136 136 138 118 118 120 143 143 145 124 124 126 136 136 138 137 137 139 144 144 146 114 114 116 137 137 139 132 132 134 127 127 129 129 129 131 122 122 124 115 115 117 121 121 123 144 144 146 116 116 118 123 123 125 138 138 140 137 137 139 141 141 143 125 125 127 124 124 126 135 135 137 129 129 131 125 125 127 122 122 124 133 133 135 117 117 119 117 117 119 127 127 129 126 126 128 135 135 137 124 124 126 134 134 136 118 118 120 143 143 145 133 133 135 118 118 120 121 121 123 133 133 135 141 141 143 135 135 137 136 136 138 138 138 140 115 115 117 117 117 119 144 144 146 131 131 133 114 114 116 121 121 123 126 126 128 146 146 148 140 140 142 115 115 117 131 131 133 127 127 129 137 137 139 125 125 127 132 132 134 
134 134 136 126 126 128 119 119 121 130 130 132 134 134 136 143 143 145 123 123 125 144 144 146 131 131 133 143 143 145 125 125 127 128 128 130 123 123 125 142 142 144 123 123 125 139 139 141 141 141 143 119 119 121 119 119 121 130 130 132 120 120 122 124 124 126 145 145 147 146 146 148 140 140 142 131 131 133 122 122 124 115 115 117 116 116 118 140 140 142 117 117 119 125 125 127 144 144 146 118 118 120 141 141 143 120 120 122 131 131 133 138 138 140 115 115 117 141 141 143 126 126 128 119 119 121 119 119 121 120 120 122 115 115 117 118 118 120 125 125 127 137 137 139 136 136 138 135 135 137 134 134 136 133 133 135 145 145 147 138 138 140 125 125 127 118 118 120 130 130 132 120 120 122 133 133 135 129 129 131 116 116 118 135 135 137 126 126 128 129 129 131 122 122 124 145 145 147 139 139 141 144 144 146 115 115 117 132 132 134 134 134 136 135 135 137 137 137 139 118 118 120 134 134 136 118 118 120 126 126 128 123 123 125 134 134 136 114 114 116 123 123 125 131 131 133 118 118 120 116 116 118 145 145 147 121 121 123 131 131 133 128 128 130 130 130 132 122 122 124 136 136 138 115 115 117 133 133 135 117 117 119 132 132 134 124 124 126 138 138 140 123 123 125 116 116 118 128 128 130 118 118 120 115 115 117 141 141 143 138 138 140 133 133 135 131 131 133 137 137 139 124 124 126 142 142 144 138 138 140 114 114 116 137 137 139 115 115 117 117 117 119 125 125 127 131 131 133 131 131 133 126 126 128 129 129 131 122 122 124 140 140 142 135 135 137 120 120 122 118 118 120 122 122 124 126 126 128 131 131 133 116 116 118 131 131 133 145 145 147 117 117 119 144 144 146 124 124 126 129 129 131 134 134 136 118 118 120 129 129 131 124 124 126 140 140 142 116 116 118 121 121 123 136 136 138 117 117 119 138 138 140 133 133 135 114 114 116 121 121 123 119 119 121 126 126 128 114 114 116 135 135 137 134 134 136 142 142 144 119 119 121 126 126 128 124 124 126 131 131 133 115 115 117 130 130 132 129 129 131 144 144 146 123 123 125 121 121 123 135 135 137 123 123 125 115 115 117 128 128 130 120 120 122 120 120 122 128 128 130 144 144 146 131 131 133 121 121 123 142 142 144 120 120 122 140 140 142 143 143 145 128 128 130 145 145 147 129 129 131 118 118 120 118 118 120 118 118 120 139 139 141 139 139 141 137 137 139 115 115 117 137 137 139 124 124 126 136 136 138 115 115 117 134 134 136 141 141 143 132 132 134 123 123 125 118 118 120 137 137 139 139 139 141 122 122 124 132 132 134 136 136 138 119 119 121 114 114 116 144 144 146 121 121 123 139 139 141 121 121 123 127 127 129 131 131 133 142 142 144 128 128 130 134 134 136 122 122 124 126 126 128 117 117 119 127 127 129 134 134 136 117 117 119 140 140 142 127 127 129 134 134 136 120 120 122 138 138 140 139 139 141 133 133 135 141 141 143 121 121 123 121 121 123 144 144 146 125 125 127 136 136 138 132 132 134 141 141 143 141 141 143 119 119 121 119 119 121 119 119 121 115 115 117 142 142 144 131 131 133 127 127 129 142 142 144 132 132 134 134 134 136 143 143 145 125 125 127 122 122 124 144 144 146 134 134 136 123 123 125 139 139 141 117 117 119 119 119 121 123 123 125 129 129 131 120 120 122 
126 126 128 126 126 128 134 134 136 113 113 115 123 123 125 116 116 118 131 131 133 132 132 134 142 142 144 133 133 135 121 121 123 115 115 117 143 143 145 139 139 141 143 143 145 130 130 132 137 137 139 135 135 137 116 116 118 143 143 145 140 140 142 125 125 127 116 116 118 134 134 136 136 136 138 133 133 135 129 129 131 142 142 144 129 129 131 115 115 117 117 117 119 127 127 129 136 136 138 140 140 142 135 135 137 122 122 124 144 144 146 139 139 141 117 117 119 129 129 131 125 125 127 115 115 117 133 133 135 128 128 130 120 120 122 125 125 127 122 122 124 132 132 134 135 135 137 115 115 117 114 114 116 142 142 144 138 138 140 122 122 124 127 127 129 144 144 146 127 127 129 115 115 117 129 129 131 144 144 146 129 129 131 114 114 116 122 122 124 138 138 140 119 119 121 140 140 142 120 120 122 114 114 116 115 115 117 120 120 122 127 127 129 133 133 135 127 127 129 125 125 127 119 119 121 124 124 126 137 137 139 140 140 142 127 127 129 123 123 125 143 143 145 129 129 131 122 122 124 119 119 121 119 119 121 132 132 134 137 137 139 118 118 120 131 131 133 118 118 120 116 116 118 131 131 133 124 124 126 133 133 135 114 114 116 135 135 137 118 118 120 138 138 140 129 129 131 126 126 128 116 116 118 144 144 146 118 118 120 138 138 140 130 130 132 141 141 143 114 114 116 140 140 142 144 144 146 135 135 137 123 123 125 134 134 136 122 122 124 124 124 126 127 127 129 124 124 126 139 139 141 136 136 138 138 138 140 129 129 131 146 146 148 145 145 147 128 128 130 140 140 142 117 117 119 144 144 146 139 139 141 135 135 137 136 136 138 144 144 146 140 140 142 145 145 147 144 144 146 127 127 129 124 124 126 138 138 140 131 131 133 121 121 123 127 127 129 126 126 128 118 118 120 128 128 130 133 133 135 140 140 142 127 127 129 122 122 124 117 117 119 117 117 119 139 139 141 137 137 139 138 138 140 141 141 143 137 137 139 114 114 116 135 135 137 138 138 140 142 142 144 145 145 147 126 126 128 131 131 133 127 127 129 140 140 142 131 131 133 132 132 134 136 136 138 136 136 138 123 123 125 127 127 129 115 115 117 134 134 136 136 136 138 119 119 121 117 117 119 125 125 127 123 123 125 137 137 139 116 116 118 134 134 136 143 143 145 133 133 135 136 136 138 119 119 121 140 140 142 122 122 124 131 131 133 144 144 146 132 132 134 143 143 145 139 139 141 123 123 125 145 145 147 119 119 121 116 116 118 124 124 126 145 145 147 130 130 132 122 122 124 129 129 131 120 120 122 119 119 121 136 136 138 130 130 132 128 128 130 131 131 133 123 123 125 116 116 118 118 118 120 124 124 126 126 126 128 140 140 142 140 140 142 127 127 129 117 117 119 141 141 143 123 123 125 125 125 127 140 140 142 131 131 133 136 136 138 132 132 134 142 142 144 142 142 144 134 134 136 114 114 116 121 121 123 142 142 144 126 126 128 126 126 128 118 118 120 124 124 126 120 120 122 121 121 123 140 140 142 144 144 146 128 128 130 138 138 140 132 132 134 131 131 133 137 137 139 137 137 139 128 128 130 144 144 146 141 141 143 140 140 142 114 114 116 141 141 143 126 126 128 137 137 139 127 127 129 116 116 118 139 139 141 144 144 146 126 126 128 138 138 140 131 131 133 140 140 142 
115 115 117 136 136 138 138 138 140 123 123 125 125 125 127 146 146 148 137 137 139 143 143 145 125 125 127 131 131 133 121 121 123 132 132 134 138 138 140 129 129 131 142 142 144 123 123 125 123 123 125 124 124 126 122 122 124 122 122 124 140 140 142 117 117 119 137 137 139 114 114 116 117 117 119 121 121 123 136 136 138 117 117 119 124 124 126 133 133 135 139 139 141 121 121 123 128 128 130 138 138 140 140 140 142 138 138 140 141 141 143 121 121 123 142 142 144 137 137 139 129 129 131 135 135 137 115 115 117 116 116 118 131 131 133 132 132 134 134 134 136 120 120 122 116 116 118 128 128 130 141 141 143 120 120 122 139 139 141 139 139 141 116 116 118 133 133 135 138 138 140 128 128 130 123 123 125 115 115 117 132 132 134 138 138 140 138 138 140 141 141 143 117 117 119 119 119 121 125 125 127 142 142 144 140 140 142 131 131 133 120 120 122 131 131 133 143 143 145 120 120 122 131 131 133 142 142 144 123 123 125 139 139 141 129 129 131 128 128 130 130 130 132 128 128 130 124 124 126 120 120 122 136 136 138 121 121 123 128 128 130 128 128 130 133 133 135 130 130 132 136 136 138 121 121 123 134 134 136 126 126 128 130 130 132 121 121 123 116 116 118 122 122 124 128 128 130 119 119 121 142 142 144 121 121 123 121 121 123 124 124 126 115 115 117 117 117 119 125 125 127 139 139 141 142 142 144 119 119 121 115 115 117 116 116 118 145 145 147 144 144 146 115 115 117 122 122 124 139 139 141 122 122 124 134 134 136 127 127 129 129 129 131 139 139 141 115 115 117 135 135 137 127 127 129 134 134 136 130 130 132 140 140 142 135 135 137 120 120 122 118 118 120 139 139 141 117 117 119 137 137 139 139 139 141 131 131 133 122 122 124 113 113 115 146 146 148 118 118 120 122 122 124 127 127 129 142 142 144 138 138 140 135 135 137 144 144 146 140 140 142 143 143 145 134 134 136 126 126 128 115 115 117 143 143 145 116 116 118 116 116 118 115 115 117 118 118 120 145 145 147 122 122 124 122 122 124 142 142 144 119 119 121 141 141 143 123 123 125 136 136 138 138 138 140 144 144 146 135 135 137 114 114 116 142 142 144 119 119 121 137 137 139 133 133 135 131 131 133 133 133 135 130 130 132 114 114 116 142 142 144 121 121 123 139 139 141 114 114 116 130 130 132 123 123 125 124 124 126 140 140 142 131 131 133 119 119 121 119 119 121 119 119 121 123 123 125 136 136 138 133 133 135 119 119 121 120 120 122 130 130 132 141 141 143 137 137 139 141 141 143 127 127 129 138 138 140 138 138 140 125 125 127 126 126 128 128 128 130 143 143 145 143 143 145 116 116 118 117 117 119 134 134 136 122 122 124 139 139 141 129 129 131 131 131 133 128 128 130 113 113 115 114 114 116 117 117 119 115 115 117 114 114 116 137 137 139 145 145 147 124 124 126 118 118 120 115 115 117 115 115 117 125 125 127 125 125 127 127 127 129 141 141 143 132 132 134 141 141 143 127 127 129 128 128 130 140 140 142 143 143 145 131 131 133 141 141 143 124 124 126 118 118 120 146 146 148 127 127 129 145 145 147 135 135 137 124 124 126 114 114 116 123 123 125 133 133 135 144 144 146 128 128 130 134 134 136 137 137 139 143 143 145 134 134 136 144 144 146 138 138 140 120 120 122 136 136 138 
121 121 123 122 122 124 130 130 132 119 119 121 144 144 146 119 119 121 140 140 142 126 126 128 132 132 134 134 134 136 128 128 130 115 115 117 120 120 122 133 133 135 133 133 135 137 137 139 142 142 144 127 127 129 124 124 126 134 134 136 128 128 130 132 132 134 141 141 143 117 117 119 119 119 121 138 138 140 140 140 142 124 124 126 120 120 122 120 120 122 138 138 140 143 143 145 123 123 125 118 118 120 126 126 128 132 132 134 133 133 135 118 118 120 143 143 145 124 124 126 126 126 128 135 135 137 124 124 126 117 117 119 115 115 117 143 143 145 134 134 136 122 122 124 137 137 139 122 122 124 122 122 124 121 121 123 136 136 138 119 119 121 139 139 141 134 134 136 143 143 145 140 140 142 125 125 127 126 126 128 122 122 124 139 139 141 116 116 118 142 142 144 118 118 120 117 117 119 120 120 122 131 131 133 124 124 126 135 135 137 143 143 145 139 139 141 122 122 124 116 116 118 122 122 124 116 116 118 133 133 135 140 140 142 143 143 145 122 122 124 135 135 137 127 127 129 123 123 125 117 117 119 118 118 120 126 126 128 119 119 121 126 126 128 134 134 136 143 143 145 130 130 132 129 129 131 128 128 130 120 120 122 141 141 143 142 142 144 131 131 133 140 140 142 121 121 123 137 137 139 119 119 121 128 128 130 119 119 121 119 119 121 129 129 131 122 122 124 134 134 136 118 118 120 118 118 120 142 142 144 119 119 121 138 138 140 125 125 127 141 141 143 129 129 131 132 132 134 136 136 138 137 137 139 116 116 118 136 136 138 141 141 143 115 115 117 144 144 146 123 123 125 136 136 138 145 145 147 116 116 118 120 120 122 129 129 131 128 128 130 128 128 130 118 118 120 133 133 135 117 117 119 139 139 141 139 139 141 119 119 121 115 115 117 137 137 139 134 134 136 116 116 118 136 136 138 128 128 130 144 144 146 140 140 142 115 115 117 138 138 140 130 130 132 144 144 146 116 116 118 139 139 141 143 143 145 139 139 141 140 140 142 119 119 121 115 115 117 116 116 118 128 128 130 137 137 139 142 142 144 117 117 119 139 139 141 128 128 130 124 124 126 116 116 118 137 137 139 146 146 148 122 122 124 125 125 127 137 137 139 125 125 127 116 116 118 128 128 130 119 119 121 128 128 130 137 137 139 140 140 142 133 133 135 123 123 125 136 136 138 130 130 132 121 121 123 116 116 118 137 137 139 141 141 143 137 137 139 139 139 141 144 144 146 145 145 147 121 121 123 117 117 119 130 130 132 116 116 118 116 116 118 123 123 125 118 118 120 138 138 140 145 145 147 128 128 130 131 131 133 138 138 140 120 120 122 121 121 123 118 118 120 121 121 123 128 128 130 121 121 123 145 145 147 132 132 134 123 123 125 139 139 141 129 129 131 131 131 133 126 126 128 131 131 133 140 140 142 127 127 129 123 123 125 117 117 119 115 115 117 143 143 145 134 134 136 131 131 133 125 125 127 145 145 147 122 122 124 115 115 117 128 128 130 125 125 127 138 138 140 116 116 118 128 128 130 128 128 130 119 119 121 144 144 146 141 141 143 140 140 142 134 134 136 122 122 124 120 120 122 135 135 137 115 115 117 137 137 139 122 122 124 122 122 124 129 129 131 139 139 141 119 119 121 115 115 117 143 143 145 124 124 126 124 124 126 122 122 124 136 136 138 119 119 121 130 130 132 
115 115 117 115 115 117 140 140 142 134 134 136 134 134 136 124 124 126 137 137 139 118 118 120 122 122 124 117 117 119 123 123 125 128 128 130 135 135 137 126 126 128 123 123 125 127 127 129 133 133 135 139 139 141 141 141 143 131 131 133 125 125 127 139 139 141 128 128 130 141 141 143 120 120 122 132 132 134 131 131 133 132 132 134 128 128 130 140 140 142 138 138 140 123 123 125 117 117 119 117 117 119 113 113 115 142 142 144 117 117 119 140 140 142 138 138 140 133 133 135 127 127 129 122 122 124 119 119 121 139 139 141 122 122 124 136 136 138 115 115 117 138 138 140 133 133 135 129 129 131 124 124 126 142 142 144 134 134 136 136 136 138 116 116 118 139 139 141 115 115 117 116 116 118 144 144 146 137 137 139 131 131 133 118 118 120 139 139 141 133 133 135 137 137 139 118 118 120 138 138 140 116 116 118 124 124 126 135 135 137 138 138 140 115 115 117 117 117 119 124 124 126 128 128 130 124 124 126 127 127 129 115 115 117 133 133 135 122 122 124 125 125 127 129 129 131 122 122 124 130 130 132 137 137 139 124 124 126 126 126 128 121 121 123 140 140 142 129 129 131 131 131 133 118 118 120 124 124 126 144 144 146 120 120 122 140 140 142 144 144 146 131 131 133 125 125 127 120 120 122 122 122 124 126 126 128 144 144 146 124 124 126 124 124 126 124 124 126 140 140 142 129 129 131 125 125 127 138 138 140 142 142 144 127 127 129 129 129 131 123 123 125 126 126 128 132 132 134 127 127 129 139 139 141 134 134 136 124 124 126 114 114 116 130 130 132 117 117 119 116 116 118 143 143 145 142 142 144 130 130 132 130 130 132 116 116 118 143 143 145 136 136 138 144 144 146 120 120 122 128 128 130 131 131 133 120 120 122 137 137 139 140 140 142 125 125 127 142 142 144 140 140 142 131 131 133 128 128 130 135 135 137 132 132 134 137 137 139 115 115 117 143 143 145 114 114 116 120 120 122 144 144 146 132 132 134 120 120 122 116 116 118 121 121 123 137 137 139 118 118 120 122 122 124 119 119 121 126 126 128 117 117 119 139 139 141 120 120 122 130 130 132 136 136 138 132 132 134 130 130 132 144 144 146 137 137 139 119 119 121 138 138 140 135 135 137 127 127 129 124 124 126 125 125 127 131 131 133 127 127 129 120 120 122 138 138 140 136 136 138 136 136 138 137 137 139 133 133 135 135 135 137 128 128 130 136 136 138 125 125 127 119 119 121 132 132 134 123 123 125 116 116 118 142 142 144 133 133 135 129 129 131 126 126 128 128 128 130 115 115 117 117 117 119 145 145 147 128 128 130 144 144 146 140 140 142 137 137 139 134 134 136 136 136 138 137 137 139 137 137 139 134 134 136 119 119 121 145 145 147 128 128 130 135 135 137 137 137 139 116 116 118 131 131 133 126 126 128 117 117 119 131 131 133 126 126 128 134 134 136 133 133 135 114 114 116 119 119 121 125 125 127 117 117 119 140 140 142 116 116 118 122 122 124 121 121 123 127 127 129 123 123 125 116 116 118 116 116 118 124 124 126 137 137 139 122 122 124 119 119 121 118 118 120 127 127 129 131 131 133 123 123 125 113 113 115 126 126 128 141 141 143 122 122 124 138 138 140 130 130 132 121 121 123 141 141 143 138 138 140 116 116 118 119 119 121 133 133 135 122 122 124 117 117 119 131 131 133 
136 136 138 113 113 115 140 140 142 125 125 127 145 145 147 119 119 121 130 130 132 126 126 128 128 128 130 137 137 139 119 119 121 141 141 143 134 134 136 123 123 125 120 120 122 127 127 129 135 135 137 128 128 130 129 129 131 142 142 144 124 124 126 131 131 133 115 115 117 141 141 143 126 126 128 115 115 117 128 128 130 119 119 121 131 131 133 124 124 126 127 127 129 135 135 137 145 145 147 134 134 136 131 131 133 145 145 147 126 126 128 120 120 122 119 119 121 139 139 141 120 120 122 124 124 126 127 127 129 128 128 130 129 129 131 136 136 138 121 121 123 121 121 123 126 126 128 141 141 143 124 124 126 113 113 115 138 138 140 124 124 126 140 140 142 117 117 119 144 144 146 116 116 118 134 134 136 145 145 147 144 144 146 137 137 139 137 137 139 119 119 121 127 127 129 121 121 123 134 134 136 118 118 120 138 138 140 116 116 118 121 121 123 131 131 133 118 118 120 144 144 146 122 122 124 140 140 142 145 145 147 115 115 117 131 131 133 143 143 145 136 136 138 132 132 134 135 135 137 133 133 135 130 130 132 118 118 120 135 135 137 140 140 142 131 131 133 140 140 142 137 137 139 136 136 138 141 141 143 140 140 142 120 120 122 144 144 146 118 118 120 139 139 141 131 131 133 137 137 139 117 117 119 130 130 132 133 133 135 136 136 138 136 136 138 134 134 136 133 133 135 129 129 131 145 145 147 124 124 126 127 127 129 143 143 145 142 142 144 145 145 147 132 132 134 138 138 140 138 138 140 132 132 134 121 121 123 124 124 126 144 144 146 126 126 128 142 142 144 120 120 122 142 142 144 137 137 139 119 119 121 129 129 131 121 121 123 121 121 123 126 126 128 136 136 138 114 114 116 143 143 145 130 130 132 130 130 132 132 132 134 125 125 127 135 135 137 128 128 130 133 133 135 125 125 127 132 132 134 143 143 145 120 120 122 135 135 137 123 123 125 140 140 142 140 140 142 123 123 125 145 145 147 133 133 135 132 132 134 142 142 144 126 126 128 137 137 139 117 117 119 127 127 129 117 117 119 119 119 121 123 123 125 115 115 117 144 144 146 142 142 144 131 131 133 119 119 121 137 137 139 118 118 120 127 127 129 138 138 140 132 132 134 142 142 144 144 144 146 121 121 123 142 142 144 136 136 138 128 128 130 120 120 122 136 136 138 139 139 141 127 127 129 145 145 147 113 113 115 127 127 129 143 143 145 143 143 145 136 136 138 133 133 135 116 116 118 136 136 138 116 116 118 129 129 131 136 136 138 135 135 137 139 139 141 116 116 118 125 125 127 136 136 138 117 117 119 124 124 126 120 120 122 138 138 140 139 139 141 122 122 124 136 136 138 139 139 141 144 144 146 138 138 140 133 133 135 137 137 139 116 116 118 135 135 137 137 137 139 140 140 142 142 142 144 134 134 136 131 131 133 131 131 133 136 136 138 133 133 135 122 122 124 120 120 122 142 142 144 142 142 144 126 126 128 137 137 139 128 128 130 131 131 133 133 133 135 123 123 125 134 134 136 136 136 138 123 123 125 118 118 120 141 141 143 120 120 122 128 128 130 136 136 138 122 122 124 130 130 132 125 125 127 140 140 142 116 116 118 131 131 133 136 136 138 136 136 138 137 137 139 117 117 119 141 141 143 141 141 143 126 126 128 143 143 145 122 122 124 134 134 136 135 135 137 145 145 147 
140 140 142 134 134 136 114 114 116 117 117 119 136 136 138 136 136 138 119 119 121 125 125 127 120 120 122 145 145 147 142 142 144 135 135 137 130 130 132 136 136 138 126 126 128 125 125 127 137 137 139 129 129 131 118 118 120 144 144 146 116 116 118 123 123 125 127 127 129 129 129 131 125 125 127 120 120 122 140 140 142 130 130 132 142 142 144 139 139 141 133 133 135 143 143 145 123 123 125 137 137 139 145 145 147 139 139 141 132 132 134 121 121 123 139 139 141 134 134 136 136 136 138 131 131 133 115 115 117 124 124 126 125 125 127 114 114 116 140 140 142 138 138 140 115 115 117 135 135 137 125 125 127 121 121 123 139 139 141 116 116 118 122 122 124 141 141 143 133 133 135 134 134 136 134 134 136 116 116 118 140 140 142 138 138 140 132 132 134 118 118 120 116 116 118 140 140 142 128 128 130 141 141 143 140 140 142 127 127 129 117 117 119 136 136 138 120 120 122 124 124 126 139 139 141 137 137 139 131 131 133 126 126 128 117 117 119 131 131 133 136 136 138 142 142 144 128 128 130 130 130 132 121 121 123 138 138 140 143 143 145 132 132 134 133 133 135 118 118 120 140 140 142 125 125 127 142 142 144 126 126 128 145 145 147 137 137 139 116 116 118 145 145 147 127 127 129 134 134 136 142 142 144 128 128 130 124 124 126 118 118 120 115 115 117 145 145 147 132 132 134 120 120 122 121 121 123 144 144 146 145 145 147 142 142 144 132 132 134 141 141 143 125 125 127 137 137 139 127 127 129 132 132 134 120 120 122 141 141 143 145 145 147 139 139 141 144 144 146 118 118 120 114 114 116 129 129 131 118 118 120 122 122 124 128 128 130 122 122 124 133 133 135 129 129 131 134 134 136 141 141 143 140 140 142 132 132 134 120 120 122 127 127 129 128 128 130 140 140 142 126 126 128 135 135 137 138 138 140 118 118 120 138 138 140 145 145 147 139 139 141 131 131 133 132 132 134 118 118 120 123 123 125 129 129 131 133 133 135 128 128 130 120 120 122 132 132 134 141 141 143 143 143 145 124 124 126 115 115 117 128 128 130 128 128 130 144 144 146 131 131 133 127 127 129 114 114 116 136 136 138 129 129 131 114 114 116 116 116 118 133 133 135 126 126 128 124 124 126 119 119 121 141 141 143 121 121 123 127 127 129 144 144 146 130 130 132 118 118 120 135 135 137 119 119 121 144 144 146 119 119 121 143 143 145 127 127 129 137 137 139 125 125 127 116 116 118 115 115 117 122 122 124 132 132 134 138 138 140 128 128 130 117 117 119 134 134 136 121 121 123 141 141 143 144 144 146 121 121 123 127 127 129 131 131 133 121 121 123 143 143 145 128 128 130 137 137 139 128 128 130 143 143 145 119 119 121 128 128 130 125 125 127 137 137 139 136 136 138 145 145 147 125 125 127 124 124 126 130 130 132 117 117 119 115 115 117 128 128 130 115 115 117 120 120 122 125 125 127 127 127 129 127 127 129 135 135 137 118 118 120 142 142 144 130 130 132 119 119 121 124 124 126 138 138 140 129 129 131 139 139 141 133 133 135 115 115 117 118 118 120 120 120 122 126 126 128 128 128 130 134 134 136 127 127 129 131 131 133 145 145 147 132 132 134 140 140 142 122 122 124 124 124 126 142 142 144 120 120 122 115 115 117 132 132 134 123 123 125 138 138 140 141 141 143 120 120 122 
132 132 134 117 117 119 120 120 122 117 117 119 143 143 145 137 137 139 124 124 126 134 134 136 142 142 144 126 126 128 131 131 133 124 124 126 125 125 127 119 119 121 138 138 140 113 113 115 123 123 125 139 139 141 114 114 116 143 143 145 136 136 138 144 144 146 130 130 132 114 114 116 127 127 129 117 117 119 141 141 143 142 142 144 136 136 138 135 135 137 129 129 131 115 115 117 122 122 124 143 143 145 143 143 145 145 145 147 140 140 142 121 121 123 143 143 145 140 140 142 125 125 127 121 121 123 127 127 129 135 135 137 144 144 146 117 117 119 113 113 115 136 136 138 134 134 136 122 122 124 136 136 138 130 130 132 134 134 136 126 126 128 135 135 137 139 139 141 119 119 121 144 144 146 116 116 118 142 142 144 126 126 128 142 142 144 142 142 144 119 119 121 127 127 129 130 130 132 134 134 136 137 137 139 133 133 135 123 123 125 124 124 126 116 116 118 132 132 134 144 144 146 141 141 143 117 117 119 121 121 123 141 141 143 127 127 129 135 135 137 142 142 144 124 124 126 123 123 125 131 131 133 140 140 142 124 124 126 122 122 124 124 124 126 129 129 131 132 132 134 123 123 125 141 141 143 133 133 135 144 144 146 130 130 132 125 125 127 139 139 141 134 134 136 140 140 142 139 139 141 143 143 145 134 134 136 115 115 117 143 143 145 138 138 140 123 123 125 139 139 141 135 135 137 126 126 128 114 114 116 130 130 132 132 132 134 122 122 124 121 121 123 121 121 123 131 131 133 116 116 118 119 119 121 138 138 140 134 134 136 130 130 132 123 123 125 116 116 118 126 126 128 131 131 133 114 114 116 117 117 119 121 121 123 122 122 124 138 138 140 139 139 141 142 142 144 137 137 139 143 143 145 138 138 140 131 131 133 138 138 140 126 126 128 124 124 126 131 131 133 122 122 124 145 145 147 126 126 128 144 144 146 143 143 145 114 114 116 125 125 127 134 134 136 128 128 130 119 119 121 127 127 129 130 130 132 123 123 125 143 143 145 119 119 121 130 130 132 122 122 124 123 123 125 126 126 128 126 126 128 121 121 123 121 121 123 140 140 142 119 119 121 134 134 136 129 129 131 123 123 125 123 123 125 130 130 132 140 140 142 141 141 143 138 138 140 126 126 128 120 120 122 138 138 140 121 121 123 122 122 124 126 126 128 134 134 136 144 144 146 119 119 121 116 116 118 116 116 118 138 138 140 142 142 144 117 117 119 119 119 121 125 125 127 122 122 124 119 119 121 133 133 135 115 115 117 126 126 128 124 124 126 134 134 136 117 117 119 125 125 127 132 132 134 133 133 135 139 139 141 127 127 129 135 135 137 123 123 125 129 129 131 131 131 133 117 117 119 120 120 122 142 142 144 128 128 130 138 138 140 117 117 119 143 143 145 128 128 130 125 125 127 141 141 143 139 139 141 129 129 131 142 142 144 131 131 133 121 121 123 127 127 129 119 119 121 137 137 139 118 118 120 116 116 118 122 122 124 144 144 146 114 114 116 119 119 121 115 115 117 124 124 126 136 136 138 123 123 125 125 125 127 139 139 141 133 133 135 145 145 147 141 141 143 130 130 132 138 138 140 143 143 145 120 120 122 117 117 119 118 118 120 118 118 120 130 130 132 144 144 146 132 132 134 130 130 132 136 136 138 119 119 121 133 133 135 138 138 140 142 142 144 120 120 122 140 140 142 
124 124 126 123 123 125 126 126 128 123 123 125 145 145 147 140 140 142 116 116 118 143 143 145 128 128 130 135 135 137 115 115 117 131 131 133 137 137 139 142 142 144 122 122 124 140 140 142 132 132 134 137 137 139 128 128 130 140 140 142 139 139 141 122 122 124 132 132 134 125 125 127 142 142 144 132 132 134 135 135 137 132 132 134 141 141 143 145 145 147 120 120 122 145 145 147 142 142 144 138 138 140 129 129 131 144 144 146 124 124 126 137 137 139 116 116 118 136 136 138 139 139 141 116 116 118 126 126 128 121 121 123 132 132 134 129 129 131 116 116 118 128 128 130 124 124 126 140 140 142 131 131 133 115 115 117 126 126 128 113 113 115 128 128 130 139 139 141 135 135 137 129 129 131 132 132 134 137 137 139 145 145 147 139 139 141 138 138 140 119 119 121 116 116 118 126 126 128 128 128 130 138 138 140 128 128 130 144 144 146 127 127 129 123 123 125 118 118 120 115 115 117 128 128 130 118 118 120 117 117 119 134 134 136 142 142 144 132 132 134 127 127 129 120 120 122 144 144 146 125 125 127 130 130 132 127 127 129 136 136 138 121 121 123 115 115 117 128 128 130 141 141 143 131 131 133 135 135 137 119 119 121 127 127 129 141 141 143 128 128 130 115 115 117 119 119 121 134 134 136 131 131 133 127 127 129 114 114 116 133 133 135 138 138 140 131 131 133 144 144 146 121 121 123 139 139 141 131 131 133 137 137 139 113 113 115 134 134 136 127 127 129 118 118 120 138 138 140 123 123 125 116 116 118 135 135 137 115 115 117 128 128 130 115 115 117 128 128 130 115 115 117 117 117 119 121 121 123 125 125 127 143 143 145 131 131 133 143 143 145 119 119 121 118 118 120 118 118 120 117 117 119 131 131 133 124 124 126 123 123 125 124 124 126 118 118 120 114 114 116 141 141 143 143 143 145 140 140 142 145 145 147 115 115 117 120 120 122 119 119 121 129 129 131 123 123 125 137 137 139 127 127 129 118 118 120 114 114 116 128 128 130 144 144 146 131 131 133 127 127 129 120 120 122 146 146 148 129 129 131 125 125 127 139 139 141 118 118 120 123 123 125 142 142 144 134 134 136 128 128 130 143 143 145 141 141 143 134 134 136 119 119 121 137 137 139 125 125 127 139 139 141 136 136 138 120 120 122 141 141 143 137 137 139 143 143 145 133 133 135 143 143 145 143 143 145 134 134 136 127 127 129 133 133 135 116 116 118 133 133 135 118 118 120 125 125 127 124 124 126 121 121 123 138 138 140 128 128 130 132 132 134 134 134 136 140 140 142 134 134 136 115 115 117 135 135 137 141 141 143 142 142 144 134 134 136 133 133 135 116 116 118 122 122 124 133 133 135 139 139 141 118 118 120 118 118 120 123 123 125 135 135 137 137 137 139 120 120 122 136 136 138 129 129 131 127 127 129 120 120 122 132 132 134 133 133 135 123 123 125 120 120 122 121 121 123 125 125 127 114 114 116 118 118 120 133 133 135 138 138 140 139 139 141 131 131 133 142 142 144 135 135 137 135 135 137 135 135 137 118 118 120 133 133 135 130 130 132 131 131 133 135 135 137 133 133 135 141 141 143 133 133 135 117 117 119 129 129 131 121 121 123 116 116 118 136 136 138 128 128 130 116 116 118 126 126 128 122 122 124 142 142 144 134 134 136 137 137 139 138 138 140 119 119 121 138 138 140 
146 146 148 128 128 130 130 130 132 133 133 135 140 140 142 122 122 124 143 143 145 141 141 143 137 137 139 138 138 140 131 131 133 135 135 137 122 122 124 120 120 122 136 136 138 143 143 145 137 137 139 139 139 141 115 115 117 142 142 144 133 133 135 129 129 131 124 124 126 141 141 143 121 121 123 133 133 135 114 114 116 128 128 130 121 121 123 142 142 144 129 129 131 130 130 132 120 120 122 120 120 122 134 134 136 121 121 123 124 124 126 137 137 139 134 134 136 144 144 146 128 128 130 139 139 141 138 138 140 123 123 125 124 124 126 138 138 140 134 134 136 141 141 143 119 119 121 142 142 144 141 141 143 136 136 138 137 137 139 120 120 122 128 128 130 139 139 141 145 145 147 131 131 133 119 119 121 127 127 129 142 142 144 129 129 131 117 117 119 118 118 120 135 135 137 117 117 119 128 128 130 124 124 126 119 119 121 122 122 124 118 118 120 117 117 119 129 129 131 143 143 145 120 120 122 138 138 140 122 122 124 137 137 139 125 125 127 123 123 125 139 139 141 115 115 117 122 122 124 141 141 143 114 114 116 119 119 121 130 130 132 118 118 120 118 118 120 128 128 130 117 117 119 127 127 129 115 115 117 120 120 122 130 130 132 117 117 119 136 136 138 125 125 127 141 141 143 138 138 140 126 126 128 118 118 120 128 128 130 116 116 118 136 136 138 134 134 136 115 115 117 122 122 124 143 143 145 115 115 117 138 138 140 127 127 129 135 135 137 115 115 117 136 136 138 134 134 136 124 124 126 134 134 136 132 132 134 140 140 142 125 125 127 134 134 136 131 131 133 123 123 125 121 121 123 145 145 147 137 137 139 119 119 121 137 137 139 128 128 130 118 118 120 129 129 131 127 127 129 135 135 137 119 119 121 127 127 129 118 118 120 143 143 145 128 128 130 134 134 136 137 137 139 131 131 133 118 118 120 125 125 127 119 119 121 132 132 134 135 135 137 116 116 118 133 133 135 140 140 142 126 126 128 123 123 125 126 126 128 145 145 147 135 135 137 138 138 140 135 135 137 124 124 126 120 120 122 128 128 130 115 115 117 122 122 124 141 141 143 145 145 147 122 122 124 143 143 145 120 120 122 128 128 130 116 116 118 113 113 115 129 129 131 115 115 117 118 118 120 134 134 136 125 125 127 128 128 130 117 117 119 128 128 130 135 135 137 113 113 115 133 133 135 127 127 129 119 119 121 141 141 143 126 126 128 141 141 143 123 123 125 124 124 126 135 135 137 138 138 140 119 119 121 126 126 128 128 128 130 137 137 139 127 127 129 133 133 135 115 115 117 143 143 145 116 116 118 120 120 122 136 136 138 136 136 138 124 124 126 116 116 118 134 134 136 131 131 133 120 120 122 126 126 128 136 136 138 140 140 142 143 143 145 136 136 138 134 134 136 133 133 135 131 131 133 137 137 139 141 141 143 137 137 139 130 130 132 120 120 122 131 131 133 137 137 139 120 120 122 116 116 118 143 143 145 117 117 119 139 139 141 122 122 124 121 121 123 132 132 134 136 136 138 131 131 133 131 131 133 126 126 128 139 139 141 122 122 124 136 136 138 121 121 123 134 134 136 123 123 125 120 120 122 135 135 137 122 122 124 126 126 128 121 121 123 133 133 135 117 117 119 130 130 132 121 121 123 120 120 122 129 129 131 121 121 123 133 133 135 117 117 119 137 137 139 127 127 129 
139 139 141 135 135 137 116 116 118 116 116 118 121 121 123 120 120 122 134 134 136 134 134 136 121 121 123 131 131 133 121 121 123 143 143 145 129 129 131 136 136 138 131 131 133 142 142 144 132 132 134 129 129 131 142 142 144 144 144 146 130 130 132 125 125 127 138 138 140 125 125 127 131 131 133 116 116 118 141 141 143 135 135 137 123 123 125 122 122 124 141 141 143 134 134 136 136 136 138 115 115 117 120 120 122 124 124 126 127 127 129 115 115 117 115 115 117 136 136 138 142 142 144 133 133 135 125 125 127 127 127 129 116 116 118 141 141 143 122 122 124 144 144 146 122 122 124 140 140 142 143 143 145 136 136 138 130 130 132 127 127 129 135 135 137 127 127 129 136 136 138 142 142 144 121 121 123 126 126 128 140 140 142 133 133 135 144 144 146 118 118 120 132 132 134 120 120 122 123 123 125 134 134 136 132 132 134 117 117 119 145 145 147 137 137 139 120 120 122 130 130 132 125 125 127 128 128 130 142 142 144 129 129 131 118 118 120 140 140 142 135 135 137 132 132 134 133 133 135 143 143 145 128 128 130 137 137 139 128 128 130 131 131 133 125 125 127 133 133 135 125 125 127 120 120 122 128 128 130 143 143 145 127 127 129 123 123 125 118 118 120 117 117 119 141 141 143 116 116 118 126 126 128 144 144 146 124 124 126 136 136 138 119 119 121 143 143 145 117 117 119 135 135 137 145 145 147 136 136 138 140 140 142 116 116 118 142 142 144 115 115 117 124 124 126 114 114 116 143 143 145 121 121 123 138 138 140 137 137 139 141 141 143 127 127 129 136 136 138 141 141 143 115 115 117 131 131 133 124 124 126 113 113 115 129 129 131 123 123 125 120 120 122 127 127 129 124 124 126 120 120 122 125 125 127 136 136 138 130 130 132 138 138 140 123 123 125 123 123 125 140 140 142 137 137 139 136 136 138 138 138 140 129 129 131 126 126 128 140 140 142 137 137 139 121 121 123 135 135 137 134 134 136 140 140 142 137 137 139 142 142 144 120 120 122 127 127 129 138 138 140 117 117 119 132 132 134 122 122 124 136 136 138 128 128 130 134 134 136 118 118 120 125 125 127 130 130 132 117 117 119 119 119 121 121 121 123 125 125 127 128 128 130 124 124 126 136 136 138 129 129 131 117 117 119 125 125 127 118 118 120 138 138 140 138 138 140 137 137 139 134 134 136 121 121 123 137 137 139 142 142 144 130 130 132 146 146 148 139 139 141 132 132 134 126 126 128 118 118 120 123 123 125 131 131 133 143 143 145 125 125 127 117 117 119 146 146 148 126 126 128 141 141 143 129 129 131 123 123 125 139 139 141 134 134 136 120 120 122 143 143 145 127 127 129 138 138 140 119 119 121 119 119 121 123 123 125 135 135 137 130 130 132 140 140 142 126 126 128 128 128 130 133 133 135 117 117 119 143 143 145 142 142 144 143 143 145 124 124 126 122 122 124 116 116 118 122 122 124 140 140 142 137 137 139 125 125 127 144 144 146 123 123 125 133 133 135 143 143 145 122 122 124 123 123 125 117 117 119 116 116 118 117 117 119 144 144 146 141 141 143 118 118 120 143 143 145 136 136 138 144 144 146 116 116 118 137 137 139 132 132 134 145 145 147 125 125 127 138 138 140 140 140 142 127 127 129 129 129 131 131 131 133 126 126 128 118 118 120 142 142 144 114 114 116 115 115 117 
117 117 119 123 123 125 137 137 139 130 130 132 133 133 135 140 140 142 138 138 140 120 120 122 141 141 143 131 131 133 120 120 122 145 145 147 131 131 133 145 145 147 142 142 144 120 120 122 124 124 126 143 143 145 133 133 135 128 128 130 128 128 130 122 122 124 138 138 140 116 116 118 132 132 134 123 123 125 128 128 130 133 133 135 116 116 118 138 138 140 129 129 131 132 132 134 125 125 127 125 125 127 135 135 137 134 134 136 118 118 120 124 124 126 139 139 141 144 144 146 129 129 131 125 125 127 124 124 126 145 145 147 133 133 135 140 140 142 123 123 125 128 128 130 136 136 138 132 132 134 117 117 119 125 125 127 124 124 126 128 128 130 138 138 140 128 128 130 137 137 139 131 131 133 121 121 123 123 123 125 143 143 145 123 123 125 123 123 125 139 139 141 142 142 144 130 130 132 123 123 125 135 135 137 136 136 138 124 124 126 145 145 147 131 131 133 138 138 140 138 138 140 141 141 143 140 140 142 134 134 136 114 114 116 143 143 145 144 144 146 128 128 130 122 122 124 128 128 130 133 133 135 135 135 137 136 136 138 140 140 142 126 126 128 140 140 142 138 138 140 129 129 131 121 121 123 143 143 145 143 143 145 137 137 139 130 130 132 120 120 122 135 135 137 125 125 127 114 114 116 127 127 129 139 139 141 134 134 136 130 130 132 123 123 125 140 140 142 116 116 118 138 138 140 122 122 124 136 136 138 137 137 139 129 129 131 119 119 121 144 144 146 141 141 143 124 124 126 121 121 123 126 126 128 143 143 145 129 129 131 118 118 120 130 130 132 135 135 137 119 119 121 126 126 128 131 131 133 133 133 135 140 140 142 125 125 127 135 135 137 117 117 119 129 129 131 121 121 123 123 123 125 125 125 127 142 142 144 142 142 144 117 117 119 134 134 136 126 126 128 132 132 134 122 122 124 146 146 148 141 141 143 135 135 137 130 130 132 113 113 115 127 127 129 139 139 141 135 135 137 117 117 119 114 114 116 117 117 119 142 142 144 137 137 139 127 127 129 133 133 135 121 121 123 141 141 143 124 124 126 124 124 126 135 135 137 139 139 141 121 121 123 128 128 130 132 132 134 130 130 132 143 143 145 134 134 136 117 117 119 131 131 133 118 118 120 123 123 125 116 116 118 123 123 125 125 125 127 117 117 119 133 133 135 142 142 144 140 140 142 117 117 119 138 138 140 140 140 142 121 121 123 141 141 143 122 122 124 124 124 126 122 122 124 128 128 130 135 135 137 143 143 145 136 136 138 116 116 118 132 132 134 128 128 130 120 120 122 141 141 143 139 139 141 135 135 137 119 119 121 126 126 128 139 139 141 135 135 137 141 141 143 129 129 131 142 142 144 142 142 144 143 143 145 135 135 137 127 127 129 124 124 126 114 114 116 130 130 132 144 144 146 130 130 132 133 133 135 133 133 135 137 137 139 126 126 128 119 119 121 128 128 130 117 117 119 117 117 119 138 138 140 130 130 132 142 142 144 124 124 126 124 124 126 123 123 125 117 117 119 121 121 123 144 144 146 145 145 147 119 119 121 131 131 133 146 146 148 136 136 138 138 138 140 137 137 139 121 121 123 115 115 117 124 124 126 142 142 144 137 137 139 121 121 123 137 137 139 139 139 141 142 142 144 116 116 118 132 132 134 143 143 145 143 143 145 141 141 143 131 131 133 116 116 118 120 120 122 
122 122 124 134 134 136 139 139 141 124 124 126 143 143 145 129 129 131 141 141 143 141 141 143 130 130 132 136 136 138 142 142 144 139 139 141 134 134 136 126 126 128 131 131 133 122 122 124 118 118 120 123 123 125 143 143 145 126 126 128 127 127 129 127 127 129 129 129 131 114 114 116 139 139 141 130 130 132 118 118 120 129 129 131 142 142 144 141 141 143 140 140 142 115 115 117 134 134 136 125 125 127 133 133 135 137 137 139 139 139 141 124 124 126 124 124 126 122 122 124 130 130 132 141 141 143 130 130 132 139 139 141 123 123 125 142 142 144 136 136 138 118 118 120 143 143 145 137 137 139 144 144 146 118 118 120 116 116 118 136 136 138 127 127 129 116 116 118 117 117 119 137 137 139 123 123 125 137 137 139 145 145 147 133 133 135 133 133 135 114 114 116 126 126 128 133 133 135 125 125 127 123 123 125 133 133 135 135 135 137 121 121 123 117 117 119 139 139 141 142 142 144 120 120 122 117 117 119 116 116 118 124 124 126 140 140 142 133 133 135 129 129 131 125 125 127 121 121 123 143 143 145 139 139 141 117 117 119 141 141 143 143 143 145 122 122 124 129 129 131 131 131 133 115 115 117 122 122 124 130 130 132 133 133 135 141 141 143 117 117 119 131 131 133 139 139 141 128 128 130 132 132 134 140 140 142 119 119 121 130 130 132 137 137 139 135 135 137 143 143 145 132 132 134 121 121 123 140 140 142 142 142 144 138 138 140 129 129 131 132 132 134 120 120 122 131 131 133 117 117 119 137 137 139 138 138 140 116 116 118 143 143 145 135 135 137 142 142 144 124 124 126 134 134 136 138 138 140 123 123 125 133 133 135 118 118 120 137 137 139 116 116 118 136 136 138 129 129 131 135 135 137 116 116 118 121 121 123 123 123 125 116 116 118 146 146 148 142 142 144 129 129 131 116 116 118 123 123 125 135 135 137 123 123 125 130 130 132 132 132 134 132 132 134 129 129 131 134 134 136 129 129 131 119 119 121 131 131 133 117 117 119 120 120 122 117 117 119 130 130 132 138 138 140 135 135 137 116 116 118 124 124 126 134 134 136 133 133 135 132 132 134 125 125 127 116 116 118 115 115 117 139 139 141 135 135 137 134 134 136 131 131 133 121 121 123 142 142 144 139 139 141 130 130 132 133 133 135 126 126 128 131 131 133 138 138 140 123 123 125 139 139 141 133 133 135 142 142 144 135 135 137 131 131 133 115 115 117 132 132 134 116 116 118 139 139 141 127 127 129 116 116 118 127 127 129 123 123 125 121 121 123 128 128 130 122 122 124 125 125 127 116 116 118 120 120 122 145 145 147 124 124 126 143 143 145 132 132 134 143 143 145 138 138 140 131 131 133 146 146 148 140 140 142 140 140 142 129 129 131 130 130 132 137 137 139 115 115 117 134 134 136 127 127 129 140 140 142 127 127 129 143 143 145 139 139 141 137 137 139 124 124 126 129 129 131 127 127 129 136 136 138 127 127 129 140 140 142 117 117 119 134 134 136 121 121 123 140 140 142 117 117 119 121 121 123 138 138 140 126 126 128 131 131 133 144 144 146 122 122 124 116 116 118 132 132 134 141 141 143 143 143 145 142 142 144 132 132 134 133 133 135 114 114 116 117 117 119 135 135 137 129 129 131 127 127 129 120 120 122 138 138 140 122 122 124 142 142 144 145 145 147 140 140 142 118 118 120 
134 134 136 134 134 136 145 145 147 141 141 143 122 122 124 132 132 134 122 122 124 131 131 133 123 123 125 125 125 127 119 119 121 130 130 132 143 143 145 135 135 137 145 145 147 136 136 138 124 124 126 136 136 138 135 135 137 141 141 143 129 129 131 119 119 121 132 132 134 145 145 147 135 135 137 137 137 139 130 130 132 119 119 121 121 121 123 136 136 138 137 137 139 144 144 146 119 119 121 127 127 129 135 135 137 127 127 129 129 129 131 122 122 124 141 141 143 125 125 127 142 142 144 130 130 132 115 115 117 117 117 119 127 127 129 131 131 133 136 136 138 116 116 118 129 129 131 116 116 118 129 129 131 126 126 128 125 125 127 116 116 118 135 135 137 133 133 135 134 134 136 117 117 119 128 128 130 115 115 117 137 137 139 121 121 123 120 120 122 124 124 126 128 128 130 139 139 141 143 143 145 128 128 130 136 136 138 116 116 118 141 141 143 132 132 134 114 114 116 143 143 145 120 120 122 116 116 118 135 135 137 128 128 130 114 114 116 121 121 123 119 119 121 120 120 122 115 115 117 132 132 134 114 114 116 125 125 127 130 130 132 133 133 135 131 131 133 120 120 122 142 142 144 125 125 127 115 115 117 144 144 146 125 125 127 128 128 130 122 122 124 122 122 124 144 144 146 140 140 142 139 139 141 122 122 124 138 138 140 135 135 137 126 126 128 126 126 128 130 130 132 140 140 142 126 126 128 144 144 146 141 141 143 139 139 141 119 119 121 143 143 145 128 128 130 122 122 124 138 138 140 116 116 118 137 137 139 125 125 127 123 123 125 135 135 137 140 140 142 136 136 138 117 117 119 131 131 133 133 133 135 121 121 123 131 131 133 144 144 146 132 132 134 124 124 126 116 116 118 118 118 120 139 139 141 134 134 136 114 114 116 125 125 127 123 123 125 122 122 124 129 129 131 127 127 129 135 135 137 113 113 115 128 128 130 143 143 145 144 144 146 138 138 140 143 143 145 142 142 144 130 130 132 131 131 133 143 143 145 119 119 121 132 132 134 139 139 141 120 120 122 133 133 135 114 114 116 116 116 118 136 136 138 133 133 135 128 128 130 132 132 134 137 137 139 129 129 131 128 128 130 139 139 141 131 131 133 121 121 123 135 135 137 132 132 134 131 131 133 137 137 139 116 116 118 146 146 148 125 125 127 132 132 134 119 119 121 134 134 136 133 133 135 135 135 137 117 117 119 139 139 141 129 129 131 123 123 125 132 132 134 143 143 145 138 138 140 122 122 124 129 129 131 122 122 124 139 139 141 130 130 132 140 140 142 114 114 116 117 117 119 122 122 124 120 120 122 137 137 139 132 132 134 136 136 138 128 128 130 124 124 126 120 120 122 135 135 137 116 116 118 113 113 115 127 127 129 133 133 135 141 141 143 138 138 140 139 139 141 123 123 125 140 140 142 117 117 119 133 133 135 139 139 141 123 123 125 119 119 121 143 143 145 132 132 134 136 136 138 118 118 120 118 118 120 142 142 144 124 124 126 138 138 140 121 121 123 125 125 127 127 127 129 130 130 132 120 120 122 136 136 138 128 128 130 131 131 133 125 125 127 123 123 125 121 121 123 138 138 140 139 139 141 125 125 127 138 138 140 125 125 127 142 142 144 128 128 130 144 144 146 142 142 144 113 113 115 116 116 118 144 144 146 137 137 139 136 136 138 141 141 143 120 120 122 122 122 124 
131 131 133 134 134 136 137 137 139 136 136 138 121 121 123 139 139 141 120 120 122 134 134 136 136 136 138 138 138 140 137 137 139 134 134 136 143 143 145 127 127 129 136 136 138 116 116 118 122 122 124 139 139 141 140 140 142 130 130 132 119 119 121 132 132 134 142 142 144 136 136 138 125 125 127 145 145 147 127 127 129 129 129 131 122 122 124 129 129 131 134 134 136 140 140 142 128 128 130 132 132 134 121 121 123 115 115 117 145 145 147 118 118 120 132 132 134 134 134 136 138 138 140 132 132 134 114 114 116 130 130 132 126 126 128 129 129 131 141 141 143 131 131 133 142 142 144 127 127 129 129 129 131 138 138 140 115 115 117 142 142 144 138 138 140 140 140 142 134 134 136 121 121 123 139 139 141 132 132 134 115 115 117 124 124 126 133 133 135 121 121 123 137 137 139 117 117 119 131 131 133 116 116 118 127 127 129 126 126 128 119 119 121 136 136 138 128 128 130 121 121 123 128 128 130 143 143 145 140 140 142 120 120 122 127 127 129 132 132 134 130 130 132 143 143 145 115 115 117 132 132 134 130 130 132 126 126 128 140 140 142 141 141 143 119 119 121 117 117 119 119 119 121 131 131 133 128 128 130 142 142 144 118 118 120 139 139 141 120 120 122 136 136 138 123 123 125 121 121 123 141 141 143 115 115 117 131 131 133 142 142 144 123 123 125 125 125 127 127 127 129 124 124 126 134 134 136 120 120 122 133 133 135 132 132 134 140 140 142 121 121 123 123 123 125 132 132 134 134 134 136 127 127 129 115 115 117 131 131 133 144 144 146 140 140 142 130 130 132 143 143 145 142 142 144 136 136 138 118 118 120 120 120 122 122 122 124 115 115 117 121 121 123 142 142 144 125 125 127 130 130 132 135 135 137 133 133 135 144 144 146 117 117 119 127 127 129 119 119 121 126 126 128 128 128 130 122 122 124 130 130 132 125 125 127 116 116 118 136 136 138 123 123 125 142 142 144 119 119 121 138 138 140 131 131 133 128 128 130 132 132 134 145 145 147 118 118 120 116 116 118 127 127 129 127 127 129 115 115 117 118 118 120 123 123 125 135 135 137 122 122 124 143 143 145 139 139 141 126 126 128 117 117 119 124 124 126 130 130 132 123 123 125 137 137 139 132 132 134 133 133 135 139 139 141 129 129 131 117 117 119 135 135 137 132 132 134 139 139 141 130 130 132 139 139 141 144 144 146 123 123 125 128 128 130 129 129 131 129 129 131 143 143 145 144 144 146 122 122 124 137 137 139 117 117 119 132 132 134 117 117 119 144 144 146 133 133 135 133 133 135 144 144 146 128 128 130 140 140 142 135 135 137 141 141 143 122 122 124 130 130 132 142 142 144 121 121 123 142 142 144 124 124 126 135 135 137 122 122 124 142 142 144 132 132 134 122 122 124 125 125 127 136 136 138 141 141 143 115 115 117 136 136 138 138 138 140 138 138 140 143 143 145 115 115 117 134 134 136 125 125 127 128 128 130 125 125 127 121 121 123 120 120 122 124 124 126 132 132 134 143 143 145 141 141 143 142 142 144 143 143 145 141 141 143 124 124 126 115 115 117 121 121 123 129 129 131 138 138 140 136 136 138 138 138 140 117 117 119 141 141 143 126 126 128 121 121 123 118 118 120 144 144 146 125 125 127 135 135 137 116 116 118 132 132 134 130 130 132 138 138 140 145 145 147 132 132 134 
122 122 124 141 141 143 128 128 130 129 129 131 134 134 136 138 138 140 127 127 129 125 125 127 119 119 121 132 132 134 136 136 138 114 114 116 124 124 126 129 129 131 142 142 144 124 124 126 117 117 119 115 115 117 143 143 145 146 146 148 126 126 128 141 141 143 122 122 124 120 120 122 117 117 119 125 125 127 130 130 132 136 136 138 120 120 122 143 143 145 128 128 130 123 123 125 137 137 139 128 128 130 144 144 146 115 115 117 115 115 117 133 133 135 115 115 117 122 122 124 127 127 129 140 140 142 118 118 120 141 141 143 127 127 129 138 138 140 135 135 137 118 118 120 137 137 139 141 141 143 119 119 121 141 141 143 141 141 143 127 127 129 125 125 127 127 127 129 138 138 140 129 129 131 128 128 130 128 128 130 124 124 126 117 117 119 128 128 130 141 141 143 123 123 125 123 123 125 132 132 134 132 132 134 120 120 122 141 141 143 132 132 134 142 142 144 124 124 126 132 132 134 117 117 119 143 143 145 138 138 140 144 144 146 137 137 139 139 139 141 127 127 129 140 140 142 122 122 124 140 140 142 120 120 122 128 128 130 143 143 145 123 123 125 124 124 126 119 119 121 123 123 125 128 128 130 129 129 131 142 142 144 132 132 134 121 121 123 117 117 119 134 134 136 120 120 122 136 136 138 133 133 135 131 131 133 120 120 122 135 135 137 135 135 137 127 127 129 125 125 127 132 132 134 134 134 136 137 137 139 140 140 142 142 142 144 115 115 117 118 118 120 133 133 135 122 122 124 123 123 125 127 127 129 140 140 142 130 130 132 129 129 131 144 144 146 113 113 115 127 127 129 130 130 132 135 135 137 136 136 138 118 118 120 130 130 132 135 135 137 116 116 118 144 144 146 134 134 136 117 117 119 131 131 133 143 143 145 141 141 143 136 136 138 115 115 117 139 139 141 117 117 119 121 121 123 128 128 130 143 143 145 139 139 141 121 121 123 134 134 136 119 119 121 114 114 116 140 140 142 126 126 128 144 144 146 115 115 117 138 138 140 136 136 138 121 121 123 118 118 120 117 117 119 142 142 144 129 129 131 134 134 136 135 135 137 117 117 119 122 122 124 118 118 120 132 132 134 137 137 139 117 117 119 134 134 136 131 131 133 141 141 143 127 127 129 136 136 138 116 116 118 143 143 145 118 118 120 143 143 145 134 134 136 139 139 141 124 124 126 133 133 135 121 121 123 120 120 122 121 121 123 136 136 138 141 141 143 136 136 138 128 128 130 141 141 143 126 126 128 120 120 122 137 137 139 124 124 126 126 126 128 126 126 128 133 133 135 135 135 137 123 123 125 121 121 123 117 117 119 120 120 122 116 116 118 122 122 124 143 143 145 139 139 141 140 140 142 126 126 128 144 144 146 135 135 137 113 113 115 132 132 134 127 127 129 141 141 143 135 135 137 135 135 137 132 132 134 117 117 119 139 139 141 120 120 122 136 136 138 126 126 128 141 141 143 128 128 130 137 137 139 139 139 141 132 132 134 138 138 140 135 135 137 126 126 128 144 144 146 143 143 145 114 114 116 120 120 122 128 128 130 132 132 134 145 145 147 122 122 124 128 128 130 123 123 125 135 135 137 139 139 141 124 124 126 125 125 127 114 114 116 134 134 136 120 120 122 140 140 142 123 123 125 120 120 122 126 126 128 133 133 135 126 126 128 117 117 119 124 124 126 119 119 121 138 138 140 
135 135 137 126 126 128 138 138 140 130 130 132 121 121 123 121 121 123 126 126 128 139 139 141 116 116 118 131 131 133 144 144 146 127 127 129 141 141 143 137 137 139 142 142 144 132 132 134 142 142 144 144 144 146 116 116 118 141 141 143 119 119 121 139 139 141 124 124 126 133 133 135 117 117 119 133 133 135 130 130 132 144 144 146 142 142 144 141 141 143 121 121 123 128 128 130 115 115 117 138 138 140 139 139 141 119 119 121 124 124 126 125 125 127 124 124 126 122 122 124 133 133 135 126 126 128 141 141 143 142 142 144 134 134 136 144 144 146 131 131 133 129 129 131 145 145 147 136 136 138 136 136 138 142 142 144 114 114 116 120 120 122 134 134 136 137 137 139 140 140 142 140 140 142 119 119 121 141 141 143 119 119 121 126 126 128 121 121 123 115 115 117 142 142 144 122 122 124 127 127 129 130 130 132 126 126 128 129 129 131 115 115 117 130 130 132 126 126 128 135 135 137 125 125 127 138 138 140 136 136 138 137 137 139 135 135 137 137 137 139 136 136 138 118 118 120 124 124 126 121 121 123 139 139 141 137 137 139 116 116 118 145 145 147 118 118 120 134 134 136 116 116 118 142 142 144 120 120 122 121 121 123 139 139 141 127 127 129 135 135 137 145 145 147 120 120 122 123 123 125 137 137 139 141 141 143 124 124 126 115 115 117 140 140 142 126 126 128 124 124 126 145 145 147 143 143 145 130 130 132 120 120 122 114 114 116 131 131 133 124 124 126 141 141 143 121 121 123 123 123 125 120 120 122 130 130 132 142 142 144 118 118 120 126 126 128 140 140 142 116 116 118 144 144 146 133 133 135 117 117 119 135 135 137 142 142 144 116 116 118 119 119 121 125 125 127 133 133 135 123 123 125 123 123 125 135 135 137 144 144 146 113 113 115 118 118 120 143 143 145 118 118 120 118 118 120 146 146 148 120 120 122 144 144 146 145 145 147 138 138 140 134 134 136 132 132 134 134 134 136 130 130 132 142 142 144 119 119 121 130 130 132 130 130 132 142 142 144 123 123 125 115 115 117 118 118 120 128 128 130 114 114 116 114 114 116 132 132 134 113 113 115 122 122 124 120 120 122 129 129 131 122 122 124 142 142 144 134 134 136 136 136 138 138 138 140 119 119 121 143 143 145 138 138 140 142 142 144 122 122 124 113 113 115 138 138 140 133 133 135 129 129 131 124 124 126 114 114 116 128 128 130 133 133 135 126 126 128 132 132 134 138 138 140 133 133 135 116 116 118 131 131 133 127 127 129 126 126 128 144 144 146 117 117 119 127 127 129 124 124 126 116 116 118 136 136 138 117 117 119 130 130 132 127 127 129 116 116 118 134 134 136 116 116 118 129 129 131 131 131 133 116 116 118 123 123 125 132 132 134 128 128 130 116 116 118 137 137 139 126 126 128 144 144 146 133 133 135 114 114 116 138 138 140 117 117 119 115 115 117 114 114 116 142 142 144 121 121 123 135 135 137 132 132 134 123 123 125 140 140 142 143 143 145 125 125 127 120 120 122 123 123 125 140 140 142 139 139 141 129 129 131 126 126 128 141 141 143 142 142 144 141 141 143 135 135 137 134 134 136 133 133 135 124 124 126 123 123 125 137 137 139 119 119 121 128 128 130 115 115 117 140 140 142 125 125 127 119 119 121 116 116 118 139 139 141 132 132 134 145 145 147 133 133 135 125 125 127 
90 90 90 90 90 90 90 90 90 90 90 90 90 90 90 90 90 90 90 90 90 90 90 90 90 90 90 90 90 90 90 90 90 90 90 90 90 90 90 90 90 90 90 90 90 90 90 90 90 90 90 90 90 90 90 90 90 90 90 90 90 90 90 90 90 90 90 90 90 90 90 90 90 90 90 90 90 90 90 90 90 90 90 90 90 90 90 90 90 90 90 90 90 90 90 90 90 90 90 90 90 90 90 90 90 90 90 90 90 90 90 90 90 90 90 90 90 90 90 90 90 90 90 90 90 90 90 90 90 90 90 90 90 90 90 90 90 90 90 90 90 90 90 90 90 90 90 90 90 90 90 90 90 90 90 90 90 90 90 90 90 90 90 90 90 90 90 90 90 90 90 90 90 90 90 90 90 90 90 90 90 90 90 90 90 90 90 90 90 90 90 90 90 90 90 90 90 90 90 90 90 90 90 90 90 90 90 90 90 90 90 90 90 90 90 90 90 90 90 90 90 90 90 90 90 90 90 90 90 90 90 90 90 90 90 90 90 90 90 90 90 90 90 90 90 90 90 90 90 90 90 90 90 90 90 90 90 90 90 90 90 90 90 90 90 90 90 90 90 90 90 90 90 90 90 90 90 90 90 90 90 90 90 90 90 90 90 90 90 90 90 90 90 90 90 90 90 90 90 90 90 90 90 90 90 90 90 90 90 90 90 90 90 90 90 90 90 90 90 90 90 90 90 90 90 90 90 90 90 90 90 90 90 90 90 90 90 90 90 90 90 90 90 90 90 90 90 90 90 90 90 90 90 90 90 90 90 90 90 90 90 90 90 90 90 90 90 90 90 90 90 90 90 90 90 90 90 90 90 90 90 90 90 90 90 90 90 90 90 90 90 90 90 90 90 90 90 90 90 90 90 90 90 90 90 90 90 90 90 90 90 90 90 90 90 90 90 90 90 90 90 90 90 90 90 90 90 90 90 90 90 90 90 90 90 90 90 90 90 90 90 90 90 90 90 90 90 90 90 90 90 90 90 90 90 90 90 90 90 90 90 90 90 90 90 90 90 90 90 90 90 90 90 90 90 90 90 90 90 90 90 90 90 90 90 90 90 90 90 90 90 90 90 90 90 90 90 90 90 90 90 90 90 90 90 90 90 90 90 90 90 90 90 90 90 90 90 90 90 90 90 90 90 90 90 90 90 90 90 90 90 90 90 90 90 90 90 90 90 90 90 90 90 90 90 90 90 90 90 90 90 90 90 90 90 90 90 90 90 90 90 90 90 90 90 90 90 90 90 90 90 90 90 90 90 90 90 90 90 90 90 90 90 90 90 90 90 90 90 90 90 90 90 90 90 90 90 90 90 90 90 90 90 90 90 90 90 90 90 90 90 90 90 90 90 90 90 90 90 90 90 90 90 90 90 90 90 90 90 90 90 90 90 90 90 90 90 90 90 90 90 90 90 90 90 90 90 90 90 90 90 90 90 90 90 90 90 90 90 90 90 90 90 90 90 90 90 90 90 90 90 90 90 90 90 90 90 90 90 90 90 90 90 90 90 90 90 90 90 90 90 90 90 90 90 90 90 90 90 90 90 90 90 90 90 90 90 90 90 90 90 90 90 90 90 90 90 90 90 90 90 90 90 90 90 90 90 90 90 90 90 90 90 90 90 90 90 90 90 90 90 90 90 90 90 90 90 90 90 90 90 90 90 90 90 90 90 90 90 90 90 90 90 90 90 90 90 90 
117 117 119 128 128 130 135 135 137 117 117 119 119 119 121 143 143 145 130 130 132 142 142 144 136 136 138 132 132 134 118 118 120 131 131 133 133 133 135 137 137 139 135 135 137 129 129 131 113 113 115 126 126 128 121 121 123 125 125 127 116 116 118 141 141 143 129 129 131 117 117 119 134 134 136 123 123 125 137 137 139 139 139 141 140 140 142 120 120 122 137 137 139 137 137 139 137 137 139 126 126 128 130 130 132 134 134 136 144 144 146 140 140 142 120 120 122 137 137 139 126 126 128 121 121 123 143 143 145 126 126 128 131 131 133 131 131 133 126 126 128 132 132 134 135 135 137 116 116 118 118 118 120 114 114 116 137 137 139 129 129 131 125 125 127 123 123 125 132 132 134 122 122 124 133 133 135 133 133 135 142 142 144 118 118 120 136 136 138 140 140 142 125 125 127 128 128 130 141 141 143 133 133 135 132 132 134 118 118 120 132 132 134 119 119 121 137 137 139 131 131 133 141 141 143 140 140 142 115 115 117 130 130 132 124 124 126 133 133 135 121 121 123 129 129 131 120 120 122 136 136 138 130 130 132 122 122 124 139 139 141 137 137 139 136 136 138 133 133 135 134 134 136 115 115 117 126 126 128 115 115 117 137 137 139 141 141 143 135 135 137 140 140 142 119 119 121 135 135 137 142 142 144 137 137 139 131 131 133 143 143 145 122 122 124 122 122 124 128 128 130 122 122 124 134 134 136 133 133 135 134 134 136 135 135 137 124 124 126 115 115 117 142 142 144 134 134 136 122 122 124 128 128 130 128 128 130 134 134 136 121 121 123 121 121 123 129 129 131 145 145 147 121 121 123 122 122 124 122 122 124 138 138 140 129 129 131 142 142 144 120 120 122 136 136 138 133 133 135 118 118 120 124 124 126 118 118 120 139 139 141 142 142 144 116 116 118 132 132 134 113 113 115 141 141 143 136 136 138 143 143 145 128 128 130 138 138 140 130 130 132 138 138 140 128 128 130 132 132 134 116 116 118 121 121 123 139 139 141 123 123 125 130 130 132 122 122 124 115 115 117 135 135 137 121 121 123 128 128 130 140 140 142 118 118 120 138 138 140 139 139 141 118 118 120 135 135 137 129 129 131 123 123 125 140 140 142 126 126 128 132 132 134 126 126 128 144 144 146 131 131 133 121 121 123 129 129 131 122 122 124 121 121 123 128 128 130 124 124 126 143 143 145 114 114 116 137 137 139 138 138 140 136 136 138 125 125 127 144 144 146 124 124 126 130 130 132 124 124 126 117 117 119 136 136 138 137 137 139 116 116 118 145 145 147 114 114 116 125 125 127 120 120 122 113 113 115 141 141 143 139 139 141 119 119 121 139 139 141 140 140 142 143 143 145 135 135 137 137 137 139 124 124 126 144 144 146 142 142 144 142 142 144 119 119 121 135 135 137 141 141 143 121 121 123 133 133 135 139 139 141 144 144 146 140 140 142 127 127 129 120 120 122 138 138 140 144 144 146 134 134 136 140 140 142 139 139 141 138 138 140 124 124 126 120 120 122 116 116 118 142 142 144 124 124 126 132 132 134 124 124 126 128 128 130 120 120 122 142 142 144 144 144 146 124 124 126 124 124 126 146 146 148 121 121 123 123 123 125 133 133 135 121 121 123 122 122 124 127 127 129 135 135 137 135 135 137 123 123 125 139 139 141 134 134 136 123 123 125 114 114 116 142 142 144 118 118 120 
114 114 116 126 126 128 120 120 122 143 143 145 125 125 127 135 135 137 122 122 124 134 134 136 132 132 134 114 114 116 143 143 145 129 129 131 123 123 125 138 138 140 115 115 117 130 130 132 133 133 135 127 127 129 137 137 139 126 126 128 133 133 135 124 124 126 144 144 146 137 137 139 116 116 118 127 127 129 121 121 123 128 128 130 114 114 116 134 134 136 137 137 139 139 139 141 144 144 146 138 138 140 126 126 128 143 143 145 127 127 129 133 133 135 131 131 133 138 138 140 142 142 144 140 140 142 115 115 117 142 142 144 137 137 139 126 126 128 131 131 133 132 132 134 138 138 140 120 120 122 117 117 119 142 142 144 131 131 133 130 130 132 113 113 115 130 130 132 115 115 117 136 136 138 117 117 119 121 121 123 124 124 126 114 114 116 131 131 133 133 133 135 138 138 140 131 131 133 140 140 142 126 126 128 120 120 122 129 129 131 127 127 129 139 139 141 142 142 144 123 123 125 136 136 138 136 136 138 130 130 132 129 129 131 131 131 133 133 133 135 132 132 134 117 117 119 137 137 139 142 142 144 135 135 137 123 123 125 144 144 146 122 122 124 137 137 139 132 132 134 133 133 135 124 124 126 122 122 124 131 131 133 137 137 139 117 117 119 127 127 129 123 123 125 126 126 128 117 117 119 116 116 118 135 135 137 117 117 119 142 142 144 141 141 143 123 123 125 142 142 144 119 119 121 129 129 131 119 119 121 125 125 127 132 132 134 126 126 128 130 130 132 122 122 124 130 130 132 133 133 135 136 136 138 136 136 138 144 144 146 117 117 119 144 144 146 140 140 142 132 132 134 132 132 134 133 133 135 142 142 144 129 129 131 121 121 123 120 120 122 120 120 122 138 138 140 116 116 118 134 134 136 128 128 130 146 146 148 143 143 145 132 132 134 136 136 138 142 142 144 119 119 121 142 142 144 129 129 131 135 135 137 122 122 124 133 133 135 127 127 129 139 139 141 144 144 146 117 117 119 130 130 132 122 122 124 144 144 146 143 143 145 130 130 132 143 143 145 129 129 131 133 133 135 123 123 125 127 127 129 129 129 131 133 133 135 119 119 121 121 121 123 117 117 119 115 115 117 134 134 136 142 142 144 118 118 120 139 139 141 125 125 127 143 143 145 132 132 134 123 123 125 136 136 138 140 140 142 144 144 146 128 128 130 140 140 142 128 128 130 138 138 140 143 143 145 118 118 120 137 137 139 118 118 120 134 134 136 115 115 117 131 131 133 131 131 133 136 136 138 123 123 125 138 138 140 124 124 126 134 134 136 131 131 133 137 137 139 130 130 132 122 122 124 118 118 120 129 129 131 116 116 118 135 135 137 117 117 119 126 126 128 124 124 126 120 120 122 144 144 146 123 123 125 129 129 131 130 130 132 124 124 126 133 133 135 126 126 128 132 132 134 121 121 123 114 114 116 136 136 138 116 116 118 141 141 143 120 120 122 137 137 139 141 141 143 143 143 145 128 128 130 134 134 136 118 118 120 128 128 130 126 126 128 122 122 124 129 129 131 114 114 116 124 124 126 125 125 127 143 143 145 145 145 147 133 133 135 118 118 120 137 137 139 129 129 131 117 117 119 140 140 142 131 131 133 120 120 122 121 121 123 127 127 129 144 144 146 126 126 128 138 138 140 123 123 125 138 138 140 132 132 134 122 122 124 123 123 125 140 140 142 125 125 127 122 122 124 
126 126 128 140 140 142 129 129 131 136 136 138 121 121 123 121 121 123 130 130 132 114 114 116 127 127 129 137 137 139 144 144 146 143 143 145 115 115 117 124 124 126 141 141 143 143 143 145 132 132 134 118 118 120 115 115 117 123 123 125 113 113 115 125 125 127 121 121 123 140 140 142 132 132 134 129 129 131 140 140 142 135 135 137 140 140 142 138 138 140 142 142 144 117 117 119 129 129 131 144 144 146 130 130 132 127 127 129 130 130 132 120 120 122 140 140 142 116 116 118 118 118 120 127 127 129 129 129 131 119 119 121 115 115 117 140 140 142 126 126 128 122 122 124 131 131 133 128 128 130 134 134 136 121 121 123 126 126 128 136 136 138 145 145 147 140 140 142 122 122 124 136 136 138 142 142 144 114 114 116 122 122 124 122 122 124 136 136 138 118 118 120 124 124 126 117 117 119 132 132 134 123 123 125 124 124 126 115 115 117 124 124 126 140 140 142 131 131 133 135 135 137 115 115 117 120 120 122 123 123 125 137 137 139 131 131 133 130 130 132 128 128 130 130 130 132 141 141 143 137 137 139 129 129 131 139 139 141 138 138 140 120 120 122 117 117 119 124 124 126 128 128 130 135 135 137 135 135 137 141 141 143 131 131 133 130 130 132 132 132 134 124 124 126 139 139 141 140 140 142 133 133 135 144 144 146 122 122 124 139 139 141 116 116 118 121 121 123 132 132 134 140 140 142 120 120 122 117 117 119 144 144 146 136 136 138 127 127 129 131 131 133 143 143 145 140 140 142 134 134 136 131 131 133 123 123 125 120 120 122 129 129 131 141 141 143 131 131 133 121 121 123 126 126 128 116 116 118 115 115 117 117 117 119 126 126 128 131 131 133 138 138 140 144 144 146 130 130 132 124 124 126 127 127 129 126 126 128 127 127 129 135 135 137 142 142 144 141 141 143 117 117 119 118 118 120 142 142 144 129 129 131 139 139 141 130 130 132 122 122 124 130 130 132 140 140 142 117 117 119 143 143 145 121 121 123 138 138 140 139 139 141 130 130 132 129 129 131 131 131 133 136 136 138 117 117 119 118 118 120 139 139 141 125 125 127 115 115 117 115 115 117 116 116 118 140 140 142 128 128 130 123 123 125 131 131 133 117 117 119 128 128 130 142 142 144 120 120 122 118 118 120 118 118 120 130 130 132 124 124 126 135 135 137 123 123 125 126 126 128 145 145 147 140 140 142 130 130 132 139 139 141 123 123 125 120 120 122 134 134 136 143 143 145 117 117 119 131 131 133 132 132 134 142 142 144 117 117 119 117 117 119 142 142 144 132 132 134 115 115 117 132 132 134 131 131 133 135 135 137 142 142 144 124 124 126 128 128 130 145 145 147 137 137 139 134 134 136 121 121 123 131 131 133 140 140 142 121 121 123 144 144 146 136 136 138 127 127 129 141 141 143 130 130 132 140 140 142 133 133 135 129 129 131 135 135 137 136 136 138 131 131 133 141 141 143 119 119 121 127 127 129 133 133 135 121 121 123 131 131 133 124 124 126 140 140 142 122 122 124 137 137 139 123 123 125 131 131 133 125 125 127 128 128 130 140 140 142 136 136 138 141 141 143 129 129 131 124 124 126 123 123 125 139 139 141 117 117 119 134 134 136 134 134 136 132 132 134 133 133 135 142 142 144 121 121 123 114 114 116 114 114 116 134 134 136 137 137 139 142 142 144 127 127 129 117 117 119 
125 125 127 141 141 143 134 134 136 126 126 128 142 142 144 119 119 121 120 120 122 127 127 129 121 121 123 143 143 145 130 130 132 134 134 136 135 135 137 133 133 135 134 134 136 142 142 144 122 122 124 116 116 118 129 129 131 129 129 131 124 124 126 119 119 121 143 143 145 126 126 128 139 139 141 121 121 123 120 120 122 119 119 121 124 124 126 130 130 132 117 117 119 138 138 140 125 125 127 142 142 144 145 145 147 130 130 132 120 120 122 121 121 123 141 141 143 132 132 134 124 124 126 133 133 135 120 120 122 136 136 138 115 115 117 126 126 128 127 127 129 125 125 127 119 119 121 134 134 136 117 117 119 129 129 131 124 124 126 131 131 133 142 142 144 131 131 133 142 142 144 122 122 124 119 119 121 133 133 135 142 142 144 123 123 125 123 123 125 127 127 129 130 130 132 133 133 135 132 132 134 126 126 128 140 140 142 116 116 118 136 136 138 130 130 132 134 134 136 127 127 129 135 135 137 140 140 142 116 116 118 121 121 123 120 120 122 126 126 128 118 118 120 119 119 121 129 129 131 141 141 143 123 123 125 140 140 142 132 132 134 119 119 121 116 116 118 122 122 124 136 136 138 125 125 127 117 117 119 120 120 122 115 115 117 134 134 136 130 130 132 139 139 141 114 114 116 139 139 141 142 142 144 117 117 119 131 131 133 133 133 135 132 132 134 121 121 123 126 126 128 117 117 119 137 137 139 143 143 145 132 132 134 137 137 139 128 128 130 121 121 123 139 139 141 137 137 139 116 116 118 133 133 135 140 140 142 118 118 120 141 141 143 124 124 126 119 119 121 120 120 122 139 139 141 132 132 134 141 141 143 131 131 133 127 127 129 123 123 125 115 115 117 122 122 124 139 139 141 122 122 124 114 114 116 136 136 138 136 136 138 133 133 135 129 129 131 135 135 137 116 116 118 142 142 144 121 121 123 124 124 126 136 136 138 117 117 119 144 144 146 125 125 127 124 124 126 129 129 131 132 132 134 142 142 144 126 126 128 134 134 136 128 128 130 128 128 130 115 115 117 135 135 137 142 142 144 118 118 120 137 137 139 118 118 120 139 139 141 129 129 131 124 124 126 135 135 137 130 130 132 128 128 130 127 127 129 128 128 130 134 134 136 132 132 134 123 123 125 131 131 133 121 121 123 124 124 126 144 144 146 131 131 133 137 137 139 125 125 127 132 132 134 122 122 124 127 127 129 128 128 130 113 113 115 135 135 137 122 122 124 133 133 135 143 143 145 131 131 133 120 120 122 118 118 120 122 122 124 140 140 142 142 142 144 129 129 131 142 142 144 133 133 135 144 144 146 120 120 122 130 130 132 121 121 123 115 115 117 134 134 136 135 135 137 120 120 122 127 127 129 137 137 139 124 124 126 117 117 119 133 133 135 139 139 141 118 118 120 138 138 140 123 123 125 121 121 123 121 121 123 138 138 140 122 122 124 136 136 138 125 125 127 123 123 125 137 137 139 145 145 147 137 137 139 134 134 136 124 124 126 115 115 117 133 133 135 115 115 117 143 143 145 145 145 147 123 123 125 125 125 127 119 119 121 128 128 130 127 127 129 128 128 130 128 128 130 131 131 133 137 137 139 115 115 117 127 127 129 136 136 138 126 126 128 135 135 137 121 121 123 141 141 143 141 141 143 145 145 147 115 115 117 137 137 139 121 121 123 124 124 126 131 131 133 136 136 138 
120 120 122 115 115 117 134 134 136 122 122 124 140 140 142 133 133 135 124 124 126 121 121 123 128 128 130 140 140 142 136 136 138 126 126 128 121 121 123 140 140 142 119 119 121 139 139 141 138 138 140 128 128 130 123 123 125 141 141 143 134 134 136 135 135 137 113 113 115 126 126 128 124 124 126 143 143 145 143 143 145 146 146 148 128 128 130 118 118 120 134 134 136 122 122 124 142 142 144 143 143 145 135 135 137 118 118 120 116 116 118 142 142 144 122 122 124 119 119 121 133 133 135 123 123 125 142 142 144 140 140 142 122 122 124 136 136 138 118 118 120 130 130 132 137 137 139 133 133 135 120 120 122 144 144 146 124 124 126 131 131 133 129 129 131 131 131 133 125 125 127 129 129 131 135 135 137 116 116 118 136 136 138 138 138 140 141 141 143 124 124 126 139 139 141 127 127 129 120 120 122 118 118 120 130 130 132 121 121 123 116 116 118 134 134 136 128 128 130 131 131 133 115 115 117 131 131 133 128 128 130 115 115 117 126 126 128 117 117 119 118 118 120 138 138 140 121 121 123 131 131 133 136 136 138 116 116 118 119 119 121 122 122 124 128 128 130 125 125 127 118 118 120 134 134 136 130 130 132 140 140 142 137 137 139 121 121 123 134 134 136 138 138 140 117 117 119 131 131 133 133 133 135 130 130 132 141 141 143 129 129 131 133 133 135 123 123 125 117 117 119 127 127 129 145 145 147 123 123 125 144 144 146 122 122 124 132 132 134 139 139 141 125 125 127 143 143 145 116 116 118 129 129 131 145 145 147 119 119 121 134 134 136 143 143 145 134 134 136 118 118 120 116 116 118 138 138 140 116 116 118 125 125 127 122 122 124 122 122 124 116 116 118 117 117 119 137 137 139 132 132 134 125 125 127 113 113 115 136 136 138 117 117 119 114 114 116 124 124 126 142 142 144 131 131 133 134 134 136 123 123 125 142 142 144 124 124 126 143 143 145 144 144 146 128 128 130 132 132 134 136 136 138 127 127 129 122 122 124 130 130 132 123 123 125 138 138 140 118 118 120 137 137 139 142 142 144 127 127 129 127 127 129 140 140 142 143 143 145 130 130 132 120 120 122 117 117 119 137 137 139 125 125 127 137 137 139 116 116 118 117 117 119 119 119 121 144 144 146 116 116 118 141 141 143 125 125 127 135 135 137 132 132 134 117 117 119 127 127 129 143 143 145 120 120 122 140 140 142 139 139 141 142 142 144 117 117 119 124 124 126 133 133 135 123 123 125 139 139 141 121 121 123 127 127 129 139 139 141 143 143 145 125 125 127 137 137 139 132 132 134 119 119 121 139 139 141 114 114 116 143 143 145 141 141 143 113 113 115 123 123 125 122 122 124 118 118 120 143 143 145 143 143 145 120 120 122 140 140 142 137 137 139 142 142 144 123 123 125 127 127 129 136 136 138 140 140 142 126 126 128 142 142 144 117 117 119 128 128 130 137 137 139 128 128 130 121 121 123 130 130 132 113 113 115 118 118 120 144 144 146 126 126 128 121 121 123 144 144 146 136 136 138 119 119 121 136 136 138 120 120 122 115 115 117 128 128 130 142 142 144 136 136 138 115 115 117 140 140 142 143 143 145 137 137 139 143 143 145 116 116 118 134 134 136 117 117 119 137 137 139 142 142 144 145 145 147 133 133 135 129 129 131 142 142 144 115 115 117 118 118 120 131 131 133 133 133 135 
115 115 117 139 139 141 143 143 145 132 132 134 126 126 128 116 116 118 137 137 139 136 136 138 130 130 132 130 130 132 122 122 124 116 116 118 116 116 118 132 132 134 116 116 118 138 138 140 134 134 136 141 141 143 128 128 130 127 127 129 130 130 132 127 127 129 133 133 135 142 142 144 136 136 138 145 145 147 113 113 115 115 115 117 135 135 137 130 130 132 131 131 133 131 131 133 128 128 130 139 139 141 134 134 136 137 137 139 144 144 146 119 119 121 116 116 118 119 119 121 140 140 142 122 122 124 135 135 137 115 115 117 133 133 135 139 139 141 122 122 124 125 125 127 122 122 124 121 121 123 142 142 144 117 117 119 129 129 131 122 122 124 114 114 116 116 116 118 126 126 128 115 115 117 126 126 128 144 144 146 121 121 123 120 120 122 120 120 122 139 139 141 133 133 135 117 117 119 132 132 134 124 124 126 125 125 127 115 115 117 130 130 132 120 120 122 132 132 134 134 134 136 117 117 119 136 136 138 130 130 132 116 116 118 122 122 124 143 143 145 141 141 143 141 141 143 122 122 124 144 144 146 115 115 117 135 135 137 133 133 135 119 119 121 128 128 130 132 132 134 120 120 122 131 131 133 134 134 136 142 142 144 136 136 138 121 121 123 138 138 140 142 142 144 116 116 118 131 131 133 125 125 127 124 124 126 144 144 146 133 133 135 126 126 128 124 124 126 139 139 141 119 119 121 133 133 135 135 135 137 113 113 115 144 144 146 137 137 139 126 126 128 133 133 135 127 127 129 126 126 128 121 121 123 121 121 123 117 117 119 116 116 118 119 119 121 130 130 132 140 140 142 134 134 136 134 134 136 140 140 142 139 139 141 122 122 124 131 131 133 133 133 135 124 124 126 133 133 135 128 128 130 125 125 127 128 128 130 127 127 129 145 145 147 135 135 137 118 118 120 126 126 128 144 144 146 128 128 130 137 137 139 140 140 142 128 128 130 142 142 144 123 123 125 136 136 138 125 125 127 141 141 143 139 139 141 131 131 133 134 134 136 120 120 122 119 119 121 125 125 127 126 126 128 134 134 136 122 122 124 135 135 137 130 130 132 143 143 145 126 126 128 121 121 123 124 124 126 127 127 129 133 133 135 139 139 141 123 123 125 130 130 132 117 117 119 122 122 124 122 122 124 131 131 133 117 117 119 121 121 123 113 113 115 136 136 138 118 118 120 122 122 124 124 124 126 132 132 134 134 134 136 133 133 135 135 135 137 142 142 144 140 140 142 128 128 130 131 131 133 130 130 132 137 137 139 126 126 128 144 144 146 131 131 133 136 136 138 120 120 122 119 119 121 142 142 144 127 127 129 121 121 123 137 137 139 123 123 125 133 133 135 135 135 137 118 118 120 123 123 125 141 141 143 123 123 125 130 130 132 130 130 132 132 132 134 141 141 143 145 145 147 134 134 136 126 126 128 134 134 136 124 124 126 144 144 146 124 124 126 126 126 128 119 119 121 132 132 134 133 133 135 141 141 143 135 135 137 143 143 145 118 118 120 135 135 137 129 129 131 120 120 122 144 144 146 140 140 142 129 129 131 141 141 143 130 130 132 141 141 143 113 113 115 127 127 129 142 142 144 129 129 131 122 122 124 133 133 135 123 123 125 123 123 125 118 118 120 137 137 139 117 117 119 135 135 137 137 137 139 142 142 144 122 122 124 115 115 117 124 124 126 122 122 124 123 123 125 
125 125 127 128 128 130 139 139 141 115 115 117 142 142 144 115 115 117 120 120 122 117 117 119 138 138 140 129 129 131 130 130 132 137 137 139 141 141 143 117 117 119 122 122 124 129 129 131 137 137 139 141 141 143 143 143 145 129 129 131 140 140 142 122 122 124 121 121 123 115 115 117 133 133 135 143 143 145 143 143 145 125 125 127 115 115 117 121 121 123 127 127 129 134 134 136 119 119 121 130 130 132 120 120 122 116 116 118 138 138 140 116 116 118 119 119 121 129 129 131 125 125 127 139 139 141 133 133 135 134 134 136 125 125 127 123 123 125 118 118 120 138 138 140 141 141 143 116 116 118 143 143 145 145 145 147 142 142 144 126 126 128 137 137 139 118 118 120 136 136 138 127 127 129 138 138 140 143 143 145 117 117 119 131 131 133 135 135 137 131 131 133 119 119 121 118 118 120 119 119 121 125 125 127 123 123 125 131 131 133 140 140 142 118 118 120 116 116 118 134 134 136 126 126 128 124 124 126 134 134 136 117 117 119 126 126 128 142 142 144 145 145 147 134 134 136 140 140 142 130 130 132 122 122 124 131 131 133 143 143 145 121 121 123 117 117 119 124 124 126 140 140 142 133 133 135 130 130 132 138 138 140 128 128 130 139 139 141 142 142 144 116 116 118 131 131 133 117 117 119 113 113 115 145 145 147 123 123 125 125 125 127 137 137 139 115 115 117 121 121 123 139 139 141 120 120 122 143 143 145 135 135 137 136 136 138 121 121 123 122 122 124 137 137 139 144 144 146 123 123 125 141 141 143 141 141 143 117 117 119 128 128 130 141 141 143 141 141 143 143 143 145 119 119 121 138 138 140 129 129 131 124 124 126 114 114 116 131 131 133 135 135 137 123 123 125 132 132 134 119 119 121 139 139 141 139 139 141 144 144 146 141 141 143 129 129 131 113 113 115 116 116 118 143 143 145 140 140 142 144 144 146 139 139 141 126 126 128 141 141 143 121 121 123 122 122 124 125 125 127 122 122 124 117 117 119 128 128 130 128 128 130 128 128 130 134 134 136 124 124 126 137 137 139 140 140 142 133 133 135 131 131 133 121 121 123 129 129 131 115 115 117 134 134 136 136 136 138 129 129 131 120 120 122 132 132 134 128 128 130 139 139 141 135 135 137 128 128 130 142 142 144 138 138 140 123 123 125 144 144 146 118 118 120 136 136 138 119 119 121 140 140 142 135 135 137 120 120 122 137 137 139 117 117 119 137 137 139 132 132 134 131 131 133 116 116 118 121 121 123 145 145 147 119 119 121 141 141 143 133 133 135 141 141 143 141 141 143 120 120 122 140 140 142 134 134 136 138 138 140 129 129 131 128 128 130 133 133 135 118 118 120 114 114 116 137 137 139 118 118 120 119 119 121 135 135 137 122 122 124 123 123 125 132 132 134 119 119 121 144 144 146 133 133 135 129 129 131 144 144 146 127 127 129 136 136 138 120 120 122 134 134 136 119 119 121 133 133 135 114 114 116 117 117 119 128 128 130 137 137 139 116 116 118 142 142 144 125 125 127 140 140 142 141 141 143 136 136 138 132 132 134 118 118 120 116 116 118 138 138 140 139 139 141 132 132 134 137 137 139 143 143 145 139 139 141 143 143 145 113 113 115 139 139 141 135 135 137 142 142 144 133 133 135 116 116 118 125 125 127 138 138 140 117 117 119 139 139 141 127 127 129 121 121 123 132 132 134 
138 138 140 122 122 124 129 129 131 120 120 122 135 135 137 120 120 122 145 145 147 120 120 122 116 116 118 126 126 128 138 138 140 137 137 139 131 131 133 119 119 121 117 117 119 134 134 136 144 144 146 144 144 146 128 128 130 114 114 116 119 119 121 119 119 121 133 133 135 124 124 126 138 138 140 125 125 127 115 115 117 130 130 132 127 127 129 130 130 132 116 116 118 141 141 143 141 141 143 114 114 116 122 122 124 115 115 117 132 132 134 126 126 128 127 127 129 124 124 126 134 134 136 115 115 117 128 128 130 136 136 138 120 120 122 136 136 138 121 121 123 139 139 141 138 138 140 137 137 139 144 144 146 121 121 123 121 121 123 117 117 119 114 114 116 124 124 126 126 126 128 130 130 132 122 122 124 117 117 119 145 145 147 125 125 127 138 138 140 113 113 115 139 139 141 133 133 135 143 143 145 141 141 143 138 138 140 120 120 122 122 122 124 128 128 130 119 119 121 124 124 126 130 130 132 121 121 123 135 135 137 140 140 142 116 116 118 139 139 141 135 135 137 138 138 140 125 125 127 142 142 144 119 119 121 128 128 130 121 121 123 120 120 122 131 131 133 124 124 126 136 136 138 138 138 140 139 139 141 137 137 139 144 144 146 132 132 134 121 121 123 144 144 146 130 130 132 120 120 122 141 141 143 138 138 140 113 113 115 140 140 142 124 124 126 140 140 142 122 122 124 132 132 134 131 131 133 136 136 138 131 131 133 140 140 142 140 140 142 124 124 126 126 126 128 117 117 119 119 119 121 118 118 120 126 126 128 133 133 135 136 136 138 137 137 139 124 124 126 140 140 142 129 129 131 141 141 143 129 129 131 139 139 141 138 138 140 133 133 135 128 128 130 141 141 143 142 142 144 131 131 133 137 137 139 131 131 133 115 115 117 134 134 136 140 140 142 133 133 135 140 140 142 139 139 141 141 141 143 139 139 141 142 142 144 141 141 143 137 137 139 120 120 122 119 119 121 133 133 135 119 119 121 130 130 132 123 123 125 145 145 147 131 131 133 140 140 142 140 140 142 141 141 143 132 132 134 141 141 143 142 142 144 119 119 121 113 113 115 131 131 133 132 132 134 122 122 124 117 117 119 127 127 129 122 122 124 130 130 132 126 126 128 135 135 137 137 137 139 124 124 126 129 129 131 141 141 143 137 137 139 122 122 124 144 144 146 133 133 135 144 144 146 125 125 127 115 115 117 119 119 121 133 133 135 122 122 124 122 122 124 140 140 142 128 128 130 130 130 132 128 128 130 133 133 135 135 135 137 120 120 122 118 118 120 117 117 119 132 132 134 114 114 116 142 142 144 127 127 129 119 119 121 113 113 115 145 145 147 141 141 143 121 121 123 138 138 140 144 144 146 122 122 124 127 127 129 127 127 129 115 115 117 124 124 126 140 140 142 124 124 126 129 129 131 136 136 138 117 117 119 116 116 118 118 118 120 122 122 124 122 122 124 124 124 126 138 138 140 132 132 134 144 144 146 119 119 121 118 118 120 135 135 137 123 123 125 144 144 146 139 139 141 127 127 129 132 132 134 138 138 140 132 132 134 144 144 146 117 117 119 136 136 138 115 115 117 119 119 121 117 117 119 125 125 127 127 127 129 125 125 127 120 120 122 118 118 120 137 137 139 135 135 137 128 128 130 140 140 142 114 114 116 124 124 126 135 135 137 145 145 147 133 133 135 133 133 135 
124 124 126 116 116 118 127 127 129 119 119 121 121 121 123 142 142 144 130 130 132 120 120 122 128 128 130 125 125 127 115 115 117 128 128 130 115 115 117 117 117 119 142 142 144 129 129 131 144 144 146 141 141 143 135 135 137 119 119 121 117 117 119 114 114 116 126 126 128 118 118 120 125 125 127 143 143 145 132 132 134 126 126 128 135 135 137 117 117 119 127 127 129 128 128 130 126 126 128 127 127 129 123 123 125 134 134 136 120 120 122 114 114 116 131 131 133 140 140 142 132 132 134 139 139 141 128 128 130 128 128 130 132 132 134 119 119 121 118 118 120 119 119 121 139 139 141 117 117 119 120 120 122 140 140 142 116 116 118 137 137 139 121 121 123 133 133 135 129 129 131 138 138 140 128 128 130 146 146 148 119 119 121 115 115 117 139 139 141 115 115 117 132 132 134 138 138 140 131 131 133 114 114 116 112 112 114 143 143 145 131 131 133 121 121 123 137 137 139 123 123 125 126 126 128 120 120 122 134 134 136 120 120 122 116 116 118 113 113 115 127 127 129 114 114 116 133 133 135 124 124 126 133 133 135 130 130 132 139 139 141 141 141 143 130 130 132 130 130 132 116 116 118 117 117 119 117 117 119 139 139 141 115 115 117 117 117 119 136 136 138 133 133 135 130 130 132 123 123 125 133 133 135 132 132 134 144 144 146 125 125 127 119 119 121 116 116 118 141 141 143 144 144 146 131 131 133 140 140 142 122 122 124 143 143 145 137 137 139 115 115 117 118 118 120 119 119 121 126 126 128 122 122 124 144 144 146 131 131 133 132 132 134 134 134 136 116 116 118 121 121 123 127 127 129 135 135 137 131 131 133 121 121 123 145 145 147 132 132 134 145 145 147 137 137 139 120 120 122 118 118 120 135 135 137 117 117 119 135 135 137 126 126 128 127 127 129 122 122 124 138 138 140 135 135 137 136 136 138 120 120 122 127 127 129 134 134 136 132 132 134 121 121 123 129 129 131 142 142 144 124 124 126 136 136 138 132 132 134 136 136 138 117 117 119 122 122 124 116 116 118 135 135 137 135 135 137 121 121 123 119 119 121 137 137 139 120 120 122 138 138 140 143 143 145 133 133 135 126 126 128 141 141 143 115 115 117 118 118 120 137 137 139 123 123 125 132 132 134 143 143 145 133 133 135 114 114 116 145 145 147 133 133 135 138 138 140 119 119 121 131 131 133 130 130 132 132 132 134 126 126 128 122 122 124 139 139 141 142 142 144 125 125 127 137 137 139 141 141 143 134 134 136 137 137 139 127 127 129 133 133 135 144 144 146 133 133 135 130 130 132 121 121 123 131 131 133 138 138 140 144 144 146 124 124 126 141 141 143 137 137 139 123 123 125 139 139 141 123 123 125 127 127 129 138 138 140 138 138 140 116 116 118 133 133 135 145 145 147 127 127 129 117 117 119 127 127 129 123 123 125 123 123 125 140 140 142 128 128 130 128 128 130 115 115 117 131 131 133 121 121 123 118 118 120 141 141 143 117 117 119 135 135 137 114 114 116 130 130 132 115 115 117 129 129 131 124 124 126 128 128 130 131 131 133 116 116 118 142 142 144 141 141 143 142 142 144 138 138 140 116 116 118 122 122 124 116 116 118 146 146 148 139 139 141 126 126 128 125 125 127 119 119 121 128 128 130 144 144 146 140 140 142 130 130 132 119 119 121 138 138 140 123 123 125 121 121 123 
125 125 127 129 129 131 144 144 146 123 123 125 126 126 128 132 132 134 115 115 117 129 129 131 121 121 123 117 117 119 132 132 134 127 127 129 142 142 144 131 131 133 128 128 130 131 131 133 144 144 146 131 131 133 136 136 138 126 126 128 127 127 129 144 144 146 121 121 123 118 118 120 113 113 115 126 126 128 143 143 145 119 119 121 132 132 134 137 137 139 132 132 134 122 122 124 134 134 136 132 132 134 142 142 144 144 144 146 132 132 134 138 138 140 137 137 139 127 127 129 138 138 140 133 133 135 139 139 141 129 129 131 134 134 136 141 141 143 143 143 145 114 114 116 132 132 134 143 143 145 129 129 131 126 126 128 120 120 122 137 137 139 118 118 120 141 141 143 137 137 139 121 121 123 137 137 139 119 119 121 137 137 139 123 123 125 142 142 144 139 139 141 141 141 143 122 122 124 140 140 142 135 135 137 132 132 134 114 114 116 134 134 136 127 127 129 141 141 143 132 132 134 133 133 135 134 134 136 117 117 119 138 138 140 141 141 143 137 137 139 134 134 136 144 144 146 133 133 135 130 130 132 125 125 127 120 120 122 135 135 137 119 119 121 124 124 126 137 137 139 128 128 130 142 142 144 137 137 139 131 131 133 141 141 143 114 114 116 121 121 123 144 144 146 138 138 140 141 141 143 137 137 139 138 138 140 144 144 146 116 116 118 135 135 137 127 127 129 145 145 147 119 119 121 123 123 125 145 145 147 116 116 118 132 132 134 134 134 136 120 120 122 116 116 118 127 127 129 144 144 146 132 132 134 124 124 126 123 123 125 119 119 121 126 126 128 136 136 138 136 136 138 133 133 135 128 128 130 146 146 148 124 124 126 115 115 117 140 140 142 123 123 125 130 130 132 138 138 140 129 129 131 119 119 121 132 132 134 129 129 131 117 117 119 128 128 130 130 130 132 143 143 145 125 125 127 133 133 135 124 124 126 115 115 117 124 124 126 137 137 139 133 133 135 122 122 124 118 118 120 136 136 138 123 123 125 129 129 131 132 132 134 125 125 127 123 123 125 128 128 130 122 122 124 119 119 121 141 141 143 143 143 145 119 119 121 140 140 142 140 140 142 129 129 131 116 116 118 135 135 137 142 142 144 135 135 137 139 139 141 139 139 141 143 143 145 123 123 125 122 122 124 145 145 147 132 132 134 123 123 125 126 126 128 139 139 141 136 136 138 127 127 129 146 146 148 129 129 131 127 127 129 116 116 118 120 120 122 140 140 142 123 123 125 138 138 140 131 131 133 135 135 137 113 113 115 121 121 123 127 127 129 143 143 145 141 141 143 125 125 127 140 140 142 138 138 140 119 119 121 139 139 141 116 116 118 132 132 134 145 145 147 141 141 143 138 138 140 128 128 130 123 123 125 121 121 123 127 127 129 132 132 134 121 121 123 115 115 117 142 142 144 131 131 133 140 140 142 140 140 142 135 135 137 126 126 128 114 114 116 144 144 146 117 117 119 132 132 134 120 120 122 131 131 133 123 123 125 120 120 122 126 126 128 122 122 124 124 124 126 139 139 141 121 121 123 137 137 139 143 143 145 135 135 137 133 133 135 117 117 119 137 137 139 134 134 136 131 131 133 125 125 127 131 131 133 140 140 142 129 129 131 137 137 139 136 136 138 120 120 122 136 136 138 143 143 145 142 142 144 117 117 119 134 134 136 131 131 133 116 116 118 134 134 136 131 131 133 
126 126 128 135 135 137 121 121 123 113 113 115 144 144 146 122 122 124 126 126 128 132 132 134 118 118 120 121 121 123 130 130 132 124 124 126 120 120 122 126 126 128 125 125 127 127 127 129 128 128 130 142 142 144 131 131 133 138 138 140 140 140 142 134 134 136 135 135 137 128 128 130 145 145 147 142 142 144 134 134 136 143 143 145 117 117 119 116 116 118 134 134 136 145 145 147 115 115 117 127 127 129 143 143 145 132 132 134 142 142 144 139 139 141 127 127 129 132 132 134 119 119 121 141 141 143 121 121 123 143 143 145 144 144 146 140 140 142 141 141 143 126 126 128 143 143 145 145 145 147 117 117 119 140 140 142 121 121 123 127 127 129 125 125 127 131 131 133 121 121 123 124 124 126 141 141 143 122 122 124 141 141 143 145 145 147 113 113 115 138 138 140 134 134 136 129 129 131 116 116 118 120 120 122 144 144 146 134 134 136 122 122 124 140 140 142 135 135 137 119 119 121 118 118 120 137 137 139 135 135 137 124 124 126 123 123 125 125 125 127 114 114 116 138 138 140 126 126 128 130 130 132 141 141 143 137 137 139 121 121 123 135 135 137 133 133 135 144 144 146 117 117 119 122 122 124 119 119 121 137 137 139 139 139 141 135 135 137 122 122 124 145 145 147 140 140 142 125 125 127 123 123 125 144 144 146 124 124 126 138 138 140 127 127 129 123 123 125 134 134 136 124 124 126 123 123 125 119 119 121 123 123 125 125 125 127 137 137 139 142 142 144 134 134 136 146 146 148 125 125 127 132 132 134 128 128 130 138 138 140 130 130 132 143 143 145 125 125 127 129 129 131 138 138 140 129 129 131 137 137 139 129 129 131 117 117 119 125 125 127 120 120 122 127 127 129 121 121 123 129 129 131 114 114 116 126 126 128 113 113 115 127 127 129 144 144 146 125 125 127 118 118 120 144 144 146 146 146 148 133 133 135 125 125 127 134 134 136 136 136 138 133 133 135 138 138 140 126 126 128 135 135 137 120 120 122 115 115 117 135 135 137 127 127 129 113 113 115 128 128 130 115 115 117 120 120 122 133 133 135 113 113 115 118 118 120 127 127 129 121 121 123 126 126 128 143 143 145 118 118 120 136 136 138 126 126 128 125 125 127 120 120 122 137 137 139 123 123 125 136 136 138 144 144 146 135 135 137 134 134 136 119 119 121 142 142 144 127 127 129 137 137 139 114 114 116 125 125 127 123 123 125 145 145 147 121 121 123 124 124 126 135 135 137 116 116 118 116 116 118 117 117 119 138 138 140 125 125 127 135 135 137 138 138 140 133 133 135 129 129 131 132 132 134 122 122 124 117 117 119 140 140 142 118 118 120 122 122 124 140 140 142 129 129 131 120 120 122 135 135 137 138 138 140 139 139 141 123 123 125 116 116 118 125 125 127 123 123 125 126 126 128 144 144 146 132 132 134 118 118 120 142 142 144 140 140 142 120 120 122 129 129 131 131 131 133 127 127 129 136 136 138 137 137 139 122 122 124 120 120 122 125 125 127 131 131 133 136 136 138 138 138 140 137 137 139 128 128 130 114 114 116 125 125 127 120 120 122 117 117 119 116 116 118 137 137 139 121 121 123 131 131 133 123 123 125 119 119 121 128 128 130 140 140 142 117 117 119 136 136 138 128 128 130 138 138 140 124 124 126 140 140 142 115 115 117 133 133 135 120 120 122 144 144 146 130 130 132 
140 140 142 125 125 127 128 128 130 126 126 128 142 142 144 116 116 118 125 125 127 123 123 125 144 144 146 128 128 130 124 124 126 142 142 144 120 120 122 136 136 138 122 122 124 122 122 124 141 141 143 130 130 132 144 144 146 142 142 144 137 137 139 123 123 125 135 135 137 131 131 133 115 115 117 119 119 121 124 124 126 142 142 144 139 139 141 133 133 135 116 116 118 137 137 139 131 131 133 138 138 140 139 139 141 116 116 118 132 132 134 134 134 136 138 138 140 126 126 128 123 123 125 143 143 145 130 130 132 128 128 130 128 128 130 120 120 122 125 125 127 129 129 131 127 127 129 117 117 119 131 131 133 125 125 127 136 136 138 131 131 133 127 127 129 130 130 132 145 145 147 127 127 129 119 119 121 132 132 134 131 131 133 122 122 124 145 145 147 125 125 127 115 115 117 124 124 126 116 116 118 130 130 132 127 127 129 118 118 120 123 123 125 119 119 121 141 141 143 143 143 145 129 129 131 133 133 135 120 120 122 126 126 128 128 128 130 116 116 118 127 127 129 142 142 144 139 139 141 132 132 134 134 134 136 123 123 125 124 124 126 138 138 140 145 145 147 125 125 127 127 127 129 121 121 123 116 116 118 115 115 117 132 132 134 126 126 128 114 114 116 131 131 133 128 128 130 145 145 147 126 126 128 119 119 121 120 120 122 120 120 122 116 116 118 116 116 118 133 133 135 131 131 133 131 131 133 125 125 127 124 124 126 130 130 132 130 130 132 135 135 137 139 139 141 127 127 129 121 121 123 119 119 121 123 123 125 136 136 138 127 127 129 117 117 119 133 133 135 123 123 125 129 129 131 112 112 114 125 125 127 140 140 142 137 137 139 134 134 136 141 141 143 143 143 145 115 115 117 140 140 142 132 132 134 130 130 132 125 125 127 122 122 124 143 143 145 127 127 129 118 118 120 122 122 124 115 115 117 143 143 145 123 123 125 145 145 147 134 134 136 133 133 135 139 139 141 144 144 146 141 141 143 136 136 138 117 117 119 126 126 128 126 126 128 134 134 136 139 139 141 118 118 120 120 120 122 131 131 133 123 123 125 120 120 122 133 133 135 120 120 122 143 143 145 136 136 138 123 123 125 140 140 142 135 135 137 135 135 137 141 141 143 124 124 126 138 138 140 130 130 132 134 134 136 120 120 122 140 140 142 123 123 125 126 126 128 135 135 137 140 140 142 120 120 122 118 118 120 130 130 132 115 115 117 140 140 142 116 116 118 141 141 143 116 116 118 122 122 124 139 139 141 126 126 128 119 119 121 136 136 138 112 112 114 118 118 120 133 133 135 144 144 146 123 123 125 116 116 118 140 140 142 122 122 124 119 119 121 122 122 124 115 115 117 129 129 131 120 120 122 126 126 128 122 122 124 135 135 137 120 120 122 115 115 117 112 112 114 142 142 144 118 118 120 130 130 132 131 131 133 121 121 123 130 130 132 132 132 134 119 119 121 117 117 119 134 134 136 113 113 115 144 144 146 119 119 121 126 126 128 126 126 128 137 137 139 130 130 132 126 126 128 133 133 135 130 130 132 132 132 134 116 116 118 117 117 119 116 116 118 129 129 131 124 124 126 127 127 129 133 133 135 120 120 122 127 127 129 139 139 141 134 134 136 130 130 132 131 131 133 123 123 125 141 141 143 137 137 139 135 135 137 113 113 115 144 144 146 125 125 127 144 144 146 118 118 120 
132 132 134 133 133 135 140 140 142 115 115 117 118 118 120 136 136 138 128 128 130 138 138 140 114 114 116 125 125 127 132 132 134 130 130 132 134 134 136 140 140 142 113 113 115 142 142 144 117 117 119 134 134 136 122 122 124 127 127 129 122 122 124 138 138 140 138 138 140 137 137 139 122 122 124 138 138 140 123 123 125 116 116 118 121 121 123 130 130 132 134 134 136 142 142 144 144 144 146 123 123 125 140 140 142 118 118 120 123 123 125 143 143 145 120 120 122 128 128 130 133 133 135 117 117 119 128 128 130 117 117 119 122 122 124 118 118 120 130 130 132 121 121 123 120 120 122 139 139 141 126 126 128 136 136 138 138 138 140 135 135 137 136 136 138 122 122 124 132 132 134 137 137 139 117 117 119 138 138 140 115 115 117 116 116 118 140 140 142 141 141 143 137 137 139 121 121 123 117 117 119 142 142 144 142 142 144 132 132 134 127 127 129 141 141 143 138 138 140 122 122 124 115 115 117 138 138 140 134 134 136 143 143 145 143 143 145 127 127 129 118 118 120 128 128 130 135 135 137 140 140 142 131 131 133 118 118 120 125 125 127 125 125 127 121 121 123 143 143 145 119 119 121 129 129 131 143 143 145 140 140 142 135 135 137 117 117 119 127 127 129 118 118 120 113 113 115 121 121 123 117 117 119 118 118 120 134 134 136 134 134 136 130 130 132 124 124 126 124 124 126 129 129 131 124 124 126 137 137 139 131 131 133 118 118 120 133 133 135 124 124 126 139 139 141 134 134 136 140 140 142 139 139 141 127 127 129 113 113 115 116 116 118 142 142 144 136 136 138 117 117 119 133 133 135 128 128 130 133 133 135 140 140 142 134 134 136 119 119 121 142 142 144 118 118 120 114 114 116 118 118 120 119 119 121 133 133 135 137 137 139 139 139 141 134 134 136 134 134 136 138 138 140 115 115 117 120 120 122 123 123 125 114 114 116 141 141 143 136 136 138 142 142 144 133 133 135 115 115 117 123 123 125 123 123 125 133 133 135 120 120 122 117 117 119 139 139 141 131 131 133 139 139 141 128 128 130 139 139 141 135 135 137 131 131 133 129 129 131 141 141 143 131 131 133 141 141 143 140 140 142 127 127 129 134 134 136 131 131 133 136 136 138 114 114 116 140 140 142 120 120 122 119 119 121 141 141 143 123 123 125 119 119 121 142 142 144 142 142 144 125 125 127 117 117 119 129 129 131 115 115 117 131 131 133 128 128 130 139 139 141 140 140 142 142 142 144 122 122 124 137 137 139 143 143 145 123 123 125 127 127 129 140 140 142 135 135 137 117 117 119 142 142 144 118 118 120 130 130 132 145 145 147 125 125 127 120 120 122 136 136 138 127 127 129 135 135 137 137 137 139 118 118 120 117 117 119 122 122 124 121 121 123 130 130 132 128 128 130 142 142 144 136 136 138 127 127 129 143 143 145 124 124 126 129 129 131 130 130 132 134 134 136 116 116 118 127 127 129 129 129 131 119 119 121 144 144 146 136 136 138 122 122 124 128 128 130 141 141 143 118 118 120 142 142 144 128 128 130 118 118 120 132 132 134 139 139 141 131 131 133 125 125 127 127 127 129 139 139 141 116 116 118 142 142 144 145 145 147 127 127 129 115 115 117 126 126 128 113 113 115 143 143 145 124 124 126 138 138 140 125 125 127 133 133 135 118 118 120 117 117 119 135 135 137 136 136 138 
140 140 142 116 116 118 143 143 145 143 143 145 119 119 121 140 140 142 120 120 122 141 141 143 134 134 136 119 119 121 131 131 133 123 123 125 139 139 141 122 122 124 117 117 119 117 117 119 127 127 129 140 140 142 129 129 131 127 127 129 126 126 128 141 141 143 141 141 143 123 123 125 130 130 132 135 135 137 136 136 138 132 132 134 146 146 148 130 130 132 114 114 116 129 129 131 121 121 123 131 131 133 124 124 126 136 136 138 118 118 120 140 140 142 139 139 141 123 123 125 121 121 123 142 142 144 136 136 138 140 140 142 117 117 119 143 143 145 129 129 131 145 145 147 116 116 118 120 120 122 128 128 130 142 142 144 133 133 135 124 124 126 144 144 146 129 129 131 136 136 138 119 119 121 117 117 119 120 120 122 140 140 142 125 125 127 143 143 145 139 139 141 116 116 118 121 121 123 128 128 130 130 130 132 140 140 142 123 123 125 125 125 127 117 117 119 122 122 124 113 113 115 135 135 137 129 129 131 117 117 119 142 142 144 129 129 131 122 122 124 139 139 141 116 116 118 135 135 137 126 126 128 129 129 131 128 128 130 144 144 146 122 122 124 137 137 139 140 140 142 129 129 131 118 118 120 143 143 145 115 115 117 128 128 130 146 146 148 127 127 129 144 144 146 120 120 122 126 126 128 136 136 138 128 128 130 115 115 117 136 136 138 135 135 137 124 124 126 134 134 136 127 127 129 134 134 136 132 132 134 133 133 135 121 121 123 136 136 138 142 142 144 135 135 137 117 117 119 116 116 118 122 122 124 138 138 140 119 119 121 118 118 120 126 126 128 131 131 133 137 137 139 117 117 119 137 137 139 122 122 124 143 143 145 121 121 123 122 122 124 139 139 141 137 137 139 127 127 129 129 129 131 126 126 128 133 133 135 128 128 130 120 120 122 120 120 122 142 142 144 115 115 117 138 138 140 134 134 136 137 137 139 118 118 120 138 138 140 117 117 119 119 119 121 128 128 130 121 121 123 137 137 139 118 118 120 126 126 128 128 128 130 138 138 140 125 125 127 138 138 140 136 136 138 130 130 132 124 124 126 122 122 124 126 126 128 136 136 138 144 144 146 127 127 129 113 113 115 119 119 121 126 126 128 136 136 138 118 118 120 127 127 129 131 131 133 127 127 129 128 128 130 117 117 119 116 116 118 115 115 117 139 139 141 128 128 130 132 132 134 135 135 137 143 143 145 119 119 121 115 115 117 145 145 147 124 124 126 130 130 132 122 122 124 132 132 134 113 113 115 145 145 147 120 120 122 123 123 125 122 122 124 128 128 130 129 129 131 125 125 127 138 138 140 120 120 122 145 145 147 136 136 138 142 142 144 130 130 132 115 115 117 118 118 120 118 118 120 132 132 134 123 123 125 135 135 137 126 126 128 131 131 133 120 120 122 131 131 133 117 117 119 134 134 136 144 144 146 119 119 121 141 141 143 119 119 121 130 130 132 134 134 136 125 125 127 126 126 128 115 115 117 126 126 128 126 126 128 118 118 120 134 134 136 132 132 134 116 116 118 120 120 122 122 122 124 137 137 139 131 131 133 135 135 137 138 138 140 129 129 131 126 126 128 133 133 135 134 134 136 126 126 128 124 124 126 122 122 124 120 120 122 132 132 134 126 126 128 124 124 126 122 122 124 117 117 119 129 129 131 139 139 141 135 135 137 123 123 125 137 137 139 143 143 145 133 133 135 
122 122 124 120 120 122 143 143 145 130 130 132 118 118 120 116 116 118 115 115 117 123 123 125 117 117 119 117 117 119 142 142 144 127 127 129 123 123 125 116 116 118 117 117 119 115 115 117 126 126 128 134 134 136 119 119 121 119 119 121 114 114 116 123 123 125 120 120 122 119 119 121 123 123 125 143 143 145 145 145 147 141 141 143 117 117 119 132 132 134 133 133 135 134 134 136 117 117 119 131 131 133 115 115 117 125 125 127 117 117 119 127 127 129 123 123 125 131 131 133 134 134 136 138 138 140 126 126 128 144 144 146 134 134 136 112 112 114 126 126 128 121 121 123 143 143 145 142 142 144 133 133 135 128 128 130 142 142 144 133 133 135 136 136 138 137 137 139 114 114 116 136 136 138 125 125 127 124 124 126 123 123 125 116 116 118 125 125 127 134 134 136 123 123 125 126 126 128 117 117 119 136 136 138 123 123 125 118 118 120 120 120 122 121 121 123 139 139 141 122 122 124 142 142 144 123 123 125 130 130 132 120 120 122 142 142 144 117 117 119 120 120 122 122 122 124 126 126 128 133 133 135 123 123 125 128 128 130 140 140 142 134 134 136 120 120 122 118 118 120 122 122 124 135 135 137 117 117 119 116 116 118 125 125 127 140 140 142 123 123 125 139 139 141 137 137 139 116 116 118 132 132 134 122 122 124 139 139 141 141 141 143 113 113 115 127 127 129 125 125 127 117 117 119 142 142 144 125 125 127 141 141 143 132 132 134 119 119 121 132 132 134 136 136 138 130 130 132 115 115 117 142 142 144 138 138 140 141 141 143 127 127 129 130 130 132 125 125 127 123 123 125 136 136 138 123 123 125 124 124 126 133 133 135 125 125 127 142 142 144 140 140 142 142 142 144 134 134 136 119 119 121 145 145 147 128 128 130 125 125 127 135 135 137 143 143 145 124 124 126 129 129 131 136 136 138 117 117 119 127 127 129 143 143 145 140 140 142 143 143 145 143 143 145 138 138 140 131 131 133 121 121 123 131 131 133 130 130 132 119 119 121 123 123 125 137 137 139 127 127 129 140 140 142 143 143 145 134 134 136 126 126 128 135 135 137 142 142 144 118 118 120 133 133 135 127 127 129 123 123 125 131 131 133 137 137 139 143 143 145 130 130 132 122 122 124 120 120 122 138 138 140 120 120 122 130 130 132 115 115 117 113 113 115 139 139 141 135 135 137 133 133 135 143 143 145 139 139 141 127 127 129 134 134 136 124 124 126 119 119 121 128 128 130 125 125 127 139 139 141 141 141 143 118 118 120 125 125 127 116 116 118 120 120 122 114 114 116 128 128 130 139 139 141 141 141 143 137 137 139 143 143 145 120 120 122 143 143 145 128 128 130 120 120 122 126 126 128 139 139 141 131 131 133 133 133 135 139 139 141 115 115 117 129 129 131 134 134 136 121 121 123 135 135 137 115 115 117 129 129 131 115 115 117 131 131 133 120 120 122 124 124 126 130 130 132 136 136 138 143 143 145 139 139 141 121 121 123 113 113 115 115 115 117 125 125 127 138 138 140 143 143 145 117 117 119 117 117 119 121 121 123 139 139 141 141 141 143 130 130 132 143 143 145 136 136 138 136 136 138 140 140 142 122 122 124 117 117 119 128 128 130 113 113 115 118 118 120 118 118 120 138 138 140 141 141 143 119 119 121 127 127 129 125 125 127 129 129 131 138 138 140 114 114 116 144 144 146 
115 115 117 122 122 124 130 130 132 120 120 122 123 123 125 142 142 144 131 131 133 115 115 117 139 139 141 126 126 128 139 139 141 139 139 141 132 132 134 141 141 143 139 139 141 134 134 136 136 136 138 115 115 117 124 124 126 145 145 147 115 115 117 136 136 138 116 116 118 135 135 137 119 119 121 132 132 134 142 142 144 140 140 142 115 115 117 138 138 140 116 116 118 134 134 136 130 130 132 145 145 147 129 129 131 130 130 132 143 143 145 123 123 125 119 119 121 138 138 140 124 124 126 128 128 130 124 124 126 143 143 145 133 133 135 139 139 141 142 142 144 135 135 137 118 118 120 145 145 147 137 137 139 125 125 127 120 120 122 116 116 118 118 118 120 128 128 130 142 142 144 120 120 122 119 119 121 139 139 141 124 124 126 142 142 144 134 134 136 120 120 122 129 129 131 136 136 138 133 133 135 142 142 144 123 123 125 121 121 123 134 134 136 133 133 135 123 123 125 135 135 137 136 136 138 139 139 141 133 133 135 121 121 123 131 131 133 116 116 118 117 117 119 120 120 122 143 143 145 113 113 115 117 117 119 119 119 121 117 117 119 131 131 133 135 135 137 118 118 120 145 145 147 130 130 132 134 134 136 131 131 133 122 122 124 133 133 135 144 144 146 123 123 125 130 130 132 122 122 124 134 134 136 135 135 137 114 114 116 132 132 134 137 137 139 142 142 144 113 113 115 119 119 121 132 132 134 121 121 123 123 123 125 116 116 118 143 143 145 119 119 121 120 120 122 131 131 133 125 125 127 136 136 138 117 117 119 141 141 143 143 143 145 117 117 119 133 133 135 120 120 122 144 144 146 132 132 134 117 117 119 139 139 141 141 141 143 137 137 139 136 136 138 122 122 124 116 116 118 139 139 141 116 116 118 123 123 125 135 135 137 124 124 126 124 124 126 142 142 144 125 125 127 122 122 124 139 139 141 118 118 120 128 128 130 138 138 140 127 127 129 140 140 142 144 144 146 144 144 146 140 140 142 119 119 121 115 115 117 136 136 138 112 112 114 126 126 128 135 135 137 139 139 141 129 129 131 130 130 132 134 134 136 141 141 143 130 130 132 130 130 132 121 121 123 131 131 133 137 137 139 139 139 141 115 115 117 143 143 145 123 123 125 137 137 139 131 131 133 143 143 145 115 115 117 133 133 135 134 134 136 121 121 123 137 137 139 123 123 125 132 132 134 141 141 143 132 132 134 132 132 134 129 129 131 134 134 136 135 135 137 120 120 122 129 129 131 119 119 121 132 132 134 123 123 125 121 121 123 125 125 127 145 145 147 145 145 147 115 115 117 125 125 127 134 134 136 122 122 124 115 115 117 124 124 126 140 140 142 118 118 120 124 124 126 113 113 115 131 131 133 126 126 128 117 117 119 134 134 136 118 118 120 125 125 127 132 132 134 119 119 121 125 125 127 119 119 121 118 118 120 119 119 121 139 139 141 120 120 122 140 140 142 133 133 135 143 143 145 126 126 128 117 117 119 126 126 128 121 121 123 125 125 127 120 120 122 140 140 142 120 120 122 126 126 128 133 133 135 115 115 117 129 129 131 118 118 120 144 144 146 115 115 117 126 126 128 129 129 131 117 117 119 136 136 138 144 144 146 122 122 124 118 118 120 132 132 134 144 144 146 139 139 141 117 117 119 128 128 130 124 124 126 128 128 130 133 133 135 139 139 141 118 118 120 125 125 127 
129 129 131 144 144 146 133 133 135 114 114 116 117 117 119 143 143 145 126 126 128 125 125 127 139 139 141 132 132 134 123 123 125 141 141 143 127 127 129 141 141 143 117 117 119 121 121 123 114 114 116 121 121 123 117 117 119 140 140 142 140 140 142 123 123 125 139 139 141 135 135 137 124 124 126 142 142 144 144 144 146 141 141 143 140 140 142 145 145 147 133 133 135 134 134 136 132 132 134 114 114 116 135 135 137 129 129 131 134 134 136 117 117 119 131 131 133 124 124 126 146 146 148 124 124 126 120 120 122 113 113 115 138 138 140 142 142 144 139 139 141 119 119 121 139 139 141 137 137 139 140 140 142 144 144 146 130 130 132 124 124 126 140 140 142 121 121 123 136 136 138 139 139 141 131 131 133 142 142 144 132 132 134 142 142 144 132 132 134 126 126 128 130 130 132 129 129 131 126 126 128 132 132 134 128 128 130 123 123 125 115 115 117 142 142 144 129 129 131 131 131 133 125 125 127 124 124 126 117 117 119 126 126 128 117 117 119 114 114 116 122 122 124 145 145 147 116 116 118 126 126 128 134 134 136 143 143 145 125 125 127 136 136 138 134 134 136 125 125 127 135 135 137 129 129 131 127 127 129 129 129 131 129 129 131 121 121 123 144 144 146 137 137 139 119 119 121 142 142 144 130 130 132 119 119 121 124 124 126 124 124 126 134 134 136 118 118 120 130 130 132 135 135 137 121 121 123 129 129 131 133 133 135 117 117 119 145 145 147 122 122 124 125 125 127 139 139 141 119 119 121 142 142 144 121 121 123 123 123 125 120 120 122 130 130 132 130 130 132 119 119 121 130 130 132 114 114 116 125 125 127 123 123 125 132 132 134 137 137 139 139 139 141 116 116 118 115 115 117 115 115 117 125 125 127 143 143 145 145 145 147 136 136 138 120 120 122 144 144 146 130 130 132 118 118 120 123 123 125 131 131 133 139 139 141 118 118 120 121 121 123 143 143 145 118 118 120 127 127 129 141 141 143 117 117 119 135 135 137 130 130 132 123 123 125 129 129 131 115 115 117 122 122 124 115 115 117 141 141 143 129 129 131 134 134 136 119 119 121 138 138 140 131 131 133 115 115 117 131 131 133 127 127 129 139 139 141 127 127 129 136 136 138 135 135 137 145 145 147 140 140 142 133 133 135 133 133 135 117 117 119 119 119 121 118 118 120 136 136 138 119 119 121 116 116 118 139 139 141 117 117 119 135 135 137 122 122 124 140 140 142 134 134 136 137 137 139 119 119 121 118 118 120 114 114 116 137 137 139 139 139 141 139 139 141 121 121 123 141 141 143 133 133 135 125 125 127 143 143 145 141 141 143 135 135 137 128 128 130 138 138 140 143 143 145 132 132 134 115 115 117 136 136 138 130 130 132 134 134 136 127 127 129 129 129 131 131 131 133 137 137 139 115 115 117 131 131 133 135 135 137 141 141 143 131 131 133 127 127 129 123 123 125 121 121 123 135 135 137 128 128 130 116 116 118 124 124 126 134 134 136 115 115 117 123 123 125 116 116 118 143 143 145 145 145 147 140 140 142 131 131 133 125 125 127 140 140 142 142 142 144 133 133 135 136 136 138 120 120 122 132 132 134 134 134 136 142 142 144 119 119 121 122 122 124 122 122 124 142 142 144 120 120 122 117 117 119 133 133 135 133 133 135 115 115 117 115 115 117 131 131 133 130 130 132 122 122 124 
114 114 116 142 142 144 128 128 130 141 141 143 144 144 146 143 143 145 146 146 148 122 122 124 135 135 137 126 126 128 117 117 119 132 132 134 135 135 137 139 139 141 118 118 120 126 126 128 125 125 127 123 123 125 137 137 139 128 128 130 137 137 139 141 141 143 136 136 138 117 117 119 125 125 127 129 129 131 144 144 146 138 138 140 117 117 119 130 130 132 123 123 125 115 115 117 136 136 138 122 122 124 134 134 136 132 132 134 120 120 122 143 143 145 139 139 141 118 118 120 134 134 136 129 129 131 144 144 146 133 133 135 130 130 132 121 121 123 124 124 126 145 145 147 125 125 127 137 137 139 128 128 130 115 115 117 132 132 134 126 126 128 121 121 123 142 142 144 118 118 120 141 141 143 135 135 137 120 120 122 126 126 128 121 121 123 120 120 122 120 120 122 133 133 135 137 137 139 138 138 140 126 126 128 130 130 132 133 133 135 144 144 146 119 119 121 135 135 137 138 138 140 119 119 121 133 133 135 120 120 122 141 141 143 122 122 124 138 138 140 130 130 132 132 132 134 121 121 123 142 142 144 141 141 143 142 142 144 131 131 133 128 128 130 122 122 124 117 117 119 132 132 134 133 133 135 137 137 139 129 129 131 140 140 142 144 144 146 142 142 144 137 137 139 121 121 123 135 135 137 134 134 136 137 137 139 145 145 147 119 119 121 132 132 134 135 135 137 143 143 145 140 140 142 139 139 141 114 114 116 140 140 142 125 125 127 119 119 121 122 122 124 120 120 122 130 130 132 131 131 133 125 125 127 128 128 130 144 144 146 130 130 132 125 125 127 139 139 141 134 134 136 133 133 135 136 136 138 137 137 139 132 132 134 122 122 124 136 136 138 120 120 122 123 123 125 121 121 123 127 127 129 126 126 128 133 133 135 129 129 131 137 137 139 116 116 118 140 140 142 134 134 136 126 126 128 136 136 138 119 119 121 124 124 126 128 128 130 144 144 146 132 132 134 135 135 137 133 133 135 121 121 123 121 121 123 132 132 134 140 140 142 141 141 143 143 143 145 136 136 138 127 127 129 119 119 121 139 139 141 133 133 135 120 120 122 133 133 135 136 136 138 132 132 134 128 128 130 115 115 117 117 117 119 131 131 133 121 121 123 130 130 132 126 126 128 126 126 128 121 121 123 137 137 139 124 124 126 123 123 125 146 146 148 131 131 133 119 119 121 122 122 124 130 130 132 138 138 140 132 132 134 143 143 145 127 127 129 128 128 130 116 116 118 127 127 129 120 120 122 134 134 136 126 126 128 114 114 116 136 136 138 135 135 137 133 133 135 136 136 138 120 120 122 135 135 137 129 129 131 118 118 120 129 129 131 140 140 142 126 126 128 133 133 135 133 133 135 115 115 117 134 134 136 136 136 138 131 131 133 124 124 126 140 140 142 141 141 143 141 141 143 131 131 133 119 119 121 134 134 136 140 140 142 120 120 122 136 136 138 121 121 123 130 130 132 132 132 134 117 117 119 145 145 147 131 131 133 125 125 127 139 139 141 114 114 116 139 139 141 137 137 139 135 135 137 139 139 141 118 118 120 138 138 140 121 121 123 124 124 126 139 139 141 144 144 146 137 137 139 136 136 138 112 112 114 121 121 123 133 133 135 133 133 135 125 125 127 124 124 126 132 132 134 136 136 138 141 141 143 134 134 136 141 141 143 119 119 121 127 127 129 138 138 140 119 119 121 
137 137 139 121 121 123 122 122 124 122 122 124 144 144 146 134 134 136 127 127 129 114 114 116 123 123 125 140 140 142 128 128 130 140 140 142 122 122 124 123 123 125 137 137 139 141 141 143 126 126 128 133 133 135 129 129 131 140 140 142 132 132 134 119 119 121 137 137 139 121 121 123 146 146 148 137 137 139 118 118 120 138 138 140 130 130 132 121 121 123 123 123 125 121 121 123 131 131 133 134 134 136 137 137 139 118 118 120 138 138 140 142 142 144 125 125 127 116 116 118 122 122 124 140 140 142 128 128 130 114 114 116 121 121 123 139 139 141 119 119 121 140 140 142 145 145 147 134 134 136 132 132 134 123 123 125 142 142 144 123 123 125 130 130 132 144 144 146 116 116 118 130 130 132 136 136 138 125 125 127 127 127 129 130 130 132 130 130 132 124 124 126 123 123 125 124 124 126 136 136 138 127 127 129 124 124 126 119 119 121 122 122 124 139 139 141 129 129 131 127 127 129 129 129 131 137 137 139 142 142 144 126 126 128 145 145 147 144 144 146 116 116 118 137 137 139 130 130 132 128 128 130 122 122 124 128 128 130 140 140 142 115 115 117 117 117 119 139 139 141 135 135 137 116 116 118 121 121 123 134 134 136 123 123 125 130 130 132 116 116 118 132 132 134 143 143 145 123 123 125 126 126 128 141 141 143 129 129 131 140 140 142 117 117 119 139 139 141 115 115 117 121 121 123 129 129 131 117 117 119 129 129 131 137 137 139 138 138 140 144 144 146 112 112 114 143 143 145 114 114 116 141 141 143 139 139 141 113 113 115 123 123 125 116 116 118 118 118 120 113 113 115 112 112 114 119 119 121 122 122 124 126 126 128 118 118 120 141 141 143 133 133 135 119 119 121 137 137 139 115 115 117 118 118 120 127 127 129 129 129 131 139 139 141 129 129 131 120 120 122 135 135 137 140 140 142 125 125 127 122 122 124 115 115 117 143 143 145 119 119 121 129 129 131 118 118 120 113 113 115 142 142 144 142 142 144 123 123 125 130 130 132 112 112 114 136 136 138 131 131 133 120 120 122 113 113 115 123 123 125 128 128 130 145 145 147 129 129 131 133 133 135 136 136 138 122 122 124 117 117 119 117 117 119 126 126 128 134 134 136 143 143 145 134 134 136 137 137 139 129 129 131 139 139 141 136 136 138 117 117 119 121 121 123 118 118 120 135 135 137 127 127 129 120 120 122 137 137 139 131 131 133 112 112 114 132 132 134 133 133 135 145 145 147 143 143 145 133 133 135 118 118 120 126 126 128 113 113 115 142 142 144 137 137 139 135 135 137 125 125 127 119 119 121 121 121 123 115 115 117 119 119 121 137 137 139 124 124 126 117 117 119 137 137 139 124 124 126 137 137 139 120 120 122 144 144 146 135 135 137 115 115 117 142 142 144 121 121 123 124 124 126 119 119 121 136 136 138 136 136 138 140 140 142 134 134 136 114 114 116 129 129 131 113 113 115 117 117 119 141 141 143 123 123 125 123 123 125 122 122 124 131 131 133 133 133 135 117 117 119 137 137 139 128 128 130 116 116 118 118 118 120 129 129 131 134 134 136 128 128 130 141 141 143 127 127 129 116 116 118 137 137 139 113 113 115 139 139 141 139 139 141 141 141 143 119 119 121 127 127 129 129 129 131 142 142 144 141 141 143 123 123 125 126 126 128 138 138 140 120 120 122 119 119 121 119 119 121 
130 130 132 125 125 127 124 124 126 139 139 141 112 112 114 140 140 142 142 142 144 140 140 142 117 117 119 133 133 135 131 131 133 134 134 136 128 128 130 130 130 132 116 116 118 123 123 125 129 129 131 115 115 117 128 128 130 138 138 140 127 127 129 137 137 139 128 128 130 125 125 127 120 120 122 124 124 126 117 117 119 134 134 136 114 114 116 127 127 129 140 140 142 116 116 118 125 125 127 124 124 126 146 146 148 142 142 144 139 139 141 113 113 115 134 134 136 131 131 133 140 140 142 130 130 132 125 125 127 125 125 127 126 126 128 127 127 129 142 142 144 118 118 120 133 133 135 119 119 121 121 121 123 126 126 128 131 131 133 119 119 121 132 132 134 133 133 135 132 132 134 129 129 131 124 124 126 119 119 121 118 118 120 132 132 134 135 135 137 116 116 118 118 118 120 136 136 138 128 128 130 139 139 141 118 118 120 129 129 131 131 131 133 116 116 118 123 123 125 135 135 137 128 128 130 120 120 122 141 141 143 120 120 122 131 131 133 138 138 140 134 134 136 136 136 138 143 143 145 134 134 136 128 128 130 122 122 124 130 130 132 133 133 135 131 131 133 139 139 141 115 115 117 130 130 132 140 140 142 123 123 125 127 127 129 143 143 145 142 142 144 125 125 127 141 141 143 123 123 125 122 122 124 131 131 133 119 119 121 130 130 132 135 135 137 124 124 126 117 117 119 122 122 124 117 117 119 119 119 121 132 132 134 122 122 124 136 136 138 135 135 137 136 136 138 117 117 119 124 124 126 121 121 123 114 114 116 138 138 140 135 135 137 142 142 144 132 132 134 142 142 144 125 125 127 142 142 144 116 116 118 126 126 128 117 117 119 143 143 145 141 141 143 133 133 135 125 125 127 132 132 134 122 122 124 121 121 123 122 122 124 138 138 140 116 116 118 133 133 135 140 140 142 137 137 139 118 118 120 119 119 121 127 127 129 139 139 141 123 123 125 138 138 140 136 136 138 118 118 120 126 126 128 113 113 115 131 131 133 123 123 125 117 117 119 118 118 120 129 129 131 114 114 116 136 136 138 142 142 144 143 143 145 138 138 140 115 115 117 116 116 118 140 140 142 135 135 137 139 139 141 127 127 129 133 133 135 131 131 133 127 127 129 133 133 135 117 117 119 122 122 124 145 145 147 122 122 124 121 121 123 123 123 125 137 137 139 122 122 124 143 143 145 138 138 140 123 123 125 140 140 142 130 130 132 141 141 143 127 127 129 132 132 134 126 126 128 132 132 134 119 119 121 129 129 131 129 129 131 123 123 125 138 138 140 139 139 141 130 130 132 123 123 125 139 139 141 125 125 127 143 143 145 131 131 133 130 130 132 139 139 141 142 142 144 116 116 118 118 118 120 132 132 134 134 134 136 130 130 132 135 135 137 128 128 130 138 138 140 137 137 139 122 122 124 132 132 134 117 117 119 132 132 134 129 129 131 118 118 120 122 122 124 141 141 143 116 116 118 120 120 122 133 133 135 125 125 127 133 133 135 139 139 141 122 122 124 120 120 122 141 141 143 133 133 135 118 118 120 142 142 144 116 116 118 131 131 133 127 127 129 137 137 139 116 116 118 121 121 123 131 131 133 129 129 131 120 120 122 135 135 137 140 140 142 139 139 141 134 134 136 143 143 145 130 130 132 135 135 137 124 124 126 130 130 132 116 116 118 115 115 117 133 133 135 131 131 133 
135 135 137 127 127 129 127 127 129 118 118 120 114 114 116 121 121 123 123 123 125 144 144 146 117 117 119 115 115 117 118 118 120 136 136 138 120 120 122 134 134 136 122 122 124 126 126 128 129 129 131 126 126 128 128 128 130 127 127 129 126 126 128 139 139 141 132 132 134 121 121 123 128 128 130 116 116 118 136 136 138 120 120 122 140 140 142 133 133 135 136 136 138 146 146 148 126 126 128 126 126 128 122 122 124 142 142 144 138 138 140 116 116 118 137 137 139 120 120 122 115 115 117 129 129 131 121 121 123 113 113 115 143 143 145 137 137 139 143 143 145 137 137 139 122 122 124 135 135 137 130 130 132 123 123 125 121 121 123 133 133 135 115 115 117 139 139 141 127 127 129 117 117 119 123 123 125 144 144 146 139 139 141 119 119 121 132 132 134 125 125 127 116 116 118 118 118 120 140 140 142 119 119 121 116 116 118 115 115 117 128 128 130 115 115 117 131 131 133 124 124 126 132 132 134 137 137 139 142 142 144 129 129 131 123 123 125 115 115 117 117 117 119 113 113 115 137 137 139 134 134 136 127 127 129 116 116 118 145 145 147 116 116 118 113 113 115 115 115 117 141 141 143 128 128 130 135 135 137 124 124 126 131 131 133 142 142 144 117 117 119 114 114 116 115 115 117 135 135 137 124 124 126 145 145 147 126 126 128 138 138 140 125 125 127 120 120 122 130 130 132 128 128 130 135 135 137 145 145 147 140 140 142 115 115 117 117 117 119 144 144 146 140 140 142 132 132 134 127 127 129 115 115 117 126 126 128 117 117 119 125 125 127 120 120 122 139 139 141 136 136 138 138 138 140 118 118 120 121 121 123 138 138 140 125 125 127 119 119 121 124 124 126 144 144 146 117 117 119 145 145 147 126 126 128 125 125 127 135 135 137 117 117 119 133 133 135 133 133 135 142 142 144 126 126 128 144 144 146 140 140 142 116 116 118 140 140 142 142 142 144 134 134 136 137 137 139 117 117 119 138 138 140 127 127 129 144 144 146 142 142 144 145 145 147 131 131 133 137 137 139 132 132 134 130 130 132 123 123 125 141 141 143 138 138 140 142 142 144 135 135 137 122 122 124 121 121 123 143 143 145 139 139 141 125 125 127 124 124 126 138 138 140 135 135 137 121 121 123 124 124 126 142 142 144 135 135 137 129 129 131 125 125 127 126 126 128 138 138 140 136 136 138 116 116 118 130 130 132 117 117 119 131 131 133 136 136 138 133 133 135 117 117 119 141 141 143 143 143 145 134 134 136 126 126 128 133 133 135 123 123 125 118 118 120 132 132 134 143 143 145 113 113 115 129 129 131 123 123 125 136 136 138 133 133 135 130 130 132 116 116 118 116 116 118 120 120 122 118 118 120 124 124 126 131 131 133 125 125 127 131 131 133 140 140 142 141 141 143 122 122 124 122 122 124 129 129 131 141 141 143 145 145 147 133 133 135 133 133 135 132 132 134 140 140 142 119 119 121 134 134 136 129 129 131 134 134 136 140 140 142 136 136 138 119 119 121 141 141 143 123 123 125 116 116 118 138 138 140 134 134 136 123 123 125 133 133 135 121 121 123 140 140 142 133 133 135 116 116 118 119 119 121 125 125 127 123 123 125 120 120 122 117 117 119 120 120 122 144 144 146 130 130 132 134 134 136 117 117 119 118 118 120 126 126 128 124 124 126 140 140 142 120 120 122 144 144 146 
123 123 125 119 119 121 124 124 126 132 132 134 125 125 127 120 120 122 138 138 140 123 123 125 122 122 124 126 126 128 138 138 140 123 123 125 121 121 123 116 116 118 120 120 122 116 116 118 120 120 122 138 138 140 143 143 145 127 127 129 140 140 142 124 124 126 143 143 145 118 118 120 141 141 143 140 140 142 140 140 142 139 139 141 124 124 126 117 117 119 134 134 136 138 138 140 139 139 141 128 128 130 133 133 135 131 131 133 125 125 127 139 139 141 130 130 132 116 116 118 126 126 128 123 123 125 138 138 140 137 137 139 135 135 137 116 116 118 119 119 121 133 133 135 118 118 120 128 128 130 116 116 118 118 118 120 127 127 129 118 118 120 121 121 123 117 117 119 124 124 126 130 130 132 135 135 137 138 138 140 140 140 142 126 126 128 126 126 128 139 139 141 121 121 123 145 145 147 115 115 117 126 126 128 115 115 117 125 125 127 142 142 144 115 115 117 124 124 126 131 131 133 120 120 122 135 135 137 137 137 139 141 141 143 129 129 131 131 131 133 129 129 131 142 142 144 133 133 135 128 128 130 137 137 139 129 129 131 145 145 147 118 118 120 119 119 121 127 127 129 142 142 144 121 121 123 134 134 136 122 122 124 137 137 139 118 118 120 123 123 125 140 140 142 145 145 147 126 126 128 144 144 146 113 113 115 134 134 136 133 133 135 141 141 143 130 130 132 145 145 147 132 132 134 134 134 136 121 121 123 142 142 144 132 132 134 140 140 142 134 134 136 120 120 122 120 120 122 125 125 127 144 144 146 134 134 136 130 130 132 122 122 124 118 118 120 115 115 117 143 143 145 125 125 127 145 145 147 144 144 146 136 136 138 118 118 120 144 144 146 141 141 143 142 142 144 121 121 123 116 116 118 131 131 133 124 124 126 122 122 124 143 143 145 130 130 132 122 122 124 135 135 137 116 116 118 126 126 128 139 139 141 129 129 131 132 132 134 119 119 121 121 121 123 127 127 129 122 122 124 119 119 121 141 141 143 124 124 126 142 142 144 124 124 126 124 124 126 123 123 125 112 112 114 129 129 131 136 136 138 130 130 132 130 130 132 134 134 136 123 123 125 120 120 122 138 138 140 135 135 137 123 123 125 133 133 135 134 134 136 125 125 127 127 127 129 119 119 121 133 133 135 139 139 141 121 121 123 133 133 135 129 129 131 121 121 123 142 142 144 131 131 133 141 141 143 118 118 120 136 136 138 127 127 129 134 134 136 117 117 119 145 145 147 134 134 136 140 140 142 132 132 134 113 113 115 123 123 125 124 124 126 124 124 126 119 119 121 138 138 140 124 124 126 142 142 144 122 122 124 120 120 122 120 120 122 134 134 136 129 129 131 118 118 120 140 140 142 132 132 134 133 133 135 122 122 124 129 129 131 116 116 118 145 145 147 118 118 120 139 139 141 137 137 139 117 117 119 123 123 125 119 119 121 124 124 126 120 120 122 134 134 136 122 122 124 129 129 131 130 130 132 130 130 132 128 128 130 124 124 126 134 134 136 128 128 130 136 136 138 143 143 145 143 143 145 132 132 134 143 143 145 137 137 139 117 117 119 135 135 137 127 127 129 143 143 145 124 124 126 129 129 131 121 121 123 125 125 127 134 134 136 135 135 137 121 121 123 138 138 140 144 144 146 128 128 130 115 115 117 129 129 131 134 134 136 145 145 147 131 131 133 135 135 137 129 129 131 
118 118 120 129 129 131 144 144 146 122 122 124 142 142 144 112 112 114 121 121 123 139 139 141 134 134 136 146 146 148 123 123 125 123 123 125 124 124 126 119 119 121 126 126 128 144 144 146 124 124 126 116 116 118 126 126 128 116 116 118 118 118 120 137 137 139 129 129 131 115 115 117 115 115 117 137 137 139 121 121 123 128 128 130 115 115 117 143 143 145 127 127 129 144 144 146 141 141 143 133 133 135 128 128 130 132 132 134 114 114 116 137 137 139 126 126 128 134 134 136 139 139 141 129 129 131 116 116 118 134 134 136 138 138 140 136 136 138 120 120 122 143 143 145 136 136 138 136 136 138 126 126 128 138 138 140 141 141 143 127 127 129 135 135 137 113 113 115 120 120 122 142 142 144 134 134 136 131 131 133 139 139 141 116 116 118 134 134 136 130 130 132 143 143 145 116 116 118 138 138 140 116 116 118 124 124 126 120 120 122 121 121 123 119 119 121 137 137 139 128 128 130 113 113 115 117 117 119 135 135 137 127 127 129 123 123 125 128 128 130 143 143 145 134 134 136 116 116 118 133 133 135 125 125 127 116 116 118 144 144 146 145 145 147 114 114 116 135 135 137 128 128 130 125 125 127 123 123 125 126 126 128 139 139 141 139 139 141 136 136 138 133 133 135 139 139 141 133 133 135 142 142 144 121 121 123 139 139 141 132 132 134 127 127 129 142 142 144 121 121 123 135 135 137 136 136 138 134 134 136 137 137 139 131 131 133 140 140 142 129 129 131 137 137 139 144 144 146 120 120 122 141 141 143 144 144 146 119 119 121 143 143 145 144 144 146 140 140 142 121 121 123 124 124 126 114 114 116 137 137 139 118 118 120 144 144 146 129 129 131 140 140 142 124 124 126 141 141 143 123 123 125 117 117 119 140 140 142 127 127 129 139 139 141 122 122 124 118 118 120 136 136 138 132 132 134 125 125 127 143 143 145 134 134 136 137 137 139 134 134 136 133 133 135 120 120 122 135 135 137 139 139 141 128 128 130 132 132 134 126 126 128 117 117 119 116 116 118 131 131 133 130 130 132 134 134 136 140 140 142 118 118 120 136 136 138 127 127 129 113 113 115 122 122 124 131 131 133 120 120 122 114 114 116 116 116 118 140 140 142 128 128 130 141 141 143 129 129 131 136 136 138 140 140 142 141 141 143 141 141 143 119 119 121 122 122 124 130 130 132 119 119 121 131 131 133 125 125 127 117 117 119 142 142 144 133 133 135 145 145 147 143 143 145 124 124 126 126 126 128 124 124 126 128 128 130 115 115 117 125 125 127 119 119 121 138 138 140 137 137 139 117 117 119 140 140 142 144 144 146 134 134 136 139 139 141 129 129 131 142 142 144 116 116 118 117 117 119 141 141 143 119 119 121 139 139 141 134 134 136 124 124 126 133 133 135 134 134 136 112 112 114 137 137 139 137 137 139 114 114 116 125 125 127 124 124 126 115 115 117 143 143 145 132 132 134 137 137 139 134 134 136 143 143 145 125 125 127 126 126 128 139 139 141 134 134 136 126 126 128 145 145 147 134 134 136 116 116 118 118 118 120 131 131 133 124 124 126 136 136 138 117 117 119 119 119 121 118 118 120 129 129 131 135 135 137 116 116 118 123 123 125 131 131 133 128 128 130 116 116 118 123 123 125 131 131 133 124 124 126 120 120 122 137 137 139 115 115 117 138 138 140 141 141 143 124 124 126 
128 128 130 125 125 127 141 141 143 118 118 120 129 129 131 136 136 138 128 128 130 120 120 122 139 139 141 129 129 131 144 144 146 133 133 135 134 134 136 128 128 130 129 129 131 121 121 123 115 115 117 139 139 141 120 120 122 131 131 133 132 132 134 132 132 134 121 121 123 120 120 122 136 136 138 122 122 124 138 138 140 115 115 117 121 121 123 130 130 132 133 133 135 141 141 143 135 135 137 137 137 139 122 122 124 141 141 143 140 140 142 146 146 148 118 118 120 128 128 130 130 130 132 142 142 144 127 127 129 126 126 128 130 130 132 122 122 124 135 135 137 133 133 135 140 140 142 128 128 130 120 120 122 120 120 122 130 130 132 130 130 132 128 128 130 124 124 126 144 144 146 131 131 133 137 137 139 119 119 121 126 126 128 140 140 142 132 132 134 116 116 118 127 127 129 139 139 141 140 140 142 133 133 135 136 136 138 135 135 137 129 129 131 132 132 134 129 129 131 137 137 139 135 135 137 134 134 136 130 130 132 145 145 147 123 123 125 116 116 118 114 114 116 145 145 147 136 136 138 115 115 117 122 122 124 124 124 126 129 129 131 118 118 120 139 139 141 146 146 148 132 132 134 123 123 125 123 123 125 116 116 118 121 121 123 128 128 130 132 132 134 140 140 142 137 137 139 132 132 134 118 118 120 120 120 122 129 129 131 121 121 123 123 123 125 132 132 134 124 124 126 140 140 142 122 122 124 126 126 128 132 132 134 134 134 136 141 141 143 121 121 123 140 140 142 121 121 123 137 137 139 115 115 117 131 131 133 123 123 125 139 139 141 136 136 138 134 134 136 128 128 130 143 143 145 142 142 144 130 130 132 137 137 139 128 128 130 134 134 136 123 123 125 132 132 134 119 119 121 135 135 137 141 141 143 119 119 121 136 136 138 120 120 122 144 144 146 119 119 121 132 132 134 119 119 121 115 115 117 133 133 135 116 116 118 139 139 141 113 113 115 120 120 122 130 130 132 115 115 117 120 120 122 119 119 121 129 129 131 126 126 128 130 130 132 141 141 143 120 120 122 133 133 135 131 131 133 138 138 140 135 135 137 123 123 125 127 127 129 139 139 141 119 119 121 146 146 148 140 140 142 144 144 146 119 119 121 144 144 146 125 125 127 140 140 142 115 115 117 117 117 119 143 143 145 134 134 136 121 121 123 121 121 123 127 127 129 129 129 131 123 123 125 141 141 143 143 143 145 144 144 146 138 138 140 139 139 141 142 142 144 142 142 144 118 118 120 127 127 129 131 131 133 129 129 131 132 132 134 139 139 141 128 128 130 119 119 121 125 125 127 125 125 127 116 116 118 123 123 125 142 142 144 119 119 121 119 119 121 117 117 119 139 139 141 127 127 129 140 140 142 128 128 130 139 139 141 133 133 135 144 144 146 129 129 131 114 114 116 137 137 139 143 143 145 129 129 131 136 136 138 137 137 139 116 116 118 137 137 139 129 129 131 139 139 141 137 137 139 126 126 128 129 129 131 120 120 122 120 120 122 120 120 122 140 140 142 134 134 136 143 143 145 132 132 134 145 145 147 125 125 127 115 115 117 123 123 125 133 133 135 142 142 144 131 131 133 142 142 144 130 130 132 141 141 143 138 138 140 126 126 128 139 139 141 123 123 125 141 141 143 139 139 141 119 119 121 138 138 140 127 127 129 143 143 145 127 127 129 126 126 128 124 124 126 125 125 127 
118 118 120 134 134 136 130 130 132 123 123 125 139 139 141 130 130 132 128 128 130 144 144 146 124 124 126 130 130 132 120 120 122 141 141 143 137 137 139 132 132 134 128 128 130 140 140 142 145 145 147 116 116 118 134 134 136 120 120 122 114 114 116 140 140 142 139 139 141 135 135 137 115 115 117 113 113 115 121 121 123 120 120 122 119 119 121 139 139 141 137 137 139 127 127 129 135 135 137 117 117 119 134 134 136 124 124 126 119 119 121 144 144 146 137 137 139 130 130 132 120 120 122 129 129 131 118 118 120 119 119 121 118 118 120 120 120 122 129 129 131 117 117 119 127 127 129 123 123 125 120 120 122 121 121 123 143 143 145 126 126 128 130 130 132 130 130 132 127 127 129 145 145 147 120 120 122 141 141 143 116 116 118 127 127 129 128 128 130 142 142 144 138 138 140 116 116 118 126 126 128 125 125 127 130 130 132 135 135 137 138 138 140 117 117 119 133 133 135 118 118 120 130 130 132 112 112 114 136 136 138 131 131 133 133 133 135 131 131 133 118 118 120 123 123 125 139 139 141 133 133 135 118 118 120 126 126 128 127 127 129 123 123 125 135 135 137 143 143 145 133 133 135 135 135 137 140 140 142 136 136 138 118 118 120 140 140 142 124 124 126 140 140 142 125 125 127 133 133 135 126 126 128 126 126 128 141 141 143 134 134 136 144 144 146 127 127 129 132 132 134 129 129 131 124 124 126 118 118 120 134 134 136 128 128 130 125 125 127 135 135 137 142 142 144 120 120 122 131 131 133 125 125 127 121 121 123 125 125 127 114 114 116 137 137 139 127 127 129 122 122 124 124 124 126 133 133 135 123 123 125 143 143 145 123 123 125 114 114 116 114 114 116 136 136 138 130 130 132 136 136 138 125 125 127 145 145 147 136 136 138 130 130 132 137 137 139 128 128 130 139 139 141 126 126 128 133 133 135 116 116 118 128 128 130 126 126 128 118 118 120 145 145 147 134 134 136 134 134 136 129 129 131 122 122 124 128 128 130 120 120 122 120 120 122 123 123 125 126 126 128 133 133 135 131 131 133 123 123 125 136 136 138 117 117 119 119 119 121 117 117 119 125 125 127 117 117 119 120 120 122 131 131 133 114 114 116 140 140 142 120 120 122 118 118 120 144 144 146 127 127 129 145 145 147 119 119 121 137 137 139 125 125 127 128 128 130 125 125 127 115 115 117 117 117 119 127 127 129 143 143 145 135 135 137 129 129 131 116 116 118 132 132 134 117 117 119 140 140 142 135 135 137 134 134 136 118 118 120 138 138 140 115 115 117 122 122 124 145 145 147 139 139 141 129 129 131 126 126 128 130 130 132 116 116 118 145 145 147 130 130 132 129 129 131 131 131 133 116 116 118 124 124 126 127 127 129 145 145 147 120 120 122 132 132 134 135 135 137 140 140 142 140 140 142 117 117 119 126 126 128 119 119 121 122 122 124 141 141 143 122 122 124 117 117 119 139 139 141 131 131 133 124 124 126 139 139 141 117 117 119 145 145 147 132 132 134 119 119 121 141 141 143 132 132 134 127 127 129 119 119 121 127 127 129 144 144 146 127 127 129 117 117 119 122 122 124 120 120 122 121 121 123 131 131 133 122 122 124 128 128 130 132 132 134 126 126 128 121 121 123 125 125 127 135 135 137 124 124 126 116 116 118 127 127 129 139 139 141 125 125 127 130 130 132 116 116 118 
145 145 147 144 144 146 128 128 130 134 134 136 144 144 146 134 134 136 118 118 120 120 120 122 119 119 121 131 131 133 122 122 124 124 124 126 141 141 143 123 123 125 121 121 123 123 123 125 133 133 135 145 145 147 122 122 124 113 113 115 124 124 126 139 139 141 127 127 129 115 115 117 140 140 142 122 122 124 128 128 130 125 125 127 135 135 137 131 131 133 129 129 131 122 122 124 137 137 139 140 140 142 124 124 126 135 135 137 116 116 118 145 145 147 143 143 145 132 132 134 131 131 133 119 119 121 115 115 117 128 128 130 140 140 142 142 142 144 140 140 142 122 122 124 119 119 121 123 123 125 122 122 124 121 121 123 128 128 130 120 120 122 124 124 126 115 115 117 133 133 135 135 135 137 140 140 142 120 120 122 135 135 137 125 125 127 118 118 120 118 118 120 137 137 139 117 117 119 140 140 142 127 127 129 118 118 120 138 138 140 127 127 129 117 117 119 145 145 147 127 127 129 136 136 138 121 121 123 115 115 117 115 115 117 131 131 133 139 139 141 116 116 118 123 123 125 131 131 133 142 142 144 123 123 125 118 118 120 144 144 146 132 132 134 144 144 146 144 144 146 124 124 126 131 131 133 141 141 143 140 140 142 119 119 121 137 137 139 117 117 119 119 119 121 128 128 130 132 132 134 128 128 130 125 125 127 130 130 132 138 138 140 143 143 145 130 130 132 141 141 143 126 126 128 141 141 143 126 126 128 140 140 142 139 139 141 125 125 127 120 120 122 122 122 124 137 137 139 123 123 125 129 129 131 137 137 139 122 122 124 120 120 122 121 121 123 130 130 132 127 127 129 143 143 145 136 136 138 117 117 119 131 131 133 126 126 128 130 130 132 122 122 124 129 129 131 124 124 126 135 135 137 124 124 126 124 124 126 130 130 132 118 118 120 145 145 147 130 130 132 136 136 138 126 126 128 126 126 128 120 120 122 125 125 127 122 122 124 122 122 124 135 135 137 132 132 134 114 114 116 129 129 131 115 115 117 140 140 142 134 134 136 131 131 133 121 121 123 120 120 122 126 126 128 125 125 127 124 124 126 139 139 141 138 138 140 116 116 118 144 144 146 119 119 121 129 129 131 138 138 140 119 119 121 114 114 116 121 121 123 128 128 130 125 125 127 120 120 122 131 131 133 137 137 139 135 135 137 124 124 126 121 121 123 143 143 145 140 140 142 142 142 144 130 130 132 118 118 120 133 133 135 144 144 146 132 132 134 129 129 131 139 139 141 132 132 134 130 130 132 119 119 121 134 134 136 114 114 116 136 136 138 137 137 139 127 127 129 124 124 126 128 128 130 135 135 137 120 120 122 130 130 132 121 121 123 127 127 129 126 126 128 133 133 135 144 144 146 122 122 124 122 122 124 116 116 118 140 140 142 139 139 141 115 115 117 134 134 136 138 138 140 134 134 136 143 143 145 116 116 118 117 117 119 129 129 131 137 137 139 137 137 139 118 118 120 141 141 143 128 128 130 136 136 138 146 146 148 117 117 119 132 132 134 129 129 131 116 116 118 117 117 119 141 141 143 138 138 140 118 118 120 135 135 137 117 117 119 137 137 139 115 115 117 122 122 124 125 125 127 143 143 145 134 134 136 123 123 125 127 127 129 141 141 143 143 143 145 136 136 138 120 120 122 124 124 126 142 142 144 116 116 118 119 119 121 114 114 116 133 133 135 116 116 118 120 120 122 
129 129 131 130 130 132 134 134 136 145 145 147 145 145 147 132 132 134 142 142 144 134 134 136 124 124 126 144 144 146 123 123 125 122 122 124 142 142 144 141 141 143 119 119 121 140 140 142 144 144 146 143 143 145 124 124 126 123 123 125 142 142 144 121 121 123 139 139 141 129 129 131 118 118 120 140 140 142 142 142 144 117 117 119 117 117 119 141 141 143 140 140 142 137 137 139 145 145 147 125 125 127 121 121 123 143 143 145 141 141 143 125 125 127 129 129 131 116 116 118 138 138 140 141 141 143 138 138 140 136 136 138 129 129 131 143 143 145 137 137 139 132 132 134 132 132 134 119 119 121 136 136 138 139 139 141 119 119 121 117 117 119 124 124 126 129 129 131 114 114 116 128 128 130 130 130 132 135 135 137 122 122 124 132 132 134 124 124 126 122 122 124 132 132 134 129 129 131 119 119 121 134 134 136 127 127 129 132 132 134 139 139 141 126 126 128 122 122 124 131 131 133 137 137 139 140 140 142 120 120 122 142 142 144 141 141 143 130 130 132 137 137 139 113 113 115 115 115 117 128 128 130 137 137 139 112 112 114 140 140 142 126 126 128 119 119 121 117 117 119 122 122 124 137 137 139 140 140 142 119 119 121 122 122 124 117 117 119 131 131 133 120 120 122 144 144 146 141 141 143 125 125 127 129 129 131 116 116 118 122 122 124 116 116 118 137 137 139 133 133 135 131 131 133 146 146 148 142 142 144 138 138 140 122 122 124 123 123 125 113 113 115 143 143 145 138 138 140 144 144 146 140 140 142 122 122 124 113 113 115 141 141 143 140 140 142 117 117 119 124 124 126 144 144 146 119 119 121 118 118 120 134 134 136 139 139 141 141 141 143 127 127 129 136 136 138 123 123 125 134 134 136 118 118 120 143 143 145 125 125 127 128 128 130 140 140 142 129 129 131 140 140 142 129 129 131 140 140 142 133 133 135 119 119 121 128 128 130 131 131 133 126 126 128 120 120 122 130 130 132 139 139 141 139 139 141 136 136 138 126 126 128 122 122 124 118 118 120 125 125 127 126 126 128 120 120 122 122 122 124 130 130 132 136 136 138 114 114 116 126 126 128 140 140 142 125 125 127 119 119 121 135 135 137 136 136 138 137 137 139 116 116 118 144 144 146 131 131 133 127 127 129 127 127 129 134 134 136 125 125 127 139 139 141 140 140 142 129 129 131 143 143 145 135 135 137 124 124 126 129 129 131 138 138 140 137 137 139 134 134 136 132 132 134 137 137 139 141 141 143 136 136 138 119 119 121 121 121 123 140 140 142 141 141 143 140 140 142 124 124 126 137 137 139 131 131 133 127 127 129 118 118 120 130 130 132 134 134 136 128 128 130 131 131 133 129 129 131 128 128 130 121 121 123 122 122 124 138 138 140 145 145 147 128 128 130 127 127 129 124 124 126 118 118 120 120 120 122 142 142 144 128 128 130 127 127 129 132 132 134 129 129 131 120 120 122 118 118 120 122 122 124 116 116 118 141 141 143 144 144 146 123 123 125 122 122 124 126 126 128 132 132 134 115 115 117 116 116 118 135 135 137 141 141 143 122 122 124 123 123 125 139 139 141 120 120 122 123 123 125 122 122 124 122 122 124 118 118 120 140 140 142 140 140 142 123 123 125 134 134 136 129 129 131 123 123 125 122 122 124 138 138 140 130 130 132 126 126 128 134 134 136 134 134 136 115 115 117 
122 122 124 137 137 139 118 118 120 119 119 121 128 128 130 128 128 130 114 114 116 135 135 137 128 128 130 130 130 132 128 128 130 146 146 148 126 126 128 127 127 129 128 128 130 146 146 148 135 135 137 128 128 130 120 120 122 138 138 140 118 118 120 116 116 118 138 138 140 144 144 146 141 141 143 142 142 144 137 137 139 124 124 126 141 141 143 119 119 121 116 116 118 121 121 123 137 137 139 138 138 140 139 139 141 124 124 126 142 142 144 122 122 124 140 140 142 133 133 135 115 115 117 140 140 142 126 126 128 126 126 128 132 132 134 142 142 144 119 119 121 126 126 128 124 124 126 132 132 134 115 115 117 119 119 121 142 142 144 142 142 144 140 140 142 134 134 136 121 121 123 126 126 128 117 117 119 136 136 138 119 119 121 118 118 120 138 138 140 124 124 126 118 118 120 138 138 140 132 132 134 128 128 130 119 119 121 123 123 125 115 115 117 143 143 145 145 145 147 139 139 141 127 127 129 135 135 137 139 139 141 130 130 132 133 133 135 128 128 130 114 114 116 143 143 145 118 118 120 119 119 121 126 126 128 114 114 116 126 126 128 138 138 140 138 138 140 135 135 137 117 117 119 124 124 126 134 134 136 143 143 145 121 121 123 141 141 143 123 123 125 134 134 136 119 119 121 119 119 121 115 115 117 141 141 143 126 126 128 137 137 139 130 130 132 137 137 139 139 139 141 118 118 120 113 113 115 123 123 125 116 116 118 132 132 134 136 136 138 134 134 136 132 132 134 125 125 127 116 116 118 125 125 127 128 128 130 136 136 138 131 131 133 126 126 128 135 135 137 120 120 122 138 138 140 121 121 123 142 142 144 144 144 146 133 133 135 115 115 117 121 121 123 119 119 121 123 123 125 114 114 116 124 124 126 144 144 146 139 139 141 124 124 126 127 127 129 139 139 141 133 133 135 134 134 136 138 138 140 124 124 126 124 124 126 130 130 132 144 144 146 130 130 132 123 123 125 129 129 131 127 127 129 129 129 131 122 122 124 137 137 139 121 121 123 127 127 129 143 143 145 126 126 128 144 144 146 124 124 126 121 121 123 119 119 121 116 116 118 136 136 138 114 114 116 122 122 124 134 134 136 139 139 141 114 114 116 120 120 122 142 142 144 117 117 119 124 124 126 126 126 128 128 128 130 115 115 117 144 144 146 122 122 124 131 131 133 124 124 126 132 132 134 134 134 136 116 116 118 133 133 135 133 133 135 144 144 146 137 137 139 133 133 135 137 137 139 126 126 128 131 131 133 129 129 131 141 141 143 112 112 114 117 117 119 137 137 139 130 130 132 128 128 130 123 123 125 124 124 126 119 119 121 127 127 129 135 135 137 126 126 128 123 123 125 141 141 143 120 120 122 117 117 119 115 115 117 125 125 127 141 141 143 139 139 141 122 122 124 140 140 142 135 135 137 121 121 123 122 122 124 137 137 139 122 122 124 128 128 130 131 131 133 142 142 144 144 144 146 138 138 140 128 128 130 144 144 146 114 114 116 112 112 114 124 124 126 134 134 136 126 126 128 118 118 120 127 127 129 123 123 125 132 132 134 123 123 125 115 115 117 120 120 122 136 136 138 121 121 123 120 120 122 118 118 120 139 139 141 116 116 118 132 132 134 131 131 133 130 130 132 124 124 126 129 129 131 124 124 126 125 125 127 132 132 134 116 116 118 118 118 120 123 123 125 130 130 132 
130 130 132 115 115 117 121 121 123 124 124 126 124 124 126 118 118 120 143 143 145 124 124 126 141 141 143 136 136 138 119 119 121 120 120 122 117 117 119 131 131 133 137 137 139 120 120 122 138 138 140 133 133 135 139 139 141 112 112 114 131 131 133 146 146 148 117 117 119 141 141 143 115 115 117 129 129 131 135 135 137 131 131 133 126 126 128 126 126 128 120 120 122 136 136 138 122 122 124 138 138 140 142 142 144 135 135 137 120 120 122 128 128 130 134 134 136 140 140 142 144 144 146 138 138 140 130 130 132 126 126 128 138 138 140 142 142 144 123 123 125 116 116 118 128 128 130 119 119 121 114 114 116 117 117 119 119 119 121 143 143 145 142 142 144 144 144 146 124 124 126 118 118 120 115 115 117 132 132 134 120 120 122 126 126 128 134 134 136 119 119 121 141 141 143 135 135 137 124 124 126 131 131 133 133 133 135 130 130 132 141 141 143 125 125 127 124 124 126 120 120 122 133 133 135 134 134 136 143 143 145 136 136 138 118 118 120 143 143 145 118 118 120 142 142 144 143 143 145 125 125 127 120 120 122 116 116 118 124 124 126 139 139 141 127 127 129 123 123 125 121 121 123 122 122 124 123 123 125 137 137 139 113 113 115 135 135 137 126 126 128 137 137 139 136 136 138 131 131 133 135 135 137 119 119 121 125 125 127 138 138 140 117 117 119 125 125 127 117 117 119 122 122 124 127 127 129 130 130 132 124 124 126 132 132 134 143 143 145 129 129 131 138 138 140 143 143 145 122 122 124 130 130 132 114 114 116 139 139 141 126 126 128 121 121 123 133 133 135 128 128 130 137 137 139 120 120 122 121 121 123 119 119 121 129 129 131 139 139 141 116 116 118 119 119 121 125 125 127 141 141 143 126 126 128 125 125 127 142 142 144 135 135 137 128 128 130 115 115 117 124 124 126 138 138 140 143 143 145 130 130 132 114 114 116 133 133 135 129 129 131 118 118 120 118 118 120 123 123 125 130 130 132 115 115 117 122 122 124 142 142 144 125 125 127 112 112 114 121 121 123 140 140 142 135 135 137 118 118 120 132 132 134 116 116 118 140 140 142 128 128 130 130 130 132 133 133 135 126 126 128 117 117 119 113 113 115 139 139 141 135 135 137 130 130 132 142 142 144 119 119 121 143 143 145 134 134 136 124 124 126 129 129 131 123 123 125 121 121 123 118 118 120 118 118 120 124 124 126 118 118 120 133 133 135 133 133 135 133 133 135 123 123 125 127 127 129 120 120 122 142 142 144 133 133 135 115 115 117 135 135 137 116 116 118 126 126 128 128 128 130 138 138 140 144 144 146 132 132 134 141 141 143 133 133 135 129 129 131 119 119 121 137 137 139 138 138 140 142 142 144 121 121 123 136 136 138 119 119 121 132 132 134 133 133 135 124 124 126 142 142 144 122 122 124 118 118 120 136 136 138 133 133 135 141 141 143 133 133 135 136 136 138 120 120 122 114 114 116 142 142 144 128 128 130 128 128 130 119 119 121 119 119 121 129 129 131 114 114 116 117 117 119 117 117 119 114 114 116 125 125 127 123 123 125 137 137 139 122 122 124 141 141 143 118 118 120 113 113 115 140 140 142 132 132 134 119 119 121 116 116 118 125 125 127 122 122 124 140 140 142 146 146 148 135 135 137 122 122 124 139 139 141 133 133 135 117 117 119 113 113 115 121 121 123 138 138 140 
124 124 126 125 125 127 128 128 130 141 141 143 142 142 144 129 129 131 123 123 125 122 122 124 120 120 122 112 112 114 140 140 142 141 141 143 127 127 129 136 136 138 138 138 140 121 121 123 114 114 116 117 117 119 121 121 123 134 134 136 137 137 139 123 123 125 122 122 124 140 140 142 137 137 139 114 114 116 116 116 118 125 125 127 129 129 131 138 138 140 133 133 135 114 114 116 122 122 124 126 126 128 119 119 121 121 121 123 130 130 132 133 133 135 137 137 139 138 138 140 115 115 117 120 120 122 120 120 122 129 129 131 119 119 121 131 131 133 131 131 133 144 144 146 130 130 132 129 129 131 136 136 138 142 142 144 124 124 126 117 117 119 119 119 121 145 145 147 141 141 143 127 127 129 129 129 131 133 133 135 144 144 146 141 141 143 126 126 128 134 134 136 121 121 123 120 120 122 123 123 125 128 128 130 117 117 119 141 141 143 136 136 138 132 132 134 128 128 130 130 130 132 115 115 117 118 118 120 143 143 145 140 140 142 116 116 118 118 118 120 142 142 144 122 122 124 143 143 145 124 124 126 118 118 120 115 115 117 133 133 135 131 131 133 116 116 118 115 115 117 133 133 135 142 142 144 142 142 144 130 130 132 129 129 131 129 129 131 119 119 121 134 134 136 143 143 145 130 130 132 135 135 137 139 139 141 140 140 142 130 130 132 141 141 143 137 137 139 143 143 145 139 139 141 136 136 138 113 113 115 123 123 125 129 129 131 130 130 132 118 118 120 124 124 126 120 120 122 118 118 120 134 134 136 131 131 133 128 128 130 139 139 141 129 129 131 120 120 122 138 138 140 127 127 129 132 132 134 139 139 141 129 129 131 114 114 116 119 119 121 145 145 147 129 129 131 123 123 125 127 127 129 117 117 119 116 116 118 134 134 136 133 133 135 141 141 143 144 144 146 113 113 115 118 118 120 118 118 120 133 133 135 131 131 133 132 132 134 113 113 115 124 124 126 137 137 139 131 131 133 139 139 141 124 124 126 134 134 136 129 129 131 140 140 142 129 129 131 135 135 137 119 119 121 129 129 131 129 129 131 129 129 131 120 120 122 123 123 125 134 134 136 120 120 122 142 142 144 128 128 130 137 137 139 125 125 127 126 126 128 136 136 138 142 142 144 136 136 138 139 139 141 142 142 144 140 140 142 136 136 138 126 126 128 130 130 132 130 130 132 128 128 130 115 115 117 135 135 137 130 130 132 141 141 143 128 128 130 135 135 137 121 121 123 140 140 142 138 138 140 134 134 136 136 136 138 120 120 122 131 131 133 124 124 126 136 136 138 136 136 138 145 145 147 138 138 140 116 116 118 129 129 131 140 140 142 135 135 137 117 117 119 127 127 129 125 125 127 136 136 138 117 117 119 134 134 136 114 114 116 143 143 145 115 115 117 127 127 129 132 132 134 139 139 141 135 135 137 138 138 140 134 134 136 130 130 132 120 120 122 131 131 133 125 125 127 143 143 145 132 132 134 133 133 135 123 123 125 134 134 136 117 117 119 121 121 123 120 120 122 120 120 122 129 129 131 124 124 126 142 142 144 132 132 134 142 142 144 116 116 118 141 141 143 134 134 136 145 145 147 138 138 140 137 137 139 140 140 142 114 114 116 145 145 147 122 122 124 129 129 131 141 141 143 117 117 119 118 118 120 137 137 139 143 143 145 133 133 135 122 122 124 137 137 139 115 115 117 
136 136 138 141 141 143 119 119 121 136 136 138 116 116 118 145 145 147 142 142 144 133 133 135 129 129 131 132 132 134 131 131 133 129 129 131 115 115 117 116 116 118 132 132 134 133 133 135 138 138 140 132 132 134 129 129 131 131 131 133 118 118 120 115 115 117 134 134 136 142 142 144 130 130 132 133 133 135 124 124 126 130 130 132 136 136 138 116 116 118 128 128 130 129 129 131 118 118 120 138 138 140 136 136 138 125 125 127 136 136 138 144 144 146 131 131 133 124 124 126 130 130 132 127 127 129 146 146 148 127 127 129 144 144 146 135 135 137 129 129 131 133 133 135 137 137 139 114 114 116 121 121 123 133 133 135 128 128 130 118 118 120 138 138 140 140 140 142 123 123 125 137 137 139 138 138 140 117 117 119 115 115 117 115 115 117 119 119 121 143 143 145 139 139 141 130 130 132 124 124 126 140 140 142 143 143 145 127 127 129 122 122 124 142 142 144 123 123 125 133 133 135 140 140 142 112 112 114 129 129 131 141 141 143 118 118 120 123 123 125 128 128 130 135 135 137 128 128 130 125 125 127 118 118 120 141 141 143 117 117 119 142 142 144 139 139 141 115 115 117 112 112 114 137 137 139 121 121 123 142 142 144 137 137 139 144 144 146 127 127 129 140 140 142 143 143 145 143 143 145 115 115 117 129 129 131 142 142 144 123 123 125 114 114 116 134 134 136 114 114 116 141 141 143 133 133 135 141 141 143 139 139 141 118 118 120 121 121 123 130 130 132 137 137 139 141 141 143 113 113 115 116 116 118 119 119 121 132 132 134 136 136 138 126 126 128 126 126 128 120 120 122 123 123 125 144 144 146 118 118 120 143 143 145 122 122 124 128 128 130 132 132 134 142 142 144 143 143 145 145 145 147 120 120 122 125 125 127 119 119 121 115 115 117 122 122 124 139 139 141 142 142 144 118 118 120 114 114 116 118 118 120 134 134 136 139 139 141 127 127 129 119 119 121 120 120 122 115 115 117 141 141 143 117 117 119 123 123 125 120 120 122 122 122 124 130 130 132 115 115 117 133 133 135 115 115 117 131 131 133 130 130 132 134 134 136 113 113 115 120 120 122 136 136 138 118 118 120 140 140 142 138 138 140 117 117 119 118 118 120 117 117 119 135 135 137 128 128 130 141 141 143 144 144 146 125 125 127 112 112 114 142 142 144 135 135 137 132 132 134 138 138 140 128 128 130 126 126 128 119 119 121 136 136 138 120 120 122 141 141 143 117 117 119 142 142 144 133 133 135 131 131 133 129 129 131 117 117 119 124 124 126 116 116 118 135 135 137 117 117 119 143 143 145 131 131 133 136 136 138 121 121 123 132 132 134 126 126 128 141 141 143 136 136 138 124 124 126 127 127 129 127 127 129 122 122 124 118 118 120 141 141 143 141 141 143 136 136 138 142 142 144 123 123 125 113 113 115 138 138 140 118 118 120 137 137 139 142 142 144 145 145 147 114 114 116 120 120 122 117 117 119 135 135 137 132 132 134 121 121 123 126 126 128 144 144 146 115 115 117 143 143 145 128 128 130 140 140 142 122 122 124 130 130 132 131 131 133 121 121 123 140 140 142 138 138 140 118 118 120 115 115 117 138 138 140 141 141 143 132 132 134 124 124 126 145 145 147 132 132 134 124 124 126 142 142 144 145 145 147 137 137 139 137 137 139 128 128 130 115 115 117 145 145 147 135 135 137 
124 124 126 135 135 137 140 140 142 138 138 140 123 123 125 137 137 139 130 130 132 128 128 130 133 133 135 127 127 129 125 125 127 138 138 140 138 138 140 138 138 140 120 120 122 117 117 119 144 144 146 125 125 127 134 134 136 139 139 141 130 130 132 118 118 120 139 139 141 116 116 118 132 132 134 128 128 130 132 132 134 136 136 138 119 119 121 117 117 119 131 131 133 117 117 119 134 134 136 133 133 135 119 119 121 116 116 118 121 121 123 145 145 147 118 118 120 125 125 127 126 126 128 126 126 128 128 128 130 137 137 139 120 120 122 130 130 132 141 141 143 117 117 119 119 119 121 116 116 118 125 125 127 117 117 119 134 134 136 128 128 130 116 116 118 142 142 144 136 136 138 116 116 118 139 139 141 130 130 132 117 117 119 123 123 125 121 121 123 126 126 128 122 122 124 139 139 141 135 135 137 130 130 132 143 143 145 139 139 141 127 127 129 141 141 143 123 123 125 139 139 141 130 130 132 140 140 142 140 140 142 130 130 132 140 140 142 119 119 121 127 127 129 143 143 145 119 119 121 130 130 132 130 130 132 126 126 128 146 146 148 122 122 124 122 122 124 143 143 145 145 145 147 136 136 138 127 127 129 118 118 120 130 130 132 145 145 147 132 132 134 130 130 132 118 118 120 131 131 133 133 133 135 116 116 118 120 120 122 142 142 144 117 117 119 131 131 133 139 139 141 142 142 144 131 131 133 140 140 142 131 131 133 142 142 144 130 130 132 136 136 138 134 134 136 121 121 123 133 133 135 115 115 117 119 119 121 143 143 145 131 131 133 137 137 139 121 121 123 133 133 135 115 115 117 128 128 130 124 124 126 116 116 118 128 128 130 135 135 137 121 121 123 115 115 117 124 124 126 114 114 116 122 122 124 126 126 128 132 132 134 141 141 143 127 127 129 125 125 127 117 117 119 128 128 130 121 121 123 143 143 145 142 142 144 121 121 123 137 137 139 116 116 118 125 125 127 119 119 121 145 145 147 126 126 128 115 115 117 134 134 136 133 133 135 140 140 142 139 139 141 141 141 143 129 129 131 135 135 137 117 117 119 130 130 132 127 127 129 142 142 144 127 127 129 131 131 133 136 136 138 115 115 117 142 142 144 119 119 121 140 140 142 136 136 138 114 114 116 122 122 124 136 136 138 118 118 120 135 135 137 125 125 127 124 124 126 115 115 117 120 120 122 145 145 147 141 141 143 120 120 122 121 121 123 123 123 125 124 124 126 124 124 126 128 128 130 137 137 139 140 140 142 140 140 142 127 127 129 131 131 133 143 143 145 129 129 131 131 131 133 132 132 134 143 143 145 145 145 147 126 126 128 128 128 130 140 140 142 130 130 132 127 127 129 117 117 119 129 129 131 128 128 130 115 115 117 125 125 127 143 143 145 138 138 140 143 143 145 116 116 118 139 139 141 136 136 138 140 140 142 145 145 147 132 132 134 116 116 118 142 142 144 126 126 128 131 131 133 120 120 122 142 142 144 115 115 117 125 125 127 140 140 142 135 135 137 114 114 116 121 121 123 114 114 116 142 142 144 119 119 121 128 128 130 140 140 142 125 125 127 119 119 121 145 145 147 133 133 135 130 130 132 132 132 134 131 131 133 144 144 146 117 117 119 137 137 139 123 123 125 123 123 125 145 145 147 118 118 120 134 134 136 128 128 130 133 133 135 124 124 126 114 114 116 124 124 126 
119 119 121 139 139 141 120 120 122 139 139 141 122 122 124 116 116 118 113 113 115 128 128 130 116 116 118 113 113 115 143 143 145 135 135 137 134 134 136 113 113 115 136 136 138 143 143 145 135 135 137 126 126 128 121 121 123 132 132 134 129 129 131 133 133 135 141 141 143 123 123 125 117 117 119 145 145 147 136 136 138 137 137 139 119 119 121 136 136 138 128 128 130 132 132 134 114 114 116 138 138 140 124 124 126 135 135 137 144 144 146 144 144 146 113 113 115 122 122 124 127 127 129 128 128 130 128 128 130 122 122 124 145 145 147 135 135 137 138 138 140 144 144 146 125 125 127 116 116 118 121 121 123 142 142 144 121 121 123 142 142 144 140 140 142 121 121 123 132 132 134 118 118 120 139 139 141 121 121 123 139 139 141 131 131 133 115 115 117 135 135 137 120 120 122 143 143 145 121 121 123 135 135 137 128 128 130 116 116 118 136 136 138 138 138 140 122 122 124 131 131 133 120 120 122 143 143 145 137 137 139 134 134 136 134 134 136 138 138 140 128 128 130 127 127 129 121 121 123 135 135 137 129 129 131 115 115 117 133 133 135 112 112 114 133 133 135 117 117 119 116 116 118 134 134 136 138 138 140 117 117 119 144 144 146 142 142 144 135 135 137 137 137 139 123 123 125 131 131 133 145 145 147 139 139 141 135 135 137 132 132 134 131 131 133 126 126 128 131 131 133 122 122 124 146 146 148 135 135 137 121 121 123 114 114 116 121 121 123 136 136 138 115 115 117 142 142 144 136 136 138 126 126 128 138 138 140 123 123 125 141 141 143 137 137 139 120 120 122 117 117 119 135 135 137 124 124 126 138 138 140 130 130 132 145 145 147 129 129 131 131 131 133 123 123 125 134 134 136 131 131 133 124 124 126 128 128 130 143 143 145 126 126 128 120 120 122 129 129 131 116 116 118 124 124 126 131 131 133 123 123 125 141 141 143 122 122 124 131 131 133 124 124 126 127 127 129 121 121 123 122 122 124 119 119 121 141 141 143 144 144 146 138 138 140 142 142 144 121 121 123 141 141 143 138 138 140 116 116 118 138 138 140 131 131 133 134 134 136 130 130 132 130 130 132 122 122 124 121 121 123 138 138 140 124 124 126 118 118 120 119 119 121 139 139 141 132 132 134 123 123 125 126 126 128 117 117 119 133 133 135 139 139 141 137 137 139 126 126 128 117 117 119 116 116 118 128 128 130 140 140 142 112 112 114 142 142 144 138 138 140 133 133 135 124 124 126 121 121 123 125 125 127 139 139 141 139 139 141 131 131 133 119 119 121 115 115 117 116 116 118 120 120 122 118 118 120 116 116 118 138 138 140 141 141 143 134 134 136 141 141 143 131 131 133 136 136 138 125 125 127 137 137 139 137 137 139 125 125 127 126 126 128 135 135 137 116 116 118 136 136 138 116 116 118 136 136 138 127 127 129 134 134 136 117 117 119 118 118 120 118 118 120 121 121 123 124 124 126 132 132 134 135 135 137 124 124 126 114 114 116 118 118 120 131 131 133 125 125 127 120 120 122 141 141 143 123 123 125 118 118 120 119 119 121 129 129 131 113 113 115 117 117 119 124 124 126 112 112 114 119 119 121 117 117 119 140 140 142 115 115 117 116 116 118 122 122 124 134 134 136 140 140 142 116 116 118 121 121 123 138 138 140 124 124 126 121 121 123 136 136 138 130 130 132 135 135 137 
137 137 139 126 126 128 135 135 137 143 143 145 139 139 141 140 140 142 140 140 142 145 145 147 144 144 146 124 124 126 112 112 114 128 128 130 122 122 124 127 127 129 130 130 132 141 141 143 123 123 125 118 118 120 136 136 138 130 130 132 136 136 138 116 116 118 115 115 117 140 140 142 135 135 137 135 135 137 139 139 141 123 123 125 136 136 138 132 132 134 132 132 134 137 137 139 123 123 125 124 124 126 126 126 128 130 130 132 140 140 142 142 142 144 143 143 145 143 143 145 115 115 117 130 130 132 124 124 126 124 124 126 118 118 120 128 128 130 139 139 141 128 128 130 139 139 141 135 135 137 120 120 122 135 135 137 134 134 136 135 135 137 140 140 142 138 138 140 128 128 130 146 146 148 129 129 131 143 143 145 140 140 142 142 142 144 120 120 122 134 134 136 139 139 141 134 134 136 128 128 130 134 134 136 138 138 140 120 120 122 133 133 135 113 113 115 117 117 119 125 125 127 138 138 140 143 143 145 136 136 138 138 138 140 115 115 117 124 124 126 122 122 124 125 125 127 136 136 138 118 118 120 127 127 129 130 130 132 117 117 119 125 125 127 122 122 124 119 119 121 116 116 118 118 118 120 114 114 116 116 116 118 140 140 142 129 129 131 127 127 129 128 128 130 121 121 123 141 141 143 133 133 135 112 112 114 126 126 128 130 130 132 138 138 140 133 133 135 120 120 122 118 118 120 137 137 139 122 122 124 124 124 126 138 138 140 135 135 137 115 115 117 120 120 122 128 128 130 139 139 141 122 122 124 115 115 117 115 115 117 117 117 119 138 138 140 144 144 146 121 121 123 130 130 132 134 134 136 127 127 129 121 121 123 137 137 139 132 132 134 117 117 119 129 129 131 129 129 131 127 127 129 141 141 143 120 120 122 126 126 128 127 127 129 137 137 139 119 119 121 122 122 124 135 135 137 120 120 122 121 121 123 123 123 125 125 125 127 128 128 130 125 125 127 144 144 146 128 128 130 113 113 115 140 140 142 130 130 132 115 115 117 132 132 134 119 119 121 114 114 116 119 119 121 139 139 141 118 118 120 115 115 117 136 136 138 120 120 122 124 124 126 128 128 130 113 113 115 118 118 120 137 137 139 136 136 138 141 141 143 123 123 125 144 144 146 136 136 138 113 113 115 141 141 143 134 134 136 140 140 142 126 126 128 120 120 122 116 116 118 123 123 125 124 124 126 124 124 126 114 114 116 137 137 139 130 130 132 125 125 127 140 140 142 117 117 119 131 131 133 142 142 144 128 128 130 120 120 122 129 129 131 118 118 120 142 142 144 113 113 115 139 139 141 136 136 138 118 118 120 121 121 123 133 133 135 132 132 134 142 142 144 125 125 127 138 138 140 136 136 138 146 146 148 137 137 139 138 138 140 119 119 121 116 116 118 121 121 123 121 121 123 138 138 140 125 125 127 133 133 135 128 128 130 144 144 146 119 119 121 117 117 119 123 123 125 141 141 143 139 139 141 130 130 132 134 134 136 143 143 145 115 115 117 123 123 125 126 126 128 132 132 134 121 121 123 137 137 139 134 134 136 121 121 123 144 144 146 115 115 117 146 146 148 118 118 120 133 133 135 135 135 137 137 137 139 125 125 127 121 121 123 130 130 132 124 124 126 134 134 136 133 133 135 120 120 122 115 115 117 141 141 143 120 120 122 119 119 121 141 141 143 141 141 143 129 129 131 
129 129 131 139 139 141 140 140 142 115 115 117 117 117 119 142 142 144 141 141 143 123 123 125 129 129 131 138 138 140 125 125 127 131 131 133 126 126 128 133 133 135 133 133 135 126 126 128 144 144 146 113 113 115 137 137 139 116 116 118 135 135 137 113 113 115 139 139 141 127 127 129 116 116 118 146 146 148 119 119 121 126 126 128 121 121 123 139 139 141 133 133 135 129 129 131 127 127 129 124 124 126 135 135 137 120 120 122 144 144 146 119 119 121 136 136 138 124 124 126 135 135 137 117 117 119 122 122 124 136 136 138 138 138 140 136 136 138 128 128 130 116 116 118 116 116 118 126 126 128 121 121 123 121 121 123 132 132 134 143 143 145 118 118 120 125 125 127 140 140 142 129 129 131 133 133 135 119 119 121 142 142 144 128 128 130 117 117 119 137 137 139 121 121 123 118 118 120 115 115 117 125 125 127 125 125 127 136 136 138 128 128 130 139 139 141 117 117 119 125 125 127 144 144 146 117 117 119 140 140 142 131 131 133 124 124 126 137 137 139 123 123 125 143 143 145 115 115 117 123 123 125 127 127 129 118 118 120 142 142 144 120 120 122 133 133 135 117 117 119 145 145 147 115 115 117 146 146 148 121 121 123 137 137 139 114 114 116 136 136 138 131 131 133 114 114 116 137 137 139 127 127 129 118 118 120 141 141 143 144 144 146 124 124 126 122 122 124 133 133 135 116 116 118 143 143 145 125 125 127 141 141 143 136 136 138 121 121 123 123 123 125 136 136 138 140 140 142 141 141 143 125 125 127 115 115 117 136 136 138 123 123 125 127 127 129 121 121 123 118 118 120 129 129 131 140 140 142 145 145 147 125 125 127 135 135 137 140 140 142 112 112 114 120 120 122 128 128 130 133 133 135 116 116 118 129 129 131 138 138 140 132 132 134 123 123 125 119 119 121 130 130 132 134 134 136 133 133 135 144 144 146 132 132 134 118 118 120 125 125 127 135 135 137 116 116 118 116 116 118 127 127 129 122 122 124 120 120 122 141 141 143 115 115 117 128 128 130 132 132 134 119 119 121 119 119 121 145 145 147 113 113 115 117 117 119 115 115 117 117 117 119 115 115 117 126 126 128 118 118 120 146 146 148 125 125 127 115 115 117 140 140 142 128 128 130 118 118 120 134 134 136 142 142 144 127 127 129 135 135 137 140 140 142 129 129 131 130 130 132 142 142 144 116 116 118 144 144 146 122 122 124 139 139 141 118 118 120 115 115 117 129 129 131 128 128 130 145 145 147 120 120 122 134 134 136 134 134 136 145 145 147 141 141 143 123 123 125 134 134 136 117 117 119 118 118 120 124 124 126 116 116 118 116 116 118 132 132 134 118 118 120 142 142 144 115 115 117 123 123 125 145 145 147 136 136 138 137 137 139 142 142 144 125 125 127 123 123 125 118 118 120 118 118 120 140 140 142 123 123 125 139 139 141 130 130 132 129 129 131 124 124 126 145 145 147 142 142 144 133 133 135 119 119 121 132 132 134 140 140 142 127 127 129 116 116 118 134 134 136 142 142 144 112 112 114 115 115 117 128 128 130 114 114 116 139 139 141 138 138 140 138 138 140 123 123 125 134 134 136 144 144 146 134 134 136 135 135 137 123 123 125 130 130 132 140 140 142 138 138 140 129 129 131 142 142 144 143 143 145 136 136 138 137 137 139 131 131 133 121 121 123 139 139 141 138 138 140 
132 132 134 120 120 122 119 119 121 131 131 133 132 132 134 131 131 133 121 121 123 136 136 138 142 142 144 125 125 127 133 133 135 117 117 119 125 125 127 129 129 131 121 121 123 140 140 142 138 138 140 117 117 119 118 118 120 129 129 131 130 130 132 141 141 143 127 127 129 127 127 129 119 119 121 134 134 136 128 128 130 138 138 140 125 125 127 137 137 139 126 126 128 117 117 119 139 139 141 134 134 136 112 112 114 117 117 119 133 133 135 131 131 133 139 139 141 132 132 134 133 133 135 131 131 133 122 122 124 124 124 126 118 118 120 143 143 145 128 128 130 135 135 137 119 119 121 142 142 144 134 134 136 114 114 116 142 142 144 124 124 126 129 129 131 121 121 123 139 139 141 119 119 121 129 129 131 134 134 136 123 123 125 122 122 124 117 117 119 116 116 118 115 115 117 132 132 134 126 126 128 117 117 119 122 122 124 137 137 139 131 131 133 140 140 142 119 119 121 120 120 122 124 124 126 143 143 145 131 131 133 123 123 125 120 120 122 136 136 138 133 133 135 134 134 136 122 122 124 131 131 133 117 117 119 133 133 135 129 129 131 116 116 118 114 114 116 132 132 134 119 119 121 121 121 123 126 126 128 141 141 143 143 143 145 132 132 134 120 120 122 132 132 134 136 136 138 127 127 129 139 139 141 138 138 140 133 133 135 136 136 138 138 138 140 138 138 140 128 128 130 130 130 132 114 114 116 122 122 124 120 120 122 126 126 128 127 127 129 123 123 125 141 141 143 121 121 123 137 137 139 134 134 136 139 139 141 142 142 144 127 127 129 137 137 139 128 128 130 116 116 118 115 115 117 142 142 144 116 116 118 119 119 121 119 119 121 126 126 128 126 126 128 120 120 122 141 141 143 134 134 136 125 125 127 126 126 128 140 140 142 135 135 137 140 140 142 127 127 129 121 121 123 141 141 143 131 131 133 135 135 137 129 129 131 142 142 144 134 134 136 116 116 118 117 117 119 132 132 134 136 136 138 116 116 118 127 127 129 126 126 128 119 119 121 139 139 141 121 121 123 119 119 121 123 123 125 113 113 115 118 118 120 138 138 140 121 121 123 143 143 145 118 118 120 116 116 118 138 138 140 130 130 132 132 132 134 120 120 122 138 138 140 113 113 115 125 125 127 122 122 124 139 139 141 121 121 123 116 116 118 116 116 118 115 115 117 144 144 146 123 123 125 134 134 136 142 142 144 144 144 146 126 126 128 143 143 145 138 138 140 135 135 137 141 141 143 145 145 147 124 124 126 132 132 134 123 123 125 138 138 140 132 132 134 129 129 131 136 136 138 140 140 142 119 119 121 138 138 140 139 139 141 116 116 118 137 137 139 115 115 117 131 131 133 135 135 137 126 126 128 128 128 130 123 123 125 125 125 127 116 116 118 133 133 135 120 120 122 117 117 119 116 116 118 129 129 131 142 142 144 144 144 146 123 123 125 116 116 118 142 142 144 114 114 116 142 142 144 136 136 138 113 113 115 125 125 127 131 131 133 139 139 141 137 137 139 133 133 135 139 139 141 120 120 122 120 120 122 134 134 136 125 125 127 129 129 131 116 116 118 137 137 139 145 145 147 116 116 118 122 122 124 116 116 118 143 143 145 135 135 137 124 124 126 116 116 118 137 137 139 140 140 142 145 145 147 141 141 143 127 127 129 119 119 121 125 125 127 127 127 129 144 144 146 116 116 118 
90 90 90 90 90 90 90 90 90 90 90 90 90 90 90 90 90 90 90 90 90 90 90 90 90 90 90 90 90 90 90 90 90 90 90 90 90 90 90 90 90 90 90 90 90 90 90 90 90 90 90 90 90 90 90 90 90 90 90 90 90 90 90 90 90 90 90 90 90 90 90 90 90 90 90 90 90 90 90 90 90 90 90 90 90 90 90 90 90 90 90 90 90 90 90 90 90 90 90 90 90 90 90 90 90 90 90 90 90 90 90 90 90 90 90 90 90 90 90 90 90 90 90 90 90 90 90 90 90 90 90 90 90 90 90 90 90 90 90 90 90 90 90 90 90 90 90 90 90 90 90 90 90 90 90 90 90 90 90 90 90 90 90 90 90 90 90 90 90 90 90 90 90 90 90 90 90 90 90 90 90 90 90 90 90 90 90 90 90 90 90 90 90 90 90 90 90 90 90 90 90 90 90 90 90 90 90 90 90 90 90 90 90 90 90 90 90 90 90 90 90 90 90 90 90 90 90 90 90 90 90 90 90 90 90 90 90 90 90 90 90 90 90 90 90 90 90 90 90 90 90 90 90 90 90 90 90 90 90 90 90 90 90 90 90 90 90 90 90 90 90 90 90 90 90 90 90 90 90 90 90 90 90 90 90 90 90 90 90 90 90 90 90 90 90 90 90 90 90 90 90 90 90 90 90 90 90 90 90 90 90 90 90 90 90 90 90 90 90 90 90 90 90 90 90 90 90 90 90 90 90 90 90 90 90 90 90 90 90 90 90 90 90 90 90 90 90 90 90 90 90 90 90 90 90 90 90 90 90 90 90 90 90 90 90 90 90 90 90 90 90 90 90 90 90 90 90 90 90 90 90 90 90 90 90 90 90 90 90 90 90 90 90 90 90 90 90 90 90 90 90 90 90 90 90 90 90 90 90 90 90 90 90 90 90 90 90 90 90 90 90 90 90 90 90 90 90 90 90 90 90 90 90 90 90 90 90 90 90 90 90 90 90 90 90 90 90 90 90 90 90 90 90 90 90 90 90 90 90 90 90 90 90 90 90 90 90 90 90 90 90 90 90 90 90 90 90 90 90 90 90 90 90 90 90 90 90 90 90 90 90 90 90 90 90 90 90 90 90 90 90 90 90 90 90 90 90 90 90 90 90 90 90 90 90 90 90 90 90 90 90 90 90 90 90 90 90 90 90 90 90 90 90 90 90 90 90 90 90 90 90 90 90 90 90 90 90 90 90 90 90 90 90 90 90 90 90 90 90 90 90 90 90 90 90 90 90 90 90 90 90 90 90 90 90 90 90 90 90 90 90 90 90 90 90 90 90 90 90 90 90 90 90 90 90 90 90 90 90 90 90 90 90 90 90 90 90 90 90 90 90 90 90 90 90 90 90 90 90 90 90 90 90 90 90 90 90 90 90 90 90 90 90 90 90 90 90 90 90 90 90 90 90 90 90 90 90 90 90 90 90 90 90 90 90 90 90 90 90 90 90 90 90 90 90 90 90 90 90 90 90 90 90 90 90 90 90 90 90 90 90 90 90 90 90 90 90 90 90 90 90 90 90 90 90 90 90 90 90 90 90 90 90 90 90 90 90 90 90 90 90 90 90 90 90 90 90 90 90 90 90 90 90 90 90 90 90 90 90 90 90 90 90 90 90 90 90 90 90 90 90 90 90 90 90 90 90 90 90 90 90 90 90 90 90 90 90 90 90 90 90 90 90 90 90 90 90 90 
143 143 145 113 113 115 124 124 126 134 134 136 119 119 121 129 129 131 141 141 143 146 146 148 123 123 125 145 145 147 120 120 122 128 128 130 133 133 135 143 143 145 136 136 138 136 136 138 140 140 142 139 139 141 141 141 143 136 136 138 122 122 124 133 133 135 138 138 140 140 140 142 116 116 118 136 136 138 139 139 141 135 135 137 123 123 125 113 113 115 134 134 136 140 140 142 142 142 144 129 129 131 142 142 144 122 122 124 135 135 137 114 114 116 146 146 148 116 116 118 128 128 130 141 141 143 138 138 140 123 123 125 119 119 121 132 132 134 111 111 113 116 116 118 138 138 140 123 123 125 132 132 134 118 118 120 140 140 142 126 126 128 143 143 145 128 128 130 135 135 137 128 128 130 143 143 145 129 129 131 127 127 129 125 125 127 116 116 118 126 126 128 124 124 126 129 129 131 119 119 121 112 112 114 118 118 120 137 137 139 126 126 128 114 114 116 120 120 122 139 139 141 118 118 120 113 113 115 116 116 118 132 132 134 127 127 129 138 138 140 143 143 145 129 129 131 131 131 133 116 116 118 124 124 126 139 139 141 138 138 140 130 130 132 129 129 131 117 117 119 125 125 127 127 127 129 122 122 124 124 124 126 139 139 141 138 138 140 127 127 129 126 126 128 120 120 122 135 135 137 139 139 141 126 126 128 133 133 135 127 127 129 116 116 118 118 118 120 135 135 137 123 123 125 133 133 135 125 125 127 129 129 131 126 126 128 132 132 134 128 128 130 117 117 119 117 117 119 142 142 144 137 137 139 113 113 115 138 138 140 134 134 136 143 143 145 119 119 121 129 129 131 134 134 136 139 139 141 126 126 128 114 114 116 140 140 142 140 140 142 139 139 141 123 123 125 113 113 115 137 137 139 118 118 120 126 126 128 124 124 126 123 123 125 135 135 137 139 139 141 115 115 117 143 143 145 140 140 142 133 133 135 136 136 138 145 145 147 134 134 136 122 122 124 136 136 138 146 146 148 120 120 122 134 134 136 125 125 127 134 134 136 125 125 127 117 117 119 121 121 123 135 135 137 130 130 132 136 136 138 142 142 144 138 138 140 137 137 139 125 125 127 140 140 142 126 126 128 137 137 139 122 122 124 128 128 130 123 123 125 135 135 137 118 118 120 145 145 147 118 118 120 117 117 119 125 125 127 123 123 125 112 112 114 125 125 127 122 122 124 140 140 142 113 113 115 140 140 142 136 136 138 139 139 141 129 129 131 123 123 125 113 113 115 120 120 122 141 141 143 141 141 143 131 131 133 132 132 134 118 118 120 131 131 133 140 140 142 140 140 142 128 128 130 142 142 144 119 119 121 142 142 144 136 136 138 122 122 124 126 126 128 126 126 128 139 139 141 116 116 118 125 125 127 129 129 131 125 125 127 131 131 133 130 130 132 124 124 126 145 145 147 115 115 117 120 120 122 123 123 125 146 146 148 117 117 119 133 133 135 113 113 115 113 113 115 133 133 135 124 124 126 140 140 142 138 138 140 128 128 130 133 133 135 145 145 147 138 138 140 125 125 127 144 144 146 126 126 128 115 115 117 146 146 148 125 125 127 127 127 129 136 136 138 126 126 128 141 141 143 117 117 119 135 135 137 123 123 125 143 143 145 142 142 144 140 140 142 120 120 122 118 118 120 123 123 125 112 112 114 144 144 146 125 125 127 124 124 126 117 117 119 139 139 141 142 142 144 
122 122 124 126 126 128 122 122 124 129 129 131 125 125 127 122 122 124 121 121 123 132 132 134 116 116 118 145 145 147 117 117 119 139 139 141 140 140 142 142 142 144 131 131 133 127 127 129 118 118 120 130 130 132 144 144 146 127 127 129 121 121 123 143 143 145 114 114 116 144 144 146 135 135 137 124 124 126 117 117 119 122 122 124 142 142 144 135 135 137 126 126 128 140 140 142 118 118 120 129 129 131 121 121 123 113 113 115 127 127 129 118 118 120 122 122 124 114 114 116 124 124 126 144 144 146 139 139 141 115 115 117 116 116 118 130 130 132 123 123 125 139 139 141 144 144 146 137 137 139 122 122 124 117 117 119 135 135 137 124 124 126 125 125 127 140 140 142 121 121 123 139 139 141 122 122 124 115 115 117 143 143 145 139 139 141 139 139 141 116 116 118 139 139 141 128 128 130 137 137 139 145 145 147 120 120 122 122 122 124 129 129 131 125 125 127 128 128 130 137 137 139 138 138 140 117 117 119 129 129 131 142 142 144 143 143 145 123 123 125 122 122 124 128 128 130 129 129 131 122 122 124 122 122 124 127 127 129 126 126 128 143 143 145 136 136 138 122 122 124 123 123 125 140 140 142 117 117 119 124 124 126 121 121 123 133 133 135 129 129 131 141 141 143 116 116 118 120 120 122 138 138 140 119 119 121 140 140 142 120 120 122 112 112 114 119 119 121 113 113 115 143 143 145 127 127 129 139 139 141 145 145 147 120 120 122 136 136 138 134 134 136 136 136 138 134 134 136 130 130 132 132 132 134 125 125 127 138 138 140 134 134 136 129 129 131 118 118 120 119 119 121 118 118 120 116 116 118 115 115 117 119 119 121 141 141 143 121 121 123 115 115 117 124 124 126 131 131 133 136 136 138 138 138 140 129 129 131 144 144 146 117 117 119 123 123 125 145 145 147 128 128 130 115 115 117 121 121 123 141 141 143 141 141 143 130 130 132 117 117 119 126 126 128 133 133 135 145 145 147 139 139 141 131 131 133 116 116 118 126 126 128 130 130 132 113 113 115 119 119 121 116 116 118 116 116 118 140 140 142 117 117 119 140 140 142 135 135 137 112 112 114 144 144 146 142 142 144 120 120 122 115 115 117 113 113 115 119 119 121 136 136 138 118 118 120 126 126 128 121 121 123 126 126 128 118 118 120 133 133 135 119 119 121 124 124 126 123 123 125 136 136 138 144 144 146 124 124 126 125 125 127 137 137 139 132 132 134 120 120 122 145 145 147 119 119 121 120 120 122 118 118 120 129 129 131 131 131 133 118 118 120 128 128 130 123 123 125 121 121 123 131 131 133 112 112 114 131 131 133 146 146 148 134 134 136 139 139 141 140 140 142 125 125 127 114 114 116 123 123 125 142 142 144 115 115 117 137 137 139 128 128 130 113 113 115 143 143 145 141 141 143 121 121 123 130 130 132 118 118 120 131 131 133 138 138 140 140 140 142 143 143 145 117 117 119 138 138 140 117 117 119 132 132 134 132 132 134 133 133 135 130 130 132 140 140 142 141 141 143 121 121 123 143 143 145 123 123 125 121 121 123 120 120 122 122 122 124 131 131 133 134 134 136 126 126 128 121 121 123 128 128 130 141 141 143 122 122 124 131 131 133 116 116 118 140 140 142 118 118 120 117 117 119 115 115 117 131 131 133 146 146 148 144 144 146 127 127 129 120 120 122 133 133 135 122 122 124 
115 115 117 117 117 119 143 143 145 141 141 143 120 120 122 125 125 127 123 123 125 120 120 122 123 123 125 130 130 132 124 124 126 139 139 141 118 118 120 118 118 120 133 133 135 123 123 125 114 114 116 131 131 133 120 120 122 122 122 124 128 128 130 141 141 143 135 135 137 119 119 121 130 130 132 119 119 121 119 119 121 138 138 140 139 139 141 117 117 119 136 136 138 139 139 141 127 127 129 121 121 123 124 124 126 114 114 116 144 144 146 141 141 143 139 139 141 129 129 131 123 123 125 118 118 120 115 115 117 131 131 133 130 130 132 118 118 120 121 121 123 123 123 125 115 115 117 125 125 127 125 125 127 134 134 136 123 123 125 143 143 145 119 119 121 134 134 136 115 115 117 140 140 142 118 118 120 122 122 124 129 129 131 114 114 116 140 140 142 121 121 123 135 135 137 134 134 136 124 124 126 126 126 128 133 133 135 127 127 129 134 134 136 135 135 137 139 139 141 130 130 132 134 134 136 125 125 127 117 117 119 128 128 130 134 134 136 138 138 140 129 129 131 125 125 127 137 137 139 143 143 145 120 120 122 121 121 123 132 132 134 118 118 120 137 137 139 124 124 126 121 121 123 121 121 123 144 144 146 137 137 139 144 144 146 139 139 141 133 133 135 134 134 136 125 125 127 117 117 119 136 136 138 136 136 138 136 136 138 131 131 133 124 124 126 116 116 118 123 123 125 139 139 141 118 118 120 112 112 114 134 134 136 142 142 144 134 134 136 119 119 121 124 124 126 128 128 130 116 116 118 135 135 137 117 117 119 123 123 125 127 127 129 141 141 143 126 126 128 123 123 125 140 140 142 139 139 141 119 119 121 137 137 139 143 143 145 113 113 115 120 120 122 134 134 136 120 120 122 135 135 137 141 141 143 130 130 132 127 127 129 136 136 138 123 123 125 129 129 131 131 131 133 120 120 122 124 124 126 121 121 123 125 125 127 144 144 146 117 117 119 129 129 131 134 134 136 123 123 125 140 140 142 138 138 140 139 139 141 127 127 129 144 144 146 121 121 123 136 136 138 129 129 131 128 128 130 141 141 143 127 127 129 135 135 137 121 121 123 139 139 141 130 130 132 116 116 118 133 133 135 142 142 144 130 130 132 141 141 143 126 126 128 122 122 124 137 137 139 117 117 119 140 140 142 119 119 121 139 139 141 119 119 121 134 134 136 136 136 138 125 125 127 115 115 117 143 143 145 124 124 126 139 139 141 141 141 143 120 120 122 116 116 118 131 131 133 140 140 142 126 126 128 137 137 139 136 136 138 134 134 136 136 136 138 142 142 144 134 134 136 128 128 130 131 131 133 123 123 125 126 126 128 137 137 139 114 114 116 116 116 118 118 118 120 114 114 116 117 117 119 116 116 118 140 140 142 139 139 141 132 132 134 123 123 125 141 141 143 129 129 131 141 141 143 130 130 132 130 130 132 115 115 117 141 141 143 127 127 129 124 124 126 119 119 121 115 115 117 123 123 125 144 144 146 116 116 118 125 125 127 133 133 135 139 139 141 126 126 128 140 140 142 121 121 123 137 137 139 141 141 143 132 132 134 131 131 133 137 137 139 123 123 125 118 118 120 142 142 144 135 135 137 143 143 145 135 135 137 134 134 136 134 134 136 139 139 141 121 121 123 135 135 137 144 144 146 125 125 127 122 122 124 121 121 123 115 115 117 120 120 122 131 131 133 119 119 121 
114 114 116 143 143 145 140 140 142 130 130 132 122 122 124 137 137 139 144 144 146 128 128 130 122 122 124 132 132 134 125 125 127 135 135 137 124 124 126 133 133 135 118 118 120 127 127 129 136 136 138 144 144 146 135 135 137 140 140 142 135 135 137 127 127 129 133 133 135 143 143 145 142 142 144 116 116 118 116 116 118 135 135 137 118 118 120 136 136 138 128 128 130 135 135 137 119 119 121 137 137 139 138 138 140 141 141 143 135 135 137 139 139 141 139 139 141 142 142 144 132 132 134 133 133 135 141 141 143 143 143 145 127 127 129 141 141 143 138 138 140 135 135 137 140 140 142 138 138 140 129 129 131 135 135 137 130 130 132 116 116 118 124 124 126 140 140 142 126 126 128 140 140 142 115 115 117 134 134 136 142 142 144 138 138 140 133 133 135 138 138 140 143 143 145 119 119 121 127 127 129 133 133 135 135 135 137 131 131 133 123 123 125 134 134 136 132 132 134 123 123 125 119 119 121 137 137 139 112 112 114 113 113 115 120 120 122 114 114 116 117 117 119 120 120 122 122 122 124 116 116 118 132 132 134 141 141 143 131 131 133 126 126 128 140 140 142 123 123 125 127 127 129 127 127 129 130 130 132 126 126 128 141 141 143 142 142 144 134 134 136 133 133 135 134 134 136 132 132 134 139 139 141 142 142 144 145 145 147 121 121 123 120 120 122 129 129 131 119 119 121 116 116 118 133 133 135 137 137 139 124 124 126 139 139 141 137 137 139 140 140 142 136 136 138 141 141 143 122 122 124 117 117 119 117 117 119 138 138 140 119 119 121 122 122 124 120 120 122 117 117 119 123 123 125 121 121 123 122 122 124 133 133 135 140 140 142 115 115 117 127 127 129 140 140 142 142 142 144 125 125 127 138 138 140 127 127 129 138 138 140 142 142 144 122 122 124 144 144 146 144 144 146 134 134 136 124 124 126 131 131 133 141 141 143 125 125 127 130 130 132 124 124 126 111 111 113 116 116 118 114 114 116 121 121 123 121 121 123 143 143 145 126 126 128 144 144 146 141 141 143 137 137 139 123 123 125 127 127 129 115 115 117 120 120 122 126 126 128 123 123 125 136 136 138 126 126 128 136 136 138 119 119 121 144 144 146 125 125 127 137 137 139 129 129 131 131 131 133 130 130 132 124 124 126 140 140 142 138 138 140 141 141 143 133 133 135 130 130 132 129 129 131 140 140 142 131 131 133 144 144 146 144 144 146 131 131 133 115 115 117 117 117 119 126 126 128 121 121 123 131 131 133 124 124 126 140 140 142 116 116 118 118 118 120 119 119 121 120 120 122 128 128 130 123 123 125 139 139 141 118 118 120 122 122 124 143 143 145 128 128 130 139 139 141 136 136 138 126 126 128 125 125 127 124 124 126 121 121 123 126 126 128 123 123 125 129 129 131 126 126 128 121 121 123 143 143 145 139 139 141 136 136 138 119 119 121 118 118 120 115 115 117 112 112 114 121 121 123 112 112 114 126 126 128 145 145 147 141 141 143 128 128 130 122 122 124 116 116 118 136 136 138 140 140 142 127 127 129 124 124 126 115 115 117 121 121 123 127 127 129 126 126 128 128 128 130 119 119 121 144 144 146 120 120 122 141 141 143 125 125 127 130 130 132 127 127 129 142 142 144 141 141 143 131 131 133 124 124 126 119 119 121 124 124 126 131 131 133 139 139 141 133 133 135 119 119 121 
122 122 124 125 125 127 136 136 138 132 132 134 122 122 124 129 129 131 130 130 132 141 141 143 144 144 146 128 128 130 118 118 120 131 131 133 124 124 126 118 118 120 141 141 143 138 138 140 130 130 132 144 144 146 116 116 118 118 118 120 113 113 115 118 118 120 118 118 120 129 129 131 112 112 114 138 138 140 116 116 118 141 141 143 139 139 141 144 144 146 133 133 135 134 134 136 126 126 128 117 117 119 122 122 124 141 141 143 132 132 134 144 144 146 116 116 118 137 137 139 134 134 136 138 138 140 135 135 137 123 123 125 119 119 121 124 124 126 140 140 142 139 139 141 145 145 147 142 142 144 132 132 134 122 122 124 121 121 123 139 139 141 124 124 126 116 116 118 138 138 140 140 140 142 141 141 143 141 141 143 138 138 140 134 134 136 143 143 145 111 111 113 118 118 120 127 127 129 144 144 146 113 113 115 138 138 140 143 143 145 126 126 128 141 141 143 138 138 140 125 125 127 115 115 117 116 116 118 115 115 117 140 140 142 121 121 123 121 121 123 120 120 122 131 131 133 130 130 132 118 118 120 114 114 116 141 141 143 128 128 130 123 123 125 126 126 128 118 118 120 137 137 139 114 114 116 128 128 130 131 131 133 138 138 140 138 138 140 127 127 129 120 120 122 139 139 141 139 139 141 118 118 120 131 131 133 138 138 140 138 138 140 142 142 144 122 122 124 125 125 127 114 114 116 115 115 117 140 140 142 136 136 138 143 143 145 145 145 147 128 128 130 141 141 143 128 128 130 130 130 132 129 129 131 119 119 121 128 128 130 124 124 126 135 135 137 127 127 129 124 124 126 135 135 137 121 121 123 125 125 127 135 135 137 122 122 124 116 116 118 125 125 127 136 136 138 128 128 130 125 125 127 130 130 132 145 145 147 131 131 133 123 123 125 120 120 122 127 127 129 128 128 130 123 123 125 134 134 136 137 137 139 129 129 131 122 122 124 146 146 148 117 117 119 112 112 114 135 135 137 119 119 121 145 145 147 143 143 145 143 143 145 135 135 137 136 136 138 135 135 137 130 130 132 144 144 146 124 124 126 117 117 119 140 140 142 122 122 124 135 135 137 135 135 137 137 137 139 133 133 135 129 129 131 133 133 135 141 141 143 142 142 144 123 123 125 125 125 127 120 120 122 128 128 130 117 117 119 133 133 135 124 124 126 141 141 143 127 127 129 129 129 131 117 117 119 131 131 133 138 138 140 142 142 144 114 114 116 118 118 120 115 115 117 137 137 139 130 130 132 132 132 134 128 128 130 138 138 140 116 116 118 122 122 124 136 136 138 116 116 118 134 134 136 137 137 139 118 118 120 127 127 129 119 119 121 138 138 140 124 124 126 136 136 138 140 140 142 125 125 127 118 118 120 121 121 123 141 141 143 121 121 123 116 116 118 131 131 133 139 139 141 121 121 123 117 117 119 127 127 129 120 120 122 138 138 140 125 125 127 115 115 117 131 131 133 139 139 141 128 128 130 140 140 142 118 118 120 116 116 118 117 117 119 137 137 139 119 119 121 120 120 122 121 121 123 128 128 130 120 120 122 117 117 119 136 136 138 134 134 136 116 116 118 131 131 133 132 132 134 119 119 121 135 135 137 118 118 120 127 127 129 124 124 126 137 137 139 131 131 133 144 144 146 123 123 125 140 140 142 116 116 118 134 134 136 137 137 139 136 136 138 133 133 135 123 123 125 
131 131 133 136 136 138 143 143 145 113 113 115 124 124 126 116 116 118 123 123 125 124 124 126 115 115 117 119 119 121 119 119 121 139 139 141 114 114 116 143 143 145 134 134 136 115 115 117 122 122 124 113 113 115 139 139 141 124 124 126 122 122 124 130 130 132 130 130 132 134 134 136 142 142 144 133 133 135 130 130 132 133 133 135 133 133 135 128 128 130 141 141 143 138 138 140 130 130 132 123 123 125 142 142 144 121 121 123 123 123 125 127 127 129 133 133 135 118 118 120 121 121 123 139 139 141 114 114 116 133 133 135 141 141 143 128 128 130 119 119 121 123 123 125 115 115 117 132 132 134 126 126 128 137 137 139 138 138 140 117 117 119 114 114 116 136 136 138 115 115 117 143 143 145 130 130 132 136 136 138 129 129 131 132 132 134 140 140 142 117 117 119 131 131 133 117 117 119 125 125 127 144 144 146 133 133 135 132 132 134 126 126 128 118 118 120 129 129 131 119 119 121 118 118 120 127 127 129 116 116 118 128 128 130 118 118 120 126 126 128 131 131 133 115 115 117 127 127 129 118 118 120 143 143 145 116 116 118 127 127 129 139 139 141 122 122 124 124 124 126 139 139 141 111 111 113 137 137 139 124 124 126 132 132 134 126 126 128 120 120 122 121 121 123 141 141 143 124 124 126 127 127 129 142 142 144 140 140 142 142 142 144 131 131 133 124 124 126 121 121 123 116 116 118 114 114 116 126 126 128 123 123 125 118 118 120 114 114 116 126 126 128 125 125 127 123 123 125 118 118 120 116 116 118 129 129 131 144 144 146 137 137 139 118 118 120 123 123 125 124 124 126 129 129 131 140 140 142 112 112 114 128 128 130 119 119 121 138 138 140 133 133 135 134 134 136 142 142 144 125 125 127 119 119 121 135 135 137 139 139 141 142 142 144 116 116 118 137 137 139 117 117 119 115 115 117 133 133 135 140 140 142 119 119 121 125 125 127 117 117 119 133 133 135 117 117 119 142 142 144 136 136 138 125 125 127 142 142 144 137 137 139 115 115 117 136 136 138 125 125 127 126 126 128 116 116 118 141 141 143 144 144 146 144 144 146 115 115 117 125 125 127 126 126 128 143 143 145 139 139 141 138 138 140 116 116 118 131 131 133 125 125 127 124 124 126 124 124 126 126 126 128 118 118 120 122 122 124 116 116 118 122 122 124 132 132 134 132 132 134 136 136 138 122 122 124 136 136 138 117 117 119 131 131 133 140 140 142 117 117 119 122 122 124 118 118 120 116 116 118 122 122 124 143 143 145 141 141 143 140 140 142 127 127 129 143 143 145 137 137 139 115 115 117 134 134 136 120 120 122 144 144 146 125 125 127 138 138 140 113 113 115 113 113 115 117 117 119 135 135 137 119 119 121 121 121 123 117 117 119 133 133 135 133 133 135 133 133 135 142 142 144 123 123 125 117 117 119 119 119 121 141 141 143 144 144 146 117 117 119 142 142 144 117 117 119 118 118 120 133 133 135 125 125 127 136 136 138 118 118 120 115 115 117 120 120 122 136 136 138 139 139 141 122 122 124 130 130 132 127 127 129 138 138 140 125 125 127 119 119 121 142 142 144 128 128 130 130 130 132 140 140 142 136 136 138 130 130 132 132 132 134 123 123 125 140 140 142 129 129 131 118 118 120 127 127 129 118 118 120 142 142 144 117 117 119 115 115 117 127 127 129 117 117 119 144 144 146 
115 115 117 134 134 136 121 121 123 123 123 125 140 140 142 140 140 142 140 140 142 144 144 146 125 125 127 120 120 122 124 124 126 125 125 127 138 138 140 123 123 125 115 115 117 138 138 140 120 120 122 126 126 128 129 129 131 141 141 143 137 137 139 117 117 119 145 145 147 124 124 126 145 145 147 131 131 133 145 145 147 124 124 126 124 124 126 137 137 139 130 130 132 116 116 118 141 141 143 128 128 130 143 143 145 139 139 141 129 129 131 134 134 136 137 137 139 136 136 138 122 122 124 132 132 134 113 113 115 127 127 129 137 137 139 143 143 145 126 126 128 122 122 124 125 125 127 123 123 125 122 122 124 115 115 117 119 119 121 121 121 123 115 115 117 119 119 121 139 139 141 130 130 132 131 131 133 134 134 136 119 119 121 140 140 142 121 121 123 117 117 119 130 130 132 136 136 138 126 126 128 115 115 117 135 135 137 136 136 138 118 118 120 117 117 119 143 143 145 132 132 134 125 125 127 134 134 136 116 116 118 119 119 121 134 134 136 120 120 122 130 130 132 135 135 137 140 140 142 121 121 123 131 131 133 133 133 135 116 116 118 121 121 123 126 126 128 134 134 136 134 134 136 126 126 128 126 126 128 121 121 123 131 131 133 128 128 130 134 134 136 138 138 140 128 128 130 125 125 127 117 117 119 117 117 119 123 123 125 131 131 133 140 140 142 131 131 133 135 135 137 135 135 137 129 129 131 120 120 122 132 132 134 133 133 135 139 139 141 133 133 135 132 132 134 119 119 121 128 128 130 134 134 136 143 143 145 124 124 126 137 137 139 132 132 134 140 140 142 128 128 130 142 142 144 136 136 138 117 117 119 141 141 143 137 137 139 117 117 119 120 120 122 133 133 135 116 116 118 141 141 143 133 133 135 131 131 133 117 117 119 138 138 140 144 144 146 126 126 128 115 115 117 138 138 140 141 141 143 144 144 146 144 144 146 136 136 138 123 123 125 125 125 127 118 118 120 132 132 134 136 136 138 117 117 119 127 127 129 113 113 115 130 130 132 139 139 141 136 136 138 116 116 118 118 118 120 138 138 140 125 125 127 125 125 127 135 135 137 118 118 120 134 134 136 133 133 135 136 136 138 111 111 113 137 137 139 144 144 146 131 131 133 111 111 113 115 115 117 118 118 120 123 123 125 139 139 141 127 127 129 113 113 115 135 135 137 130 130 132 142 142 144 120 120 122 132 132 134 130 130 132 130 130 132 127 127 129 137 137 139 134 134 136 142 142 144 141 141 143 118 118 120 124 124 126 140 140 142 140 140 142 120 120 122 113 113 115 139 139 141 137 137 139 128 128 130 142 142 144 127 127 129 138 138 140 138 138 140 139 139 141 117 117 119 139 139 141 120 120 122 143 143 145 139 139 141 114 114 116 138 138 140 135 135 137 139 139 141 138 138 140 133 133 135 116 116 118 121 121 123 120 120 122 116 116 118 120 120 122 126 126 128 145 145 147 138 138 140 116 116 118 145 145 147 130 130 132 135 135 137 130 130 132 115 115 117 121 121 123 140 140 142 132 132 134 143 143 145 136 136 138 115 115 117 127 127 129 133 133 135 119 119 121 124 124 126 136 136 138 140 140 142 131 131 133 128 128 130 140 140 142 121 121 123 118 118 120 132 132 134 137 137 139 136 136 138 138 138 140 119 119 121 141 141 143 119 119 121 135 135 137 141 141 143 114 114 116 
119 119 121 116 116 118 132 132 134 141 141 143 130 130 132 132 132 134 132 132 134 127 127 129 138 138 140 125 125 127 126 126 128 145 145 147 133 133 135 119 119 121 118 118 120 141 141 143 120 120 122 139 139 141 142 142 144 127 127 129 143 143 145 140 140 142 142 142 144 146 146 148 141 141 143 142 142 144 129 129 131 125 125 127 134 134 136 121 121 123 132 132 134 141 141 143 124 124 126 118 118 120 122 122 124 136 136 138 137 137 139 123 123 125 123 123 125 129 129 131 141 141 143 137 137 139 129 129 131 115 115 117 135 135 137 126 126 128 116 116 118 136 136 138 144 144 146 137 137 139 120 120 122 134 134 136 129 129 131 132 132 134 124 124 126 134 134 136 125 125 127 125 125 127 115 115 117 117 117 119 141 141 143 126 126 128 115 115 117 124 124 126 127 127 129 141 141 143 119 119 121 139 139 141 132 132 134 127 127 129 136 136 138 133 133 135 129 129 131 124 124 126 117 117 119 135 135 137 124 124 126 140 140 142 144 144 146 136 136 138 143 143 145 142 142 144 132 132 134 132 132 134 117 117 119 145 145 147 139 139 141 140 140 142 115 115 117 124 124 126 142 142 144 114 114 116 135 135 137 142 142 144 120 120 122 119 119 121 121 121 123 126 126 128 127 127 129 125 125 127 118 118 120 126 126 128 125 125 127 121 121 123 131 131 133 119 119 121 115 115 117 115 115 117 132 132 134 117 117 119 118 118 120 132 132 134 141 141 143 143 143 145 112 112 114 142 142 144 115 115 117 128 128 130 130 130 132 116 116 118 120 120 122 119 119 121 129 129 131 123 123 125 119 119 121 135 135 137 128 128 130 135 135 137 136 136 138 134 134 136 125 125 127 132 132 134 136 136 138 134 134 136 128 128 130 121 121 123 137 137 139 116 116 118 142 142 144 128 128 130 142 142 144 130 130 132 125 125 127 114 114 116 135 135 137 116 116 118 131 131 133 138 138 140 122 122 124 135 135 137 140 140 142 132 132 134 128 128 130 128 128 130 122 122 124 136 136 138 134 134 136 126 126 128 143 143 145 141 141 143 128 128 130 134 134 136 143 143 145 128 128 130 131 131 133 141 141 143 124 124 126 132 132 134 144 144 146 120 120 122 122 122 124 131 131 133 137 137 139 117 117 119 121 121 123 113 113 115 119 119 121 127 127 129 117 117 119 121 121 123 142 142 144 127 127 129 123 123 125 119 119 121 133 133 135 127 127 129 137 137 139 142 142 144 117 117 119 131 131 133 122 122 124 116 116 118 134 134 136 116 116 118 142 142 144 123 123 125 136 136 138 120 120 122 119 119 121 125 125 127 129 129 131 127 127 129 139 139 141 125 125 127 124 124 126 138 138 140 120 120 122 136 136 138 124 124 126 116 116 118 127 127 129 139 139 141 130 130 132 129 129 131 146 146 148 117 117 119 134 134 136 129 129 131 140 140 142 145 145 147 126 126 128 118 118 120 120 120 122 136 136 138 136 136 138 121 121 123 116 116 118 136 136 138 115 115 117 141 141 143 136 136 138 136 136 138 132 132 134 141 141 143 131 131 133 135 135 137 127 127 129 142 142 144 132 132 134 132 132 134 127 127 129 133 133 135 137 137 139 120 120 122 146 146 148 126 126 128 120 120 122 120 120 122 143 143 145 118 118 120 140 140 142 132 132 134 122 122 124 131 131 133 135 135 137 125 125 127 
123 123 125 114 114 116 119 119 121 134 134 136 142 142 144 137 137 139 116 116 118 130 130 132 121 121 123 133 133 135 134 134 136 123 123 125 122 122 124 133 133 135 138 138 140 133 133 135 121 121 123 125 125 127 122 122 124 119 119 121 140 140 142 119 119 121 126 126 128 125 125 127 115 115 117 114 114 116 124 124 126 127 127 129 128 128 130 133 133 135 138 138 140 118 118 120 134 134 136 144 144 146 116 116 118 128 128 130 141 141 143 127 127 129 137 137 139 141 141 143 120 120 122 137 137 139 133 133 135 130 130 132 136 136 138 115 115 117 122 122 124 113 113 115 133 133 135 137 137 139 126 126 128 111 111 113 118 118 120 122 122 124 123 123 125 130 130 132 132 132 134 132 132 134 144 144 146 114 114 116 130 130 132 128 128 130 135 135 137 128 128 130 142 142 144 140 140 142 137 137 139 115 115 117 119 119 121 117 117 119 118 118 120 141 141 143 128 128 130 120 120 122 134 134 136 131 131 133 141 141 143 137 137 139 139 139 141 131 131 133 124 124 126 118 118 120 134 134 136 119 119 121 140 140 142 116 116 118 122 122 124 136 136 138 126 126 128 142 142 144 112 112 114 116 116 118 140 140 142 134 134 136 121 121 123 128 128 130 115 115 117 136 136 138 124 124 126 124 124 126 131 131 133 130 130 132 126 126 128 144 144 146 118 118 120 130 130 132 129 129 131 130 130 132 130 130 132 121 121 123 127 127 129 120 120 122 127 127 129 133 133 135 124 124 126 141 141 143 129 129 131 118 118 120 130 130 132 125 125 127 115 115 117 140 140 142 131 131 133 119 119 121 146 146 148 120 120 122 123 123 125 123 123 125 136 136 138 135 135 137 120 120 122 140 140 142 139 139 141 117 117 119 136 136 138 139 139 141 132 132 134 121 121 123 135 135 137 121 121 123 127 127 129 141 141 143 133 133 135 123 123 125 142 142 144 119 119 121 124 124 126 122 122 124 145 145 147 136 136 138 138 138 140 129 129 131 117 117 119 128 128 130 129 129 131 126 126 128 133 133 135 137 137 139 117 117 119 127 127 129 120 120 122 116 116 118 142 142 144 143 143 145 130 130 132 121 121 123 127 127 129 118 118 120 123 123 125 129 129 131 145 145 147 123 123 125 134 134 136 140 140 142 142 142 144 130 130 132 132 132 134 122 122 124 115 115 117 132 132 134 138 138 140 143 143 145 120 120 122 124 124 126 133 133 135 139 139 141 140 140 142 120 120 122 137 137 139 142 142 144 141 141 143 132 132 134 136 136 138 133 133 135 117 117 119 131 131 133 142 142 144 125 125 127 120 120 122 122 122 124 123 123 125 126 126 128 127 127 129 144 144 146 123 123 125 122 122 124 115 115 117 131 131 133 132 132 134 141 141 143 130 130 132 123 123 125 137 137 139 127 127 129 132 132 134 131 131 133 138 138 140 117 117 119 112 112 114 127 127 129 139 139 141 124 124 126 141 141 143 122 122 124 129 129 131 134 134 136 124 124 126 135 135 137 122 122 124 144 144 146 131 131 133 129 129 131 122 122 124 116 116 118 119 119 121 125 125 127 115 115 117 134 134 136 130 130 132 117 117 119 140 140 142 141 141 143 127 127 129 129 129 131 123 123 125 111 111 113 119 119 121 128 128 130 119 119 121 129 129 131 132 132 134 116 116 118 119 119 121 127 127 129 144 144 146 118 118 120 
113 113 115 112 112 114 119 119 121 132 132 134 119 119 121 118 118 120 116 116 118 135 135 137 115 115 117 115 115 117 129 129 131 112 112 114 130 130 132 121 121 123 125 125 127 141 141 143 120 120 122 133 133 135 138 138 140 140 140 142 126 126 128 121 121 123 112 112 114 116 116 118 125 125 127 131 131 133 135 135 137 141 141 143 123 123 125 140 140 142 117 117 119 130 130 132 116 116 118 119 119 121 141 141 143 135 135 137 120 120 122 129 129 131 123 123 125 136 136 138 118 118 120 132 132 134 123 123 125 144 144 146 128 128 130 134 134 136 130 130 132 140 140 142 121 121 123 128 128 130 112 112 114 126 126 128 126 126 128 118 118 120 142 142 144 126 126 128 131 131 133 119 119 121 131 131 133 116 116 118 118 118 120 113 113 115 123 123 125 124 124 126 119 119 121 121 121 123 124 124 126 120 120 122 129 129 131 130 130 132 117 117 119 135 135 137 117 117 119 137 137 139 137 137 139 133 133 135 130 130 132 143 143 145 143 143 145 132 132 134 116 116 118 135 135 137 117 117 119 127 127 129 129 129 131 116 116 118 143 143 145 127 127 129 126 126 128 115 115 117 134 134 136 126 126 128 147 147 149 119 119 121 116 116 118 130 130 132 137 137 139 137 137 139 144 144 146 129 129 131 137 137 139 131 131 133 136 136 138 125 125 127 144 144 146 121 121 123 116 116 118 143 143 145 136 136 138 126 126 128 123 123 125 128 128 130 134 134 136 121 121 123 133 133 135 137 137 139 132 132 134 133 133 135 117 117 119 137 137 139 141 141 143 117 117 119 125 125 127 119 119 121 137 137 139 115 115 117 113 113 115 135 135 137 130 130 132 116 116 118 143 143 145 146 146 148 122 122 124 125 125 127 126 126 128 116 116 118 124 124 126 126 126 128 129 129 131 125 125 127 117 117 119 125 125 127 135 135 137 126 126 128 141 141 143 139 139 141 117 117 119 117 117 119 130 130 132 126 126 128 126 126 128 133 133 135 119 119 121 123 123 125 115 115 117 116 116 118 125 125 127 119 119 121 130 130 132 127 127 129 129 129 131 124 124 126 132 132 134 139 139 141 122 122 124 131 131 133 124 124 126 139 139 141 120 120 122 117 117 119 113 113 115 131 131 133 140 140 142 118 118 120 123 123 125 132 132 134 140 140 142 134 134 136 118 118 120 142 142 144 115 115 117 138 138 140 111 111 113 140 140 142 133 133 135 117 117 119 125 125 127 135 135 137 137 137 139 118 118 120 128 128 130 138 138 140 119 119 121 120 120 122 132 132 134 116 116 118 124 124 126 137 137 139 128 128 130 126 126 128 127 127 129 144 144 146 137 137 139 136 136 138 141 141 143 128 128 130 116 116 118 127 127 129 128 128 130 143 143 145 120 120 122 119 119 121 115 115 117 124 124 126 123 123 125 129 129 131 140 140 142 141 141 143 142 142 144 133 133 135 137 137 139 141 141 143 122 122 124 140 140 142 118 118 120 144 144 146 142 142 144 125 125 127 117 117 119 128 128 130 117 117 119 116 116 118 116 116 118 116 116 118 135 135 137 124 124 126 126 126 128 139 139 141 147 147 149 123 123 125 129 129 131 135 135 137 142 142 144 139 139 141 123 123 125 145 145 147 129 129 131 117 117 119 142 142 144 132 132 134 138 138 140 113 113 115 127 127 129 136 136 138 119 119 121 132 132 134 
142 142 144 139 139 141 120 120 122 129 129 131 135 135 137 131 131 133 139 139 141 121 121 123 128 128 130 119 119 121 116 116 118 141 141 143 120 120 122 120 120 122 114 114 116 130 130 132 143 143 145 144 144 146 119 119 121 123 123 125 132 132 134 118 118 120 133 133 135 141 141 143 122 122 124 143 143 145 134 134 136 126 126 128 140 140 142 129 129 131 134 134 136 142 142 144 121 121 123 130 130 132 121 121 123 142 142 144 116 116 118 116 116 118 119 119 121 134 134 136 131 131 133 126 126 128 143 143 145 135 135 137 138 138 140 136 136 138 123 123 125 121 121 123 124 124 126 118 118 120 112 112 114 118 118 120 133 133 135 134 134 136 141 141 143 128 128 130 130 130 132 134 134 136 121 121 123 137 137 139 140 140 142 121 121 123 133 133 135 144 144 146 131 131 133 121 121 123 123 123 125 125 125 127 112 112 114 141 141 143 123 123 125 138 138 140 144 144 146 135 135 137 145 145 147 139 139 141 117 117 119 114 114 116 144 144 146 141 141 143 125 125 127 122 122 124 143 143 145 113 113 115 117 117 119 123 123 125 139 139 141 144 144 146 114 114 116 129 129 131 113 113 115 130 130 132 140 140 142 138 138 140 128 128 130 127 127 129 139 139 141 132 132 134 134 134 136 121 121 123 131 131 133 131 131 133 126 126 128 122 122 124 126 126 128 124 124 126 118 118 120 127 127 129 142 142 144 132 132 134 136 136 138 128 128 130 116 116 118 138 138 140 125 125 127 143 143 145 118 118 120 146 146 148 119 119 121 126 126 128 130 130 132 134 134 136 123 123 125 135 135 137 124 124 126 132 132 134 128 128 130 128 128 130 131 131 133 131 131 133 144 144 146 116 116 118 134 134 136 129 129 131 135 135 137 123 123 125 143 143 145 132 132 134 135 135 137 132 132 134 122 122 124 127 127 129 145 145 147 138 138 140 117 117 119 127 127 129 143 143 145 119 119 121 117 117 119 115 115 117 138 138 140 126 126 128 127 127 129 141 141 143 131 131 133 137 137 139 141 141 143 137 137 139 118 118 120 132 132 134 132 132 134 136 136 138 128 128 130 139 139 141 138 138 140 133 133 135 117 117 119 114 114 116 122 122 124 140 140 142 137 137 139 133 133 135 122 122 124 118 118 120 145 145 147 124 124 126 119 119 121 136 136 138 115 115 117 118 118 120 140 140 142 127 127 129 128 128 130 140 140 142 124 124 126 129 129 131 145 145 147 129 129 131 140 140 142 120 120 122 134 134 136 127 127 129 145 145 147 124 124 126 131 131 133 129 129 131 121 121 123 129 129 131 128 128 130 131 131 133 136 136 138 139 139 141 128 128 130 137 137 139 135 135 137 140 140 142 137 137 139 129 129 131 117 117 119 134 134 136 126 126 128 123 123 125 146 146 148 127 127 129 128 128 130 142 142 144 142 142 144 118 118 120 134 134 136 125 125 127 129 129 131 141 141 143 126 126 128 135 135 137 138 138 140 136 136 138 123 123 125 140 140 142 121 121 123 129 129 131 142 142 144 126 126 128 117 117 119 135 135 137 138 138 140 135 135 137 112 112 114 134 134 136 117 117 119 130 130 132 117 117 119 133 133 135 131 131 133 137 137 139 137 137 139 142 142 144 140 140 142 118 118 120 130 130 132 131 131 133 128 128 130 116 116 118 127 127 129 128 128 130 123 123 125 137 137 139 
131 131 133 145 145 147 133 133 135 115 115 117 134 134 136 134 134 136 122 122 124 141 141 143 133 133 135 142 142 144 136 136 138 126 126 128 117 117 119 137 137 139 124 124 126 139 139 141 142 142 144 144 144 146 136 136 138 140 140 142 130 130 132 145 145 147 122 122 124 115 115 117 117 117 119 136 136 138 127 127 129 138 138 140 143 143 145 111 111 113 136 136 138 132 132 134 120 120 122 130 130 132 128 128 130 116 116 118 116 116 118 117 117 119 119 119 121 124 124 126 145 145 147 126 126 128 133 133 135 127 127 129 140 140 142 142 142 144 118 118 120 117 117 119 123 123 125 123 123 125 121 121 123 114 114 116 125 125 127 130 130 132 123 123 125 140 140 142 128 128 130 112 112 114 133 133 135 129 129 131 128 128 130 130 130 132 144 144 146 133 133 135 134 134 136 121 121 123 120 120 122 116 116 118 118 118 120 127 127 129 146 146 148 129 129 131 120 120 122 126 126 128 140 140 142 123 123 125 128 128 130 145 145 147 142 142 144 126 126 128 143 143 145 128 128 130 123 123 125 124 124 126 139 139 141 128 128 130 118 118 120 136 136 138 141 141 143 131 131 133 119 119 121 121 121 123 117 117 119 123 123 125 127 127 129 129 129 131 120 120 122 117 117 119 120 120 122 131 131 133 139 139 141 125 125 127 132 132 134 113 113 115 116 116 118 125 125 127 121 121 123 121 121 123 145 145 147 126 126 128 139 139 141 135 135 137 141 141 143 123 123 125 127 127 129 133 133 135 123 123 125 137 137 139 132 132 134 144 144 146 133 133 135 133 133 135 141 141 143 115 115 117 146 146 148 139 139 141 115 115 117 132 132 134 121 121 123 115 115 117 140 140 142 128 128 130 116 116 118 126 126 128 134 134 136 128 128 130 120 120 122 142 142 144 129 129 131 139 139 141 131 131 133 132 132 134 120 120 122 139 139 141 115 115 117 139 139 141 122 122 124 125 125 127 129 129 131 139 139 141 116 116 118 133 133 135 119 119 121 134 134 136 119 119 121 137 137 139 123 123 125 135 135 137 126 126 128 133 133 135 142 142 144 139 139 141 121 121 123 144 144 146 136 136 138 141 141 143 125 125 127 139 139 141 137 137 139 127 127 129 130 130 132 120 120 122 120 120 122 128 128 130 128 128 130 132 132 134 115 115 117 131 131 133 136 136 138 138 138 140 129 129 131 113 113 115 129 129 131 137 137 139 123 123 125 129 129 131 137 137 139 136 136 138 134 134 136 123 123 125 130 130 132 135 135 137 124 124 126 143 143 145 140 140 142 145 145 147 121 121 123 123 123 125 138 138 140 120 120 122 127 127 129 132 132 134 113 113 115 145 145 147 111 111 113 111 111 113 134 134 136 140 140 142 125 125 127 125 125 127 134 134 136 134 134 136 124 124 126 137 137 139 143 143 145 127 127 129 137 137 139 125 125 127 129 129 131 123 123 125 137 137 139 141 141 143 142 142 144 142 142 144 122 122 124 119 119 121 128 128 130 139 139 141 131 131 133 134 134 136 136 136 138 137 137 139 122 122 124 117 117 119 126 126 128 116 116 118 121 121 123 122 122 124 143 143 145 132 132 134 138 138 140 144 144 146 142 142 144 142 142 144 138 138 140 144 144 146 126 126 128 133 133 135 143 143 145 127 127 129 125 125 127 135 135 137 138 138 140 133 133 135 133 133 135 146 146 148 
132 132 134 133 133 135 129 129 131 135 135 137 136 136 138 124 124 126 129 129 131 124 124 126 111 111 113 136 136 138 139 139 141 140 140 142 135 135 137 130 130 132 145 145 147 129 129 131 131 131 133 140 140 142 123 123 125 133 133 135 122 122 124 141 141 143 130 130 132 123 123 125 136 136 138 130 130 132 124 124 126 127 127 129 140 140 142 117 117 119 128 128 130 131 131 133 137 137 139 135 135 137 136 136 138 134 134 136 139 139 141 125 125 127 127 127 129 121 121 123 137 137 139 118 118 120 132 132 134 142 142 144 138 138 140 115 115 117 139 139 141 123 123 125 114 114 116 123 123 125 118 118 120 129 129 131 136 136 138 127 127 129 124 124 126 126 126 128 140 140 142 139 139 141 135 135 137 125 125 127 147 147 149 145 145 147 130 130 132 123 123 125 133 133 135 145 145 147 147 147 149 139 139 141 128 128 130 133 133 135 142 142 144 141 141 143 144 144 146 136 136 138 129 129 131 138 138 140 146 146 148 111 111 113 139 139 141 120 120 122 138 138 140 114 114 116 121 121 123 138 138 140 117 117 119 119 119 121 136 136 138 128 128 130 141 141 143 117 117 119 140 140 142 112 112 114 141 141 143 122 122 124 127 127 129 121 121 123 127 127 129 141 141 143 141 141 143 139 139 141 126 126 128 146 146 148 124 124 126 141 141 143 124 124 126 119 119 121 114 114 116 114 114 116 141 141 143 127 127 129 132 132 134 126 126 128 120 120 122 138 138 140 141 141 143 131 131 133 137 137 139 121 121 123 145 145 147 140 140 142 122 122 124 137 137 139 134 134 136 120 120 122 124 124 126 111 111 113 124 124 126 133 133 135 130 130 132 119 119 121 130 130 132 116 116 118 123 123 125 143 143 145 115 115 117 119 119 121 116 116 118 121 121 123 118 118 120 136 136 138 126 126 128 122 122 124 138 138 140 124 124 126 126 126 128 141 141 143 137 137 139 132 132 134 117 117 119 119 119 121 119 119 121 140 140 142 136 136 138 134 134 136 127 127 129 138 138 140 127 127 129 128 128 130 133 133 135 132 132 134 119 119 121 141 141 143 136 136 138 125 125 127 145 145 147 136 136 138 142 142 144 145 145 147 123 123 125 131 131 133 132 132 134 119 119 121 140 140 142 119 119 121 116 116 118 132 132 134 118 118 120 137 137 139 117 117 119 127 127 129 120 120 122 121 121 123 125 125 127 124 124 126 138 138 140 131 131 133 112 112 114 124 124 126 139 139 141 124 124 126 121 121 123 142 142 144 138 138 140 132 132 134 130 130 132 143 143 145 116 116 118 124 124 126 134 134 136 138 138 140 128 128 130 114 114 116 129 129 131 138 138 140 139 139 141 120 120 122 114 114 116 132 132 134 116 116 118 120 120 122 127 127 129 119 119 121 142 142 144 142 142 144 128 128 130 115 115 117 138 138 140 139 139 141 133 133 135 128 128 130 125 125 127 135 135 137 141 141 143 114 114 116 144 144 146 117 117 119 145 145 147 123 123 125 141 141 143 121 121 123 138 138 140 133 133 135 126 126 128 127 127 129 135 135 137 133 133 135 141 141 143 123 123 125 136 136 138 146 146 148 122 122 124 144 144 146 127 127 129 138 138 140 126 126 128 125 125 127 117 117 119 124 124 126 120 120 122 147 147 149 143 143 145 143 143 145 116 116 118 132 132 134 134 134 136 136 136 138 
118 118 120 118 118 120 138 138 140 145 145 147 131 131 133 137 137 139 127 127 129 131 131 133 135 135 137 143 143 145 130 130 132 128 128 130 115 115 117 119 119 121 139 139 141 121 121 123 125 125 127 139 139 141 138 138 140 118 118 120 118 118 120 140 140 142 134 134 136 134 134 136 142 142 144 123 123 125 121 121 123 136 136 138 139 139 141 125 125 127 120 120 122 135 135 137 120 120 122 140 140 142 122 122 124 136 136 138 143 143 145 136 136 138 119 119 121 137 137 139 127 127 129 145 145 147 118 118 120 127 127 129 128 128 130 132 132 134 129 129 131 133 133 135 122 122 124 143 143 145 116 116 118 120 120 122 134 134 136 132 132 134 130 130 132 141 141 143 141 141 143 139 139 141 141 141 143 141 141 143 120 120 122 126 126 128 129 129 131 127 127 129 119 119 121 117 117 119 142 142 144 126 126 128 121 121 123 126 126 128 119 119 121 138 138 140 124 124 126 126 126 128 130 130 132 125 125 127 125 125 127 120 120 122 134 134 136 127 127 129 124 124 126 130 130 132 121 121 123 125 125 127 130 130 132 130 130 132 118 118 120 134 134 136 137 137 139 127 127 129 123 123 125 111 111 113 142 142 144 140 140 142 123 123 125 132 132 134 132 132 134 143 143 145 137 137 139 142 142 144 131 131 133 126 126 128 123 123 125 134 134 136 114 114 116 130 130 132 130 130 132 126 126 128 138 138 140 128 128 130 114 114 116 118 118 120 132 132 134 132 132 134 139 139 141 124 124 126 116 116 118 132 132 134 132 132 134 132 132 134 133 133 135 143 143 145 140 140 142 128 128 130 137 137 139 131 131 133 134 134 136 137 137 139 126 126 128 133 133 135 143 143 145 115 115 117 119 119 121 124 124 126 122 122 124 115 115 117 131 131 133 119 119 121 139 139 141 135 135 137 119 119 121 138 138 140 133 133 135 142 142 144 120 120 122 117 117 119 120 120 122 143 143 145 130 130 132 134 134 136 115 115 117 118 118 120 125 125 127 134 134 136 131 131 133 134 134 136 116 116 118 116 116 118 144 144 146 136 136 138 127 127 129 129 129 131 129 129 131 119 119 121 133 133 135 139 139 141 134 134 136 121 121 123 131 131 133 137 137 139 118 118 120 120 120 122 126 126 128 119 119 121 125 125 127 122 122 124 138 138 140 114 114 116 114 114 116 119 119 121 128 128 130 145 145 147 125 125 127 133 133 135 120 120 122 120 120 122 135 135 137 124 124 126 126 126 128 141 141 143 124 124 126 112 112 114 117 117 119 119 119 121 127 127 129 141 141 143 121 121 123 138 138 140 141 141 143 115 115 117 132 132 134 119 119 121 123 123 125 134 134 136 141 141 143 141 141 143 139 139 141 127 127 129 120 120 122 128 128 130 115 115 117 124 124 126 135 135 137 127 127 129 138 138 140 123 123 125 135 135 137 126 126 128 145 145 147 119 119 121 141 141 143 129 129 131 113 113 115 114 114 116 119 119 121 128 128 130 119 119 121 114 114 116 139 139 141 114 114 116 125 125 127 139 139 141 134 134 136 129 129 131 134 134 136 114 114 116 122 122 124 128 128 130 121 121 123 138 138 140 118 118 120 124 124 126 133 133 135 115 115 117 126 126 128 114 114 116 114 114 116 117 117 119 128 128 130 142 142 144 123 123 125 138 138 140 118 118 120 137 137 139 116 116 118 132 132 134 
90 90 90 90 90 90 90 90 90 90 90 90 90 90 90 90 90 90 90 90 90 90 90 90 90 90 90 90 90 90 90 90 90 90 90 90 90 90 90 90 90 90 90 90 90 90 90 90 90 90 90 90 90 90 90 90 90 90 90 90 90 90 90 90 90 90 90 90 90 90 90 90 90 90 90 90 90 90 90 90 90 90 90 90 90 90 90 90 90 90 90 90 90 90 90 90 90 90 90 90 90 90 90 90 90 90 90 90 90 90 90 90 90 90 90 90 90 90 90 90 90 90 90 90 90 90 90 90 90 90 90 90 90 90 90 90 90 90 90 90 90 90 90 90 90 90 90 90 90 90 90 90 90 90 90 90 90 90 90 90 90 90 90 90 90 90 90 90 90 90 90 90 90 90 90 90 90 90 90 90 90 90 90 90 90 90 90 90 90 90 90 90 90 90 90 90 90 90 90 90 90 90 90 90 90 90 90 90 90 90 90 90 90 90 90 90 90 90 90 90 90 90 90 90 90 90 90 90 90 90 90 90 90 90 90 90 90 90 90 90 90 90 90 90 90 90 90 90 90 90 90 90 90 90 90 90 90 90 90 90 90 90 90 90 90 90 90 90 90 90 90 90 90 90 90 90 90 90 90 90 90 90 90 90 90 90 90 90 90 90 90 90 90 90 90 90 90 90 90 90 90 90 90 90 90 90 90 90 90 90 90 90 90 90 90 90 90 90 90 90 90 90 90 90 90 90 90 90 90 90 90 90 90 90 90 90 90 90 90 90 90 90 90 90 90 90 90 90 90 90 90 90 90 90 90 90 90 90 90 90 90 90 90 90 90 90 90 90 90 90 90 90 90 90 90 90 90 90 90 90 90 90 90 90 90 90 90 90 90 90 90 90 90 90 90 90 90 90 90 90 90 90 90 90 90 90 90 90 90 90 90 90 90 90 90 90 90 90 90 90 90 90 90 90 90 90 90 90 90 90 90 90 90 90 90 90 90 90 90 90 90 90 90 90 90 90 90 90 90 90 90 90 90 90 90 90 90 90 90 90 90 90 90 90 90 90 90 90 90 90 90 90 90 90 90 90 90 90 90 90 90 90 90 90 90 90 90 90 90 90 90 90 90 90 90 90 90 90 90 90 90 90 90 90 90 90 90 90 90 90 90 90 90 90 90 90 90 90 90 90 90 90 90 90 90 90 90 90 90 90 90 90 90 90 90 90 90 90 90 90 90 90 90 90 90 90 90 90 90 90 90 90 90 90 90 90 90 90 90 90 90 90 90 90 90 90 90 90 90 90 90 90 90 90 90 90 90 90 90 90 90 90 90 90 90 90 90 90 90 90 90 90 90 90 90 90 90 90 90 90 90 90 90 90 90 90 90 90 90 90 90 90 90 90 90 90 90 90 90 90 90 90 90 90 90 90 90 90 90 90 90 90 90 90 90 90 90 90 90 90 90 90 90 90 90 90 90 90 90 90 90 90 90 90 90 90 90 90 90 90 90 90 90 90 90 90 90 90 90 90 90 90 90 90 90 90 90 90 90 90 90 90 90 90 90 90 90 90 90 90 90 90 90 90 90 90 90 90 90 90 90 90 90 90 90 90 90 90 90 90 90 90 90 90 90 90 90 90 90 90 90 90 90 90 90 90 90 90 90 90 90 90 90 90 90 90 90 90 90 90 90 90 90 90 90 90 90 90 90 90 90 90 90 90 90 90 90 90 90 90 90 90 90 90 90 90 90 90 
141 141 143 132 132 134 110 110 112 130 130 132 117 117 119 115 115 117 114 114 116 143 143 145 134 134 136 118 118 120 131 131 133 133 133 135 125 125 127 117 117 119 145 145 147 130 130 132 141 141 143 115 115 117 143 143 145 135 135 137 144 144 146 138 138 140 146 146 148 113 113 115 130 130 132 120 120 122 122 122 124 140 140 142 126 126 128 137 137 139 139 139 141 127 127 129 133 133 135 113 113 115 124 124 126 118 118 120 119 119 121 137 137 139 120 120 122 135 135 137 118 118 120 145 145 147 115 115 117 135 135 137 111 111 113 124 124 126 144 144 146 116 116 118 114 114 116 133 133 135 120 120 122 144 144 146 122 122 124 132 132 134 132 132 134 123 123 125 122 122 124 129 129 131 132 132 134 124 124 126 126 126 128 143 143 145 139 139 141 137 137 139 144 144 146 123 123 125 119 119 121 142 142 144 122 122 124 135 135 137 133 133 135 141 141 143 117 117 119 137 137 139 142 142 144 143 143 145 135 135 137 124 124 126 114 114 116 140 140 142 129 129 131 132 132 134 136 136 138 140 140 142 118 118 120 134 134 136 125 125 127 132 132 134 131 131 133 134 134 136 127 127 129 140 140 142 111 111 113 120 120 122 119 119 121 117 117 119 135 135 137 132 132 134 123 123 125 119 119 121 118 118 120 128 128 130 124 124 126 135 135 137 118 118 120 141 141 143 138 138 140 127 127 129 140 140 142 135 135 137 119 119 121 115 115 117 118 118 120 133 133 135 128 128 130 120 120 122 135 135 137 141 141 143 138 138 140 132 132 134 133 133 135 141 141 143 132 132 134 135 135 137 117 117 119 139 139 141 115 115 117 122 122 124 132 132 134 128 128 130 117 117 119 119 119 121 129 129 131 140 140 142 128 128 130 125 125 127 116 116 118 115 115 117 131 131 133 131 131 133 121 121 123 140 140 142 112 112 114 142 142 144 123 123 125 125 125 127 114 114 116 130 130 132 127 127 129 123 123 125 143 143 145 127 127 129 120 120 122 122 122 124 143 143 145 140 140 142 140 140 142 120 120 122 124 124 126 119 119 121 117 117 119 124 124 126 139 139 141 125 125 127 124 124 126 118 118 120 141 141 143 140 140 142 124 124 126 136 136 138 143 143 145 131 131 133 123 123 125 145 145 147 138 138 140 123 123 125 125 125 127 119 119 121 141 141 143 126 126 128 125 125 127 121 121 123 116 116 118 139 139 141 136 136 138 143 143 145 114 114 116 119 119 121 119 119 121 119 119 121 134 134 136 135 135 137 135 135 137 136 136 138 116 116 118 134 134 136 146 146 148 143 143 145 138 138 140 120 120 122 119 119 121 136 136 138 127 127 129 145 145 147 114 114 116 124 124 126 145 145 147 136 136 138 119 119 121 131 131 133 131 131 133 131 131 133 131 131 133 126 126 128 118 118 120 136 136 138 141 141 143 125 125 127 122 122 124 135 135 137 132 132 134 133 133 135 141 141 143 140 140 142 136 136 138 126 126 128 117 117 119 119 119 121 131 131 133 128 128 130 116 116 118 141 141 143 119 119 121 132 132 134 143 143 145 141 141 143 136 136 138 117 117 119 135 135 137 125 125 127 134 134 136 139 139 141 122 122 124 120 120 122 143 143 145 138 138 140 135 135 137 132 132 134 118 118 120 128 128 130 135 135 137 141 141 143 116 116 118 136 136 138 118 118 120 139 139 141 
115 115 117 128 128 130 134 134 136 123 123 125 129 129 131 123 123 125 114 114 116 140 140 142 125 125 127 124 124 126 141 141 143 116 116 118 122 122 124 119 119 121 115 115 117 124 124 126 128 128 130 141 141 143 121 121 123 143 143 145 139 139 141 127 127 129 141 141 143 129 129 131 119 119 121 146 146 148 119 119 121 136 136 138 132 132 134 128 128 130 116 116 118 138 138 140 124 124 126 127 127 129 123 123 125 119 119 121 123 123 125 123 123 125 141 141 143 125 125 127 138 138 140 125 125 127 142 142 144 143 143 145 121 121 123 129 129 131 138 138 140 136 136 138 118 118 120 126 126 128 124 124 126 125 125 127 134 134 136 134 134 136 143 143 145 116 116 118 136 136 138 141 141 143 127 127 129 125 125 127 129 129 131 135 135 137 126 126 128 124 124 126 124 124 126 138 138 140 141 141 143 118 118 120 120 120 122 126 126 128 115 115 117 118 118 120 131 131 133 136 136 138 121 121 123 120 120 122 118 118 120 135 135 137 123 123 125 119 119 121 114 114 116 131 131 133 141 141 143 118 118 120 143 143 145 137 137 139 133 133 135 121 121 123 120 120 122 135 135 137 123 123 125 135 135 137 137 137 139 145 145 147 114 114 116 121 121 123 137 137 139 123 123 125 138 138 140 133 133 135 127 127 129 142 142 144 142 142 144 122 122 124 125 125 127 133 133 135 135 135 137 114 114 116 140 140 142 121 121 123 133 133 135 118 118 120 145 145 147 143 143 145 119 119 121 119 119 121 137 137 139 130 130 132 135 135 137 135 135 137 145 145 147 134 134 136 141 141 143 139 139 141 130 130 132 143 143 145 142 142 144 128 128 130 120 120 122 142 142 144 141 141 143 118 118 120 120 120 122 118 118 120 133 133 135 124 124 126 128 128 130 130 130 132 136 136 138 130 130 132 129 129 131 122 122 124 138 138 140 125 125 127 119 119 121 113 113 115 133 133 135 138 138 140 142 142 144 145 145 147 136 136 138 116 116 118 128 128 130 132 132 134 134 134 136 127 127 129 122 122 124 124 124 126 130 130 132 135 135 137 122 122 124 142 142 144 122 122 124 138 138 140 115 115 117 135 135 137 141 141 143 118 118 120 113 113 115 115 115 117 120 120 122 115 115 117 144 144 146 119 119 121 119 119 121 133 133 135 143 143 145 118 118 120 123 123 125 139 139 141 144 144 146 130 130 132 120 120 122 144 144 146 120 120 122 131 131 133 135 135 137 143 143 145 126 126 128 124 124 126 123 123 125 142 142 144 126 126 128 132 132 134 135 135 137 143 143 145 127 127 129 142 142 144 134 134 136 112 112 114 143 143 145 142 142 144 116 116 118 121 121 123 136 136 138 136 136 138 137 137 139 127 127 129 117 117 119 133 133 135 143 143 145 119 119 121 142 142 144 125 125 127 137 137 139 113 113 115 143 143 145 115 115 117 113 113 115 134 134 136 116 116 118 143 143 145 126 126 128 131 131 133 132 132 134 112 112 114 135 135 137 136 136 138 143 143 145 135 135 137 117 117 119 136 136 138 137 137 139 137 137 139 139 139 141 143 143 145 141 141 143 112 112 114 136 136 138 116 116 118 127 127 129 119 119 121 139 139 141 118 118 120 130 130 132 120 120 122 136 136 138 120 120 122 131 131 133 115 115 117 126 126 128 127 127 129 118 118 120 133 133 135 119 119 121 133 133 135 
90 90 90 90 90 90 90 90 90 90 90 90 90 90 90 90 90 90 90 90 90 90 90 90 90 90 90 90 90 90 90 90 90 90 90 90 90 90 90 90 90 90 90 90 90 90 90 90 90 90 90 90 90 90 90 90 90 90 90 90 90 90 90 90 90 90 90 90 90 90 90 90 90 90 90 90 90 90 90 90 90 90 90 90 90 90 90 90 90 90 90 90 90 90 90 90 90 90 90 90 90 90 90 90 90 90 90 90 90 90 90 90 90 90 90 90 90 90 90 90 90 90 90 90 90 90 90 90 90 90 90 90 90 90 90 90 90 90 90 90 90 90 90 90 90 90 90 90 90 90 90 90 90 90 90 90 90 90 90 90 90 90 90 90 90 90 90 90 90 90 90 90 90 90 90 90 90 90 90 90 90 90 90 90 90 90 90 90 90 90 90 90 90 90 90 90 90 90 90 90 90 90 90 90 90 90 90 90 90 90 90 90 90 90 90 90 90 90 90 90 90 90 90 90 90 90 90 90 90 90 90 90 90 90 90 90 90 90 90 90 90 90 90 90 90 90 90 90 90 90 90 90 90 90 90 90 90 90 90 90 90 90 90 90 90 90 90 90 90 90 90 90 90 90 90 90 90 90 90 90 90 90 90 90 90 90 90 90 90 90 90 90 90 90 90 90 90 90 90 90 90 90 90 90 90 90 90 90 90 90 90 90 90 90 90 90 90 90 90 90 90 90 90 90 90 90 90 90 90 90 90 90 90 90 90 90 90 90 90 90 90 90 90 90 90 90 90 90 90 90 90 90 90 90 90 90 90 90 90 90 90 90 90 90 90 90 90 90 90 90 90 90 90 90 90 90 90 90 90 90 90 90 90 90 90 90 90 90 90 90 90 90 90 90 90 90 90 90 90 90 90 90 90 90 90 90 90 90 90 90 90 90 90 90 90 90 90 90 90 90 90 90 90 90 90 90 90 90 90 90 90 90 90 90 90 90 90 90 90 90 90 90 90 90 90 90 90 90 90 90 90 90 90 90 90 90 90 90 90 90 90 90 90 90 90 90 90 90 90 90 90 90 90 90 90 90 90 90 90 90 90 90 90 90 90 90 90 90 90 90 90 90 90 90 90 90 90 90 90 90 90 90 90 90 90 90 90 90 90 90 90 90 90 90 90 90 90 90 90 90 90 90 90 90 90 90 90 90 90 90 90 90 90 90 90 90 90 90 90 90 90 90 90 90 90 90 90 90 90 90 90 90 90 90 90 90 90 90 90 90 90 90 90 90 90 90 90 90 90 90 90 90 90 90 90 90 90 90 90 90 90 90 90 90 90 90 90 90 90 90 90 90 90 90 90 90 90 90 90 90 90 90 90 90 90 90 90 90 90 90 90 90 90 90 90 90 90 90 90 90 90 90 90 90 90 90 90 90 90 90 90 90 90 90 90 90 90 90 90 90 90 90 90 90 90 90 90 90 90 90 90 90 90 90 90 90 90 90 90 90 90 90 90 90 90 90 90 90 90 90 90 90 90 90 90 90 90 90 90 90 90 90 90 90 90 90 90 90 90 90 90 90 90 90 90 90 90 90 90 90 90 90 90 90 90 90 90 90 90 90 90 90 90 90 90 90 90 90 90 90 90 90 90 90 90 90 90 90 90 90 90 90 90 90 90 90 90 90 90 90 90 90 90 90 90 90 90 90 90 90 90 90 90 90 90 90 90 90 90 90 90 90 90 90 90 90 90 90 
117 117 119 118 118 120 129 129 131 126 126 128 123 123 125 119 119 121 118 118 120 118 118 120 128 128 130 120 120 122 137 137 139 140 140 142 145 145 147 123 123 125 138 138 140 137 137 139 141 141 143 144 144 146 124 124 126 140 140 142 115 115 117 120 120 122 133 133 135 131 131 133 137 137 139 132 132 134 143 143 145 128 128 130 123 123 125 125 125 127 126 126 128 139 139 141 121 121 123 129 129 131 141 141 143 125 125 127 123 123 125 126 126 128 121 121 123 118 118 120 139 139 141 133 133 135 145 145 147 132 132 134 131 131 133 112 112 114 138 138 140 136 136 138 115 115 117 140 140 142 140 140 142 121 121 123 140 140 142 136 136 138 129 129 131 128 128 130 120 120 122 135 135 137 140 140 142 123 123 125 145 145 147 143 143 145 142 142 144 124 124 126 119 119 121 126 126 128 126 126 128 120 120 122 120 120 122 137 137 139 112 112 114 136 136 138 125 125 127 147 147 149 136 136 138 133 133 135 145 145 147 114 114 116 136 136 138 121 121 123 132 132 134 114 114 116 122 122 124 134 134 136 135 135 137 118 118 120 133 133 135 133 133 135 125 125 127 131 131 133 128 128 130 134 134 136 114 114 116 121 121 123 127 127 129 141 141 143 122 122 124 111 111 113 123 123 125 117 117 119 127 127 129 140 140 142 131 131 133 126 126 128 130 130 132 124 124 126 112 112 114 139 139 141 126 126 128 140 140 142 113 113 115 126 126 128 133 133 135 114 114 116 120 120 122 123 123 125 124 124 126 116 116 118 117 117 119 117 117 119 145 145 147 138 138 140 137 137 139 137 137 139 131 131 133 122 122 124 132 132 134 127 127 129 124 124 126 120 120 122 143 143 145 128 128 130 130 130 132 120 120 122 129 129 131 143 143 145 126 126 128 132 132 134 114 114 116 140 140 142 122 122 124 134 134 136 126 126 128 131 131 133 130 130 132 116 116 118 140 140 142 133 133 135 133 133 135 137 137 139 126 126 128 116 116 118 126 126 128 123 123 125 111 111 113 138 138 140 116 116 118 139 139 141 138 138 140 122 122 124 135 135 137 144 144 146 137 137 139 144 144 146 117 117 119 126 126 128 136 136 138 136 136 138 141 141 143 138 138 140 125 125 127 118 118 120 142 142 144 121 121 123 141 141 143 125 125 127 115 115 117 137 137 139 113 113 115 143 143 145 132 132 134 124 124 126 115 115 117 135 135 137 119 119 121 132 132 134 142 142 144 122 122 124 127 127 129 117 117 119 141 141 143 123 123 125 137 137 139 115 115 117 138 138 140 143 143 145 119 119 121 122 122 124 125 125 127 124 124 126 144 144 146 133 133 135 117 117 119 119 119 121 117 117 119 124 124 126 115 115 117 122 122 124 144 144 146 115 115 117 126 126 128 138 138 140 133 133 135 115 115 117 137 137 139 137 137 139 131 131 133 116 116 118 133 133 135 122 122 124 137 137 139 130 130 132 129 129 131 125 125 127 120 120 122 132 132 134 117 117 119 137 137 139 120 120 122 137 137 139 130 130 132 136 136 138 121 121 123 119 119 121 140 140 142 115 115 117 145 145 147 116 116 118 123 123 125 123 123 125 143 143 145 132 132 134 129 129 131 135 135 137 130 130 132 130 130 132 142 142 144 114 114 116 140 140 142 140 140 142 114 114 116 132 132 134 142 142 144 116 116 118 141 141 143 137 137 139 
124 124 126 124 124 126 141 141 143 144 144 146 118 118 120 124 124 126 142 142 144 139 139 141 141 141 143 127 127 129 115 115 117 141 141 143 114 114 116 140 140 142 138 138 140 126 126 128 121 121 123 117 117 119 124 124 126 137 137 139 117 117 119 113 113 115 126 126 128 113 113 115 131 131 133 120 120 122 132 132 134 116 116 118 139 139 141 121 121 123 116 116 118 146 146 148 132 132 134 140 140 142 131 131 133 125 125 127 113 113 115 141 141 143 113 113 115 142 142 144 116 116 118 136 136 138 146 146 148 132 132 134 141 141 143 127 127 129 130 130 132 116 116 118 123 123 125 126 126 128 122 122 124 144 144 146 130 130 132 117 117 119 122 122 124 130 130 132 133 133 135 132 132 134 120 120 122 123 123 125 133 133 135 127 127 129 123 123 125 128 128 130 125 125 127 121 121 123 121 121 123 143 143 145 139 139 141 113 113 115 115 115 117 131 131 133 125 125 127 126 126 128 118 118 120 130 130 132 130 130 132 141 141 143 130 130 132 130 130 132 129 129 131 121 121 123 118 118 120 140 140 142 116 116 118 112 112 114 136 136 138 127 127 129 125 125 127 142 142 144 139 139 141 121 121 123 124 124 126 135 135 137 121 121 123 137 137 139 130 130 132 123 123 125 121 121 123 138 138 140 117 117 119 120 120 122 132 132 134 141 141 143 139 139 141 113 113 115 130 130 132 115 115 117 114 114 116 138 138 140 123 123 125 139 139 141 129 129 131 135 135 137 126 126 128 132 132 134 146 146 148 141 141 143 119 119 121 138 138 140 119 119 121 122 122 124 115 115 117 123 123 125 120 120 122 128 128 130 139 139 141 126 126 128 131 131 133 146 146 148 136 136 138 125 125 127 129 129 131 117 117 119 119 119 121 140 140 142 139 139 141 131 131 133 116 116 118 122 122 124 141 141 143 126 126 128 141 141 143 134 134 136 133 133 135 135 135 137 117 117 119 138 138 140 129 129 131 121 121 123 131 131 133 110 110 112 114 114 116 141 141 143 124 124 126 118 118 120 141 141 143 128 128 130 134 134 136 139 139 141 131 131 133 124 124 126 130 130 132 123 123 125 119 119 121 145 145 147 118 118 120 132 132 134 118 118 120 128 128 130 131 131 133 127 127 129 123 123 125 138 138 140 136 136 138 127 127 129 121 121 123 119 119 121 130 130 132 137 137 139 133 133 135 117 117 119 121 121 123 125 125 127 125 125 127 139 139 141 144 144 146 130 130 132 113 113 115 142 142 144 144 144 146 129 129 131 121 121 123 140 140 142 133 133 135 115 115 117 143 143 145 125 125 127 134 134 136 119 119 121 126 126 128 133 133 135 124 124 126 143 143 145 139 139 141 138 138 140 142 142 144 130 130 132 141 141 143 142 142 144 120 120 122 134 134 136 119 119 121 138 138 140 135 135 137 138 138 140 121 121 123 114 114 116 123 123 125 132 132 134 117 117 119 124 124 126 114 114 116 145 145 147 121 121 123 118 118 120 138 138 140 130 130 132 130 130 132 111 111 113 135 135 137 138 138 140 131 131 133 129 129 131 130 130 132 141 141 143 118 118 120 131 131 133 119 119 121 119 119 121 144 144 146 131 131 133 126 126 128 132 132 134 128 128 130 130 130 132 117 117 119 126 126 128 132 132 134 137 137 139 140 140 142 132 132 134 119 119 121 124 124 126 142 142 144 129 129 131 
115 115 117 114 114 116 142 142 144 133 133 135 136 136 138 136 136 138 133 133 135 136 136 138 130 130 132 112 112 114 138 138 140 124 124 126 144 144 146 126 126 128 121 121 123 140 140 142 139 139 141 139 139 141 144 144 146 112 112 114 143 143 145 130 130 132 141 141 143 113 113 115 136 136 138 115 115 117 136 136 138 123 123 125 143 143 145 139 139 141 132 132 134 134 134 136 136 136 138 125 125 127 138 138 140 130 130 132 120 120 122 140 140 142 130 130 132 124 124 126 117 117 119 118 118 120 138 138 140 121 121 123 136 136 138 120 120 122 141 141 143 129 129 131 124 124 126 128 128 130 121 121 123 139 139 141 132 132 134 115 115 117 123 123 125 144 144 146 127 127 129 117 117 119 143 143 145 136 136 138 126 126 128 133 133 135 130 130 132 139 139 141 140 140 142 142 142 144 131 131 133 117 117 119 122 122 124 138 138 140 135 135 137 129 129 131 139 139 141 115 115 117 123 123 125 127 127 129 113 113 115 135 135 137 134 134 136 123 123 125 131 131 133 128 128 130 139 139 141 134 134 136 120 120 122 140 140 142 121 121 123 131 131 133 139 139 141 132 132 134 140 140 142 126 126 128 140 140 142 123 123 125 117 117 119 128 128 130 124 124 126 126 126 128 140 140 142 119 119 121 127 127 129 136 136 138 116 116 118 142 142 144 119 119 121 139 139 141 117 117 119 146 146 148 116 116 118 137 137 139 135 135 137 122 122 124 134 134 136 112 112 114 125 125 127 121 121 123 124 124 126 118 118 120 139 139 141 132 132 134 126 126 128 142 142 144 130 130 132 133 133 135 119 119 121 118 118 120 132 132 134 124 124 126 127 127 129 128 128 130 138 138 140 132 132 134 114 114 116 140 140 142 117 117 119 117 117 119 125 125 127 141 141 143 127 127 129 142 142 144 142 142 144 119 119 121 133 133 135 123 123 125 129 129 131 134 134 136 123 123 125 115 115 117 115 115 117 142 142 144 137 137 139 137 137 139 125 125 127 121 121 123 140 140 142 134 134 136 128 128 130 128 128 130 145 145 147 116 116 118 128 128 130 140 140 142 125 125 127 145 145 147 144 144 146 129 129 131 139 139 141 122 122 124 127 127 129 113 113 115 126 126 128 125 125 127 136 136 138 126 126 128 130 130 132 122 122 124 141 141 143 136 136 138 117 117 119 141 141 143 141 141 143 129 129 131 132 132 134 126 126 128 121 121 123 135 135 137 126 126 128 140 140 142 130 130 132 126 126 128 127 127 129 122 122 124 118 118 120 134 134 136 144 144 146 132 132 134 135 135 137 145 145 147 121 121 123 143 143 145 118 118 120 124 124 126 124 124 126 120 120 122 119 119 121 116 116 118 121 121 123 136 136 138 125 125 127 120 120 122 128 128 130 133 133 135 125 125 127 141 141 143 132 132 134 140 140 142 141 141 143 126 126 128 133 133 135 136 136 138 114 114 116 128 128 130 131 131 133 123 123 125 139 139 141 145 145 147 135 135 137 138 138 140 131 131 133 130 130 132 130 130 132 132 132 134 116 116 118 132 132 134 127 127 129 139 139 141 133 133 135 135 135 137 115 115 117 136 136 138 131 131 133 113 113 115 128 128 130 123 123 125 120 120 122 128 128 130 127 127 129 129 129 131 142 142 144 118 118 120 127 127 129 140 140 142 116 116 118 125 125 127 123 123 125 141 141 143 
139 139 141 141 141 143 118 118 120 119 119 121 128 128 130 132 132 134 135 135 137 134 134 136 137 137 139 122 122 124 124 124 126 123 123 125 131 131 133 132 132 134 145 145 147 140 140 142 142 142 144 123 123 125 144 144 146 119 119 121 124 124 126 113 113 115 139 139 141 139 139 141 113 113 115 121 121 123 111 111 113 118 118 120 142 142 144 146 146 148 116 116 118 119 119 121 133 133 135 135 135 137 112 112 114 124 124 126 118 118 120 139 139 141 119 119 121 145 145 147 130 130 132 131 131 133 125 125 127 132 132 134 124 124 126 144 144 146 126 126 128 133 133 135 126 126 128 117 117 119 140 140 142 131 131 133 134 134 136 136 136 138 138 138 140 124 124 126 138 138 140 124 124 126 128 128 130 139 139 141 120 120 122 115 115 117 128 128 130 137 137 139 120 120 122 129 129 131 136 136 138 121 121 123 113 113 115 141 141 143 132 132 134 145 145 147 127 127 129 121 121 123 145 145 147 139 139 141 146 146 148 133 133 135 130 130 132 138 138 140 143 143 145 138 138 140 139 139 141 144 144 146 136 136 138 113 113 115 117 117 119 120 120 122 123 123 125 111 111 113 134 134 136 142 142 144 142 142 144 132 132 134 117 117 119 116 116 118 130 130 132 113 113 115 119 119 121 125 125 127 145 145 147 118 118 120 129 129 131 129 129 131 146 146 148 133 133 135 134 134 136 113 113 115 129 129 131 118 118 120 116 116 118 120 120 122 130 130 132 137 137 139 130 130 132 135 135 137 138 138 140 144 144 146 114 114 116 133 133 135 125 125 127 120 120 122 133 133 135 113 113 115 116 116 118 115 115 117 138 138 140 139 139 141 127 127 129 120 120 122 119 119 121 125 125 127 140 140 142 125 125 127 115 115 117 133 133 135 129 129 131 123 123 125 129 129 131 123 123 125 140 140 142 137 137 139 120 120 122 135 135 137 136 136 138 128 128 130 133 133 135 140 140 142 115 115 117 136 136 138 128 128 130 136 136 138 115 115 117 142 142 144 141 141 143 144 144 146 132 132 134 144 144 146 140 140 142 114 114 116 134 134 136 127 127 129 117 117 119 138 138 140 132 132 134 128 128 130 134 134 136 111 111 113 131 131 133 128 128 130 137 137 139 129 129 131 121 121 123 117 117 119 115 115 117 121 121 123 128 128 130 121 121 123 134 134 136 117 117 119 115 115 117 128 128 130 122 122 124 123 123 125 120 120 122 130 130 132 130 130 132 122 122 124 139 139 141 131 131 133 134 134 136 132 132 134 136 136 138 117 117 119 140 140 142 131 131 133 142 142 144 131 131 133 119 119 121 137 137 139 123 123 125 130 130 132 140 140 142 133 133 135 116 116 118 137 137 139 142 142 144 141 141 143 135 135 137 120 120 122 117 117 119 143 143 145 122 122 124 136 136 138 123 123 125 130 130 132 121 121 123 123 123 125 133 133 135 128 128 130 119 119 121 139 139 141 139 139 141 126 126 128 130 130 132 128 128 130 119 119 121 114 114 116 128 128 130 115 115 117 126 126 128 133 133 135 134 134 136 141 141 143 133 133 135 138 138 140 131 131 133 143 143 145 119 119 121 118 118 120 131 131 133 137 137 139 136 136 138 121 121 123 138 138 140 138 138 140 122 122 124 127 127 129 121 121 123 139 139 141 116 116 118 122 122 124 139 139 141 138 138 140 124 124 126 125 125 127 
129 129 131 131 131 133 142 142 144 135 135 137 117 117 119 143 143 145 128 128 130 129 129 131 119 119 121 120 120 122 142 142 144 114 114 116 137 137 139 144 144 146 130 130 132 128 128 130 132 132 134 131 131 133 129 129 131 127 127 129 132 132 134 126 126 128 140 140 142 127 127 129 120 120 122 122 122 124 116 116 118 120 120 122 133 133 135 127 127 129 128 128 130 144 144 146 138 138 140 134 134 136 138 138 140 122 122 124 132 132 134 117 117 119 118 118 120 117 117 119 117 117 119 136 136 138 140 140 142 129 129 131 134 134 136 129 129 131 131 131 133 134 134 136 117 117 119 137 137 139 116 116 118 141 141 143 126 126 128 132 132 134 116 116 118 122 122 124 123 123 125 130 130 132 121 121 123 119 119 121 129 129 131 114 114 116 130 130 132 122 122 124 137 137 139 134 134 136 136 136 138 123 123 125 144 144 146 127 127 129 127 127 129 127 127 129 113 113 115 133 133 135 137 137 139 141 141 143 124 124 126 133 133 135 137 137 139 127 127 129 125 125 127 130 130 132 132 132 134 117 117 119 117 117 119 128 128 130 128 128 130 122 122 124 145 145 147 135 135 137 141 141 143 123 123 125 124 124 126 130 130 132 133 133 135 120 120 122 125 125 127 143 143 145 118 118 120 130 130 132 120 120 122 142 142 144 112 112 114 143 143 145 128 128 130 140 140 142 135 135 137 127 127 129 129 129 131 136 136 138 137 137 139 145 145 147 114 114 116 126 126 128 138 138 140 125 125 127 134 134 136 120 120 122 142 142 144 141 141 143 123 123 125 137 137 139 136 136 138 113 113 115 134 134 136 116 116 118 123 123 125 129 129 131 129 129 131 129 129 131 120 120 122 128 128 130 135 135 137 137 137 139 143 143 145 115 115 117 139 139 141 126 126 128 137 137 139 124 124 126 125 125 127 144 144 146 118 118 120 125 125 127 123 123 125 118 118 120 143 143 145 123 123 125 138 138 140 125 125 127 132 132 134 114 114 116 136 136 138 125 125 127 145 145 147 136 136 138 139 139 141 135 135 137 128 128 130 128 128 130 116 116 118 124 124 126 124 124 126 122 122 124 123 123 125 128 128 130 120 120 122 147 147 149 122 122 124 136 136 138 114 114 116 140 140 142 132 132 134 117 117 119 138 138 140 114 114 116 133 133 135 126 126 128 119 119 121 142 142 144 140 140 142 135 135 137 121 121 123 131 131 133 140 140 142 142 142 144 117 117 119 118 118 120 143 143 145 111 111 113 137 137 139 116 116 118 129 129 131 135 135 137 138 138 140 130 130 132 141 141 143 116 116 118 120 120 122 133 133 135 141 141 143 115 115 117 122 122 124 124 124 126 127 127 129 135 135 137 131 131 133 120 120 122 129 129 131 121 121 123 141 141 143 130 130 132 143 143 145 128 128 130 119 119 121 123 123 125 126 126 128 128 128 130 116 116 118 133 133 135 146 146 148 141 141 143 126 126 128 119 119 121 130 130 132 135 135 137 115 115 117 116 116 118 140 140 142 138 138 140 118 118 120 136 136 138 129 129 131 123 123 125 135 135 137 128 128 130 121 121 123 124 124 126 141 141 143 115 115 117 137 137 139 143 143 145 133 133 135 125 125 127 117 117 119 138 138 140 143 143 145 128 128 130 140 140 142 140 140 142 112 112 114 139 139 141 132 132 134 134 134 136 131 131 133 145 145 147 
118 118 120 122 122 124 127 127 129 124 124 126 117 117 119 112 112 114 118 118 120 134 134 136 130 130 132 124 124 126 115 115 117 143 143 145 126 126 128 139 139 141 120 120 122 145 145 147 123 123 125 125 125 127 140 140 142 117 117 119 137 137 139 121 121 123 144 144 146 116 116 118 114 114 116 137 137 139 123 123 125 136 136 138 132 132 134 115 115 117 123 123 125 123 123 125 119 119 121 117 117 119 138 138 140 135 135 137 127 127 129 122 122 124 135 135 137 133 133 135 121 121 123 127 127 129 129 129 131 132 132 134 135 135 137 132 132 134 135 135 137 144 144 146 139 139 141 115 115 117 136 136 138 141 141 143 138 138 140 127 127 129 120 120 122 129 129 131 133 133 135 122 122 124 119 119 121 141 141 143 120 120 122 112 112 114 142 142 144 130 130 132 140 140 142 115 115 117 118 118 120 136 136 138 125 125 127 142 142 144 123 123 125 115 115 117 136 136 138 140 140 142 141 141 143 143 143 145 115 115 117 143 143 145 134 134 136 129 129 131 125 125 127 142 142 144 125 125 127 118 118 120 131 131 133 124 124 126 119 119 121 115 115 117 114 114 116 142 142 144 124 124 126 126 126 128 128 128 130 136 136 138 122 122 124 122 122 124 120 120 122 119 119 121 142 142 144 115 115 117 122 122 124 140 140 142 129 129 131 143 143 145 121 121 123 141 141 143 131 131 133 126 126 128 129 129 131 134 134 136 140 140 142 127 127 129 126 126 128 113 113 115 115 115 117 130 130 132 142 142 144 117 117 119 137 137 139 126 126 128 138 138 140 126 126 128 132 132 134 126 126 128 116 116 118 122 122 124 134 134 136 142 142 144 114 114 116 130 130 132 141 141 143 132 132 134 137 137 139 133 133 135 140 140 142 133 133 135 130 130 132 125 125 127 140 140 142 133 133 135 140 140 142 116 116 118 118 118 120 127 127 129 126 126 128 115 115 117 113 113 115 121 121 123 136 136 138 133 133 135 125 125 127 115 115 117 131 131 133 117 117 119 131 131 133 144 144 146 119 119 121 139 139 141 121 121 123 124 124 126 121 121 123 121 121 123 119 119 121 137 137 139 129 129 131 123 123 125 143 143 145 130 130 132 113 113 115 117 117 119 128 128 130 138 138 140 136 136 138 137 137 139 119 119 121 126 126 128 116 116 118 137 137 139 145 145 147 130 130 132 113 113 115 134 134 136 118 118 120 140 140 142 127 127 129 137 137 139 114 114 116 128 128 130 135 135 137 137 137 139 131 131 133 124 124 126 115 115 117 127 127 129 114 114 116 136 136 138 132 132 134 127 127 129 135 135 137 119 119 121 116 116 118 125 125 127 134 134 136 139 139 141 122 122 124 137 137 139 117 117 119 133 133 135 132 132 134 122 122 124 116 116 118 137 137 139 128 128 130 145 145 147 130 130 132 121 121 123 143 143 145 134 134 136 124 124 126 127 127 129 140 140 142 130 130 132 115 115 117 122 122 124 121 121 123 122 122 124 116 116 118 121 121 123 124 124 126 124 124 126 143 143 145 122 122 124 131 131 133 117 117 119 140 140 142 127 127 129 127 127 129 136 136 138 137 137 139 115 115 117 126 126 128 133 133 135 121 121 123 127 127 129 141 141 143 133 133 135 140 140 142 134 134 136 121 121 123 122 122 124 131 131 133 131 131 133 117 117 119 131 131 133 135 135 137 111 111 113 
137 137 139 141 141 143 133 133 135 119 119 121 137 137 139 125 125 127 115 115 117 140 140 142 113 113 115 124 124 126 114 114 116 115 115 117 141 141 143 125 125 127 134 134 136 136 136 138 127 127 129 135 135 137 129 129 131 130 130 132 122 122 124 134 134 136 135 135 137 126 126 128 120 120 122 133 133 135 125 125 127 140 140 142 123 123 125 137 137 139 132 132 134 130 130 132 144 144 146 133 133 135 127 127 129 126 126 128 117 117 119 134 134 136 124 124 126 115 115 117 126 126 128 135 135 137 142 142 144 134 134 136 144 144 146 127 127 129 131 131 133 125 125 127 124 124 126 123 123 125 121 121 123 124 124 126 138 138 140 142 142 144 132 132 134 138 138 140 119 119 121 125 125 127 143 143 145 138 138 140 137 137 139 123 123 125 136 136 138 135 135 137 121 121 123 119 119 121 120 120 122 125 125 127 140 140 142 133 133 135 115 115 117 126 126 128 119 119 121 140 140 142 137 137 139 131 131 133 121 121 123 134 134 136 117 117 119 129 129 131 110 110 112 135 135 137 134 134 136 136 136 138 116 116 118 144 144 146 141 141 143 141 141 143 130 130 132 129 129 131 136 136 138 132 132 134 123 123 125 134 134 136 130 130 132 138 138 140 128 128 130 125 125 127 133 133 135 116 116 118 140 140 142 134 134 136 118 118 120 121 121 123 112 112 114 115 115 117 134 134 136 120 120 122 134 134 136 126 126 128 127 127 129 142 142 144 123 123 125 118 118 120 122 122 124 132 132 134 120 120 122 122 122 124 122 122 124 134 134 136 127 127 129 119 119 121 133 133 135 123 123 125 141 141 143 137 137 139 132 132 134 115 115 117 125 125 127 142 142 144 135 135 137 126 126 128 144 144 146 131 131 133 143 143 145 117 117 119 121 121 123 131 131 133 124 124 126 146 146 148 115 115 117 126 126 128 129 129 131 120 120 122 128 128 130 120 120 122 131 131 133 136 136 138 128 128 130 141 141 143 140 140 142 142 142 144 118 118 120 134 134 136 132 132 134 115 115 117 134 134 136 112 112 114 144 144 146 123 123 125 118 118 120 134 134 136 133 133 135 116 116 118 125 125 127 118 118 120 142 142 144 136 136 138 120 120 122 129 129 131 146 146 148 128 128 130 133 133 135 119 119 121 124 124 126 132 132 134 130 130 132 146 146 148 134 134 136 136 136 138 113 113 115 110 110 112 121 121 123 134 134 136 145 145 147 134 134 136 136 136 138 128 128 130 124 124 126 129 129 131 138 138 140 137 137 139 129 129 131 118 118 120 118 118 120 128 128 130 118 118 120 130 130 132 143 143 145 137 137 139 126 126 128 118 118 120 129 129 131 137 137 139 140 140 142 146 146 148 139 139 141 123 123 125 127 127 129 146 146 148 130 130 132 123 123 125 121 121 123 124 124 126 117 117 119 113 113 115 127 127 129 131 131 133 143 143 145 126 126 128 141 141 143 137 137 139 130 130 132 142 142 144 114 114 116 128 128 130 122 122 124 141 141 143 125 125 127 119 119 121 125 125 127 135 135 137 126 126 128 140 140 142 126 126 128 125 125 127 137 137 139 134 134 136 126 126 128 130 130 132 140 140 142 122 122 124 127 127 129 117 117 119 127 127 129 126 126 128 141 141 143 124 124 126 139 139 141 117 117 119 118 118 120 126 126 128 122 122 124 119 119 121 144 144 146 137 137 139 
123 123 125 131 131 133 123 123 125 126 126 128 133 133 135 131 131 133 133 133 135 140 140 142 133 133 135 116 116 118 123 123 125 126 126 128 141 141 143 127 127 129 128 128 130 131 131 133 129 129 131 136 136 138 117 117 119 138 138 140 140 140 142 117 117 119 117 117 119 134 134 136 113 113 115 125 125 127 122 122 124 116 116 118 114 114 116 118 118 120 131 131 133 114 114 116 114 114 116 135 135 137 126 126 128 122 122 124 131 131 133 119 119 121 138 138 140 114 114 116 142 142 144 119 119 121 118 118 120 126 126 128 138 138 140 137 137 139 122 122 124 139 139 141 129 129 131 115 115 117 133 133 135 132 132 134 143 143 145 121 121 123 133 133 135 117 117 119 132 132 134 138 138 140 114 114 116 142 142 144 141 141 143 139 139 141 140 140 142 138 138 140 127 127 129 117 117 119 131 131 133 129 129 131 137 137 139 125 125 127 118 118 120 131 131 133 129 129 131 115 115 117 123 123 125 139 139 141 141 141 143 135 135 137 127 127 129 123 123 125 119 119 121 141 141 143 112 112 114 118 118 120 113 113 115 133 133 135 117 117 119 139 139 141 121 121 123 113 113 115 116 116 118 134 134 136 113 113 115 123 123 125 121 121 123 127 127 129 123 123 125 130 130 132 124 124 126 113 113 115 128 128 130 133 133 135 134 134 136 131 131 133 120 120 122 136 136 138 132 132 134 122 122 124 124 124 126 132 132 134 129 129 131 138 138 140 138 138 140 123 123 125 135 135 137 115 115 117 121 121 123 115 115 117 122 122 124 128 128 130 124 124 126 139 139 141 132 132 134 118 118 120 139 139 141 140 140 142 140 140 142 132 132 134 130 130 132 116 116 118 120 120 122 136 136 138 129 129 131 119 119 121 115 115 117 121 121 123 135 135 137 118 118 120 118 118 120 125 125 127 128 128 130 141 141 143 128 128 130 118 118 120 129 129 131 132 132 134 139 139 141 135 135 137 132 132 134 119 119 121 132 132 134 130 130 132 124 124 126 113 113 115 129 129 131 138 138 140 144 144 146 121 121 123 128 128 130 142 142 144 121 121 123 138 138 140 115 115 117 129 129 131 113 113 115 119 119 121 127 127 129 142 142 144 135 135 137 119 119 121 111 111 113 117 117 119 133 133 135 127 127 129 136 136 138 144 144 146 117 117 119 122 122 124 139 139 141 139 139 141 131 131 133 128 128 130 124 124 126 137 137 139 139 139 141 143 143 145 126 126 128 119 119 121 129 129 131 120 120 122 134 134 136 121 121 123 116 116 118 138 138 140 122 122 124 133 133 135 138 138 140 133 133 135 111 111 113 127 127 129 120 120 122 136 136 138 142 142 144 138 138 140 116 116 118 130 130 132 135 135 137 137 137 139 118 118 120 119 119 121 116 116 118 122 122 124 122 122 124 114 114 116 129 129 131 133 133 135 120 120 122 132 132 134 131 131 133 119 119 121 116 116 118 141 141 143 116 116 118 117 117 119 114 114 116 114 114 116 130 130 132 136 136 138 139 139 141 133 133 135 129 129 131 127 127 129 134 134 136 134 134 136 123 123 125 135 135 137 138 138 140 132 132 134 117 117 119 136 136 138 121 121 123 134 134 136 119 119 121 137 137 139 140 140 142 124 124 126 133 133 135 115 115 117 128 128 130 122 122 124 129 129 131 136 136 138 125 125 127 138 138 140 123 123 125 123 123 125 
145 145 147 126 126 128 138 138 140 129 129 131 130 130 132 114 114 116 141 141 143 135 135 137 142 142 144 118 118 120 140 140 142 143 143 145 142 142 144 131 131 133 134 134 136 145 145 147 141 141 143 137 137 139 128 128 130 138 138 140 128 128 130 119 119 121 137 137 139 133 133 135 136 136 138 142 142 144 123 123 125 121 121 123 117 117 119 137 137 139 123 123 125 115 115 117 120 120 122 126 126 128 136 136 138 139 139 141 130 130 132 118 118 120 121 121 123 120 120 122 119 119 121 121 121 123 139 139 141 140 140 142 140 140 142 118 118 120 121 121 123 145 145 147 134 134 136 132 132 134 125 125 127 139 139 141 115 115 117 120 120 122 126 126 128 115 115 117 145 145 147 129 129 131 128 128 130 122 122 124 131 131 133 133 133 135 139 139 141 117 117 119 136 136 138 124 124 126 123 123 125 139 139 141 136 136 138 122 122 124 124 124 126 122 122 124 116 116 118 118 118 120 120 120 122 132 132 134 141 141 143 113 113 115 136 136 138 122 122 124 145 145 147 142 142 144 134 134 136 147 147 149 139 139 141 143 143 145 119 119 121 127 127 129 133 133 135 121 121 123 115 115 117 127 127 129 124 124 126 141 141 143 117 117 119 131 131 133 113 113 115 137 137 139 116 116 118 113 113 115 119 119 121 119 119 121 140 140 142 123 123 125 136 136 138 117 117 119 127 127 129 122 122 124 130 130 132 143 143 145 125 125 127 128 128 130 127 127 129 141 141 143 110 110 112 137 137 139 143 143 145 120 120 122 113 113 115 142 142 144 131 131 133 139 139 141 130 130 132 116 116 118 133 133 135 129 129 131 132 132 134 119 119 121 113 113 115 142 142 144 136 136 138 136 136 138 130 130 132 116 116 118 130 130 132 115 115 117 137 137 139 113 113 115 129 129 131 136 136 138 121 121 123 136 136 138 133 133 135 114 114 116 129 129 131 133 133 135 140 140 142 132 132 134 133 133 135 120 120 122 135 135 137 141 141 143 120 120 122 136 136 138 122 122 124 138 138 140 144 144 146 123 123 125 115 115 117 144 144 146 133 133 135 129 129 131 131 131 133 121 121 123 118 118 120 128 128 130 131 131 133 126 126 128 140 140 142 120 120 122 120 120 122 119 119 121 143 143 145 118 118 120 127 127 129 120 120 122 117 117 119 139 139 141 138 138 140 131 131 133 129 129 131 127 127 129 117 117 119 130 130 132 138 138 140 124 124 126 127 127 129 127 127 129 135 135 137 138 138 140 138 138 140 117 117 119 115 115 117 133 133 135 144 144 146 127 127 129 136 136 138 126 126 128 126 126 128 132 132 134 141 141 143 132 132 134 130 130 132 137 137 139 129 129 131 126 126 128 137 137 139 111 111 113 131 131 133 140 140 142 140 140 142 121 121 123 132 132 134 126 126 128 112 112 114 145 145 147 129 129 131 143 143 145 139 139 141 141 141 143 134 134 136 143 143 145 140 140 142 123 123 125 116 116 118 141 141 143 117 117 119 118 118 120 139 139 141 137 137 139 140 140 142 112 112 114 143 143 145 137 137 139 131 131 133 135 135 137 111 111 113 140 140 142 114 114 116 121 121 123 112 112 114 131 131 133 120 120 122 121 121 123 133 133 135 136 136 138 123 123 125 110 110 112 144 144 146 127 127 129 128 128 130 132 132 134 124 124 126 129 129 131 136 136 138 143 143 145 
137 137 139 142 142 144 130 130 132 142 142 144 131 131 133 125 125 127 120 120 122 116 116 118 127 127 129 115 115 117 121 121 123 126 126 128 141 141 143 129 129 131 141 141 143 131 131 133 134 134 136 140 140 142 128 128 130 129 129 131 117 117 119 127 127 129 133 133 135 134 134 136 126 126 128 140 140 142 146 146 148 123 123 125 125 125 127 141 141 143 124 124 126 119 119 121 138 138 140 126 126 128 138 138 140 121 121 123 132 132 134 141 141 143 135 135 137 144 144 146 122 122 124 131 131 133 116 116 118 138 138 140 125 125 127 117 117 119 115 115 117 136 136 138 114 114 116 117 117 119 115 115 117 136 136 138 142 142 144 125 125 127 143 143 145 130 130 132 118 118 120 126 126 128 129 129 131 119 119 121 124 124 126 119 119 121 117 117 119 143 143 145 144 144 146 114 114 116 145 145 147 144 144 146 134 134 136 141 141 143 136 136 138 113 113 115 128 128 130 113 113 115 117 117 119 139 139 141 124 124 126 120 120 122 130 130 132 137 137 139 141 141 143 130 130 132 127 127 129 131 131 133 139 139 141 128 128 130 139 139 141 133 133 135 126 126 128 118 118 120 130 130 132 117 117 119 113 113 115 130 130 132 134 134 136 126 126 128 142 142 144 138 138 140 134 134 136 118 118 120 141 141 143 111 111 113 131 131 133 131 131 133 143 143 145 125 125 127 126 126 128 117 117 119 133 133 135 136 136 138 125 125 127 129 129 131 132 132 134 145 145 147 119 119 121 130 130 132 132 132 134 129 129 131 139 139 141 140 140 142 127 127 129 118 118 120 136 136 138 132 132 134 122 122 124 142 142 144 134 134 136 130 130 132 135 135 137 125 125 127 140 140 142 142 142 144 112 112 114 131 131 133 142 142 144 132 132 134 141 141 143 137 137 139 145 145 147 123 123 125 122 122 124 119 119 121 130 130 132 140 140 142 115 115 117 117 117 119 144 144 146 126 126 128 128 128 130 131 131 133 116 116 118 138 138 140 136 136 138 127 127 129 117 117 119 132 132 134 120 120 122 140 140 142 138 138 140 121 121 123 121 121 123 133 133 135 135 135 137 120 120 122 118 118 120 133 133 135 125 125 127 124 124 126 120 120 122 141 141 143 126 126 128 135 135 137 119 119 121 117 117 119 125 125 127 135 135 137 133 133 135 123 123 125 132 132 134 115 115 117 115 115 117 132 132 134 132 132 134 122 122 124 121 121 123 117 117 119 123 123 125 123 123 125 130 130 132 137 137 139 130 130 132 129 129 131 134 134 136 133 133 135 124 124 126 122 122 124 114 114 116 138 138 140 135 135 137 118 118 120 125 125 127 117 117 119 127 127 129 119 119 121 142 142 144 126 126 128 132 132 134 112 112 114 115 115 117 130 130 132 139 139 141 131 131 133 134 134 136 126 126 128 126 126 128 139 139 141 138 138 140 112 112 114 127 127 129 122 122 124 125 125 127 121 121 123 116 116 118 142 142 144 117 117 119 139 139 141 114 114 116 127 127 129 130 130 132 114 114 116 115 115 117 140 140 142 133 133 135 132 132 134 125 125 127 139 139 141 124 124 126 136 136 138 126 126 128 141 141 143 116 116 118 116 116 118 132 132 134 113 113 115 139 139 141 144 144 146 124 124 126 136 136 138 138 138 140 123 123 125 142 142 144 133 133 135 116 116 118 110 110 112 136 136 138 117 117 119 
131 131 133 119 119 121 136 136 138 121 121 123 126 126 128 129 129 131 129 129 131 120 120 122 131 131 133 114 114 116 143 143 145 139 139 141 112 112 114 126 126 128 133 133 135 121 121 123 133 133 135 118 118 120 126 126 128 122 122 124 131 131 133 125 125 127 112 112 114 137 137 139 123 123 125 142 142 144 134 134 136 139 139 141 142 142 144 121 121 123 115 115 117 131 131 133 140 140 142 128 128 130 135 135 137 134 134 136 134 134 136 139 139 141 122 122 124 121 121 123 115 115 117 133 133 135 142 142 144 133 133 135 143 143 145 132 132 134 138 138 140 126 126 128 119 119 121 121 121 123 132 132 134 143 143 145 135 135 137 132 132 134 128 128 130 131 131 133 119 119 121 138 138 140 128 128 130 120 120 122 119 119 121 125 125 127 131 131 133 135 135 137 138 138 140 130 130 132 124 124 126 142 142 144 142 142 144 133 133 135 138 138 140 137 137 139 138 138 140 115 115 117 121 121 123 133 133 135 118 118 120 140 140 142 131 131 133 126 126 128 134 134 136 134 134 136 142 142 144 116 116 118 136 136 138 140 140 142 143 143 145 134 134 136 113 113 115 142 142 144 120 120 122 133 133 135 115 115 117 118 118 120 134 134 136 134 134 136 140 140 142 143 143 145 127 127 129 130 130 132 136 136 138 132 132 134 126 126 128 119 119 121 140 140 142 114 114 116 136 136 138 121 121 123 118 118 120 131 131 133 124 124 126 131 131 133 139 139 141 121 121 123 115 115 117 128 128 130 127 127 129 123 123 125 123 123 125 129 129 131 122 122 124 137 137 139 133 133 135 118 118 120 142 142 144 131 131 133 112 112 114 121 121 123 139 139 141 141 141 143 115 115 117 124 124 126 125 125 127 129 129 131 142 142 144 136 136 138 120 120 122 137 137 139 114 114 116 128 128 130 135 135 137 118 118 120 116 116 118 129 129 131 122 122 124 142 142 144 128 128 130 135 135 137 126 126 128 128 128 130 122 122 124 142 142 144 127 127 129 143 143 145 126 126 128 116 116 118 116 116 118 124 124 126 116 116 118 132 132 134 121 121 123 121 121 123 131 131 133 131 131 133 121 121 123 118 118 120 133 133 135 143 143 145 128 128 130 138 138 140 130 130 132 117 117 119 133 133 135 129 129 131 134 134 136 118 118 120 121 121 123 134 134 136 112 112 114 133 133 135 113 113 115 130 130 132 128 128 130 119 119 121 125 125 127 126 126 128 121 121 123 123 123 125 126 126 128 137 137 139 145 145 147 123 123 125 121 121 123 128 128 130 139 139 141 138 138 140 129 129 131 141 141 143 138 138 140 115 115 117 135 135 137 145 145 147 132 132 134 143 143 145 125 125 127 133 133 135 126 126 128 146 146 148 126 126 128 137 137 139 118 118 120 147 147 149 120 120 122 116 116 118 121 121 123 133 133 135 113 113 115 131 131 133 126 126 128 120 120 122 130 130 132 129 129 131 123 123 125 115 115 117 128 128 130 128 128 130 133 133 135 130 130 132 139 139 141 126 126 128 135 135 137 120 120 122 123 123 125 127 127 129 121 121 123 139 139 141 140 140 142 120 120 122 122 122 124 146 146 148 118 118 120 133 133 135 128 128 130 126 126 128 133 133 135 135 135 137 122 122 124 117 117 119 140 140 142 135 135 137 139 139 141 119 119 121 142 142 144 124 124 126 124 124 126 137 137 139 
127 127 129 128 128 130 120 120 122 124 124 126 122 122 124 127 127 129 138 138 140 118 118 120 128 128 130 139 139 141 125 125 127 142 142 144 131 131 133 129 129 131 114 114 116 117 117 119 116 116 118 138 138 140 137 137 139 138 138 140 133 133 135 115 115 117 123 123 125 117 117 119 111 111 113 120 120 122 142 142 144 119 119 121 118 118 120 136 136 138 127 127 129 138 138 140 116 116 118 137 137 139 129 129 131 124 124 126 118 118 120 129 129 131 126 126 128 130 130 132 129 129 131 140 140 142 111 111 113 131 131 133 143 143 145 122 122 124 117 117 119 140 140 142 143 143 145 141 141 143 129 129 131 120 120 122 142 142 144 142 142 144 129 129 131 119 119 121 124 124 126 132 132 134 133 133 135 137 137 139 136 136 138 132 132 134 127 127 129 124 124 126 120 120 122 140 140 142 130 130 132 140 140 142 121 121 123 129 129 131 143 143 145 115 115 117 114 114 116 127 127 129 133 133 135 128 128 130 128 128 130 122 122 124 138 138 140 116 116 118 116 116 118 127 127 129 138 138 140 116 116 118 122 122 124 140 140 142 129 129 131 129 129 131 124 124 126 126 126 128 137 137 139 132 132 134 120 120 122 116 116 118 131 131 133 143 143 145 145 145 147 143 143 145 134 134 136 136 136 138 136 136 138 128 128 130 112 112 114 134 134 136 130 130 132 121 121 123 141 141 143 139 139 141 120 120 122 134 134 136 128 128 130 143 143 145 117 117 119 114 114 116 135 135 137 124 124 126 124 124 126 139 139 141 127 127 129 126 126 128 117 117 119 142 142 144 133 133 135 117 117 119 128 128 130 132 132 134 125 125 127 128 128 130 144 144 146 130 130 132 129 129 131 121 121 123 138 138 140 141 141 143 124 124 126 144 144 146 120 120 122 120 120 122 144 144 146 134 134 136 145 145 147 117 117 119 141 141 143 140 140 142 118 118 120 128 128 130 135 135 137 128 128 130 124 124 126 145 145 147 128 128 130 113 113 115 145 145 147 118 118 120 140 140 142 114 114 116 128 128 130 117 117 119 127 127 129 143 143 145 117 117 119 130 130 132 113 113 115 122 122 124 142 142 144 136 136 138 121 121 123 141 141 143 118 118 120 140 140 142 145 145 147 123 123 125 131 131 133 124 124 126 115 115 117 133 133 135 121 121 123 119 119 121 116 116 118 139 139 141 145 145 147 121 121 123 130 130 132 120 120 122 138 138 140 140 140 142 118 118 120 123 123 125 144 144 146 129 129 131 134 134 136 114 114 116 120 120 122 132 132 134 124 124 126 132 132 134 131 131 133 122 122 124 137 137 139 127 127 129 135 135 137 123 123 125 117 117 119 139 139 141 117 117 119 130 130 132 120 120 122 137 137 139 116 116 118 144 144 146 120 120 122 137 137 139 117 117 119 139 139 141 121 121 123 122 122 124 125 125 127 118 118 120 130 130 132 136 136 138 114 114 116 127 127 129 125 125 127 120 120 122 130 130 132 127 127 129 133 133 135 124 124 126 113 113 115 121 121 123 124 124 126 141 141 143 128 128 130 124 124 126 143 143 145 116 116 118 114 114 116 122 122 124 123 123 125 111 111 113 130 130 132 121 121 123 127 127 129 125 125 127 138 138 140 128 128 130 135 135 137 142 142 144 141 141 143 127 127 129 128 128 130 137 137 139 140 140 142 122 122 124 133 133 135 116 116 118 
123 123 125 114 114 116 135 135 137 126 126 128 137 137 139 119 119 121 138 138 140 140 140 142 127 127 129 114 114 116 136 136 138 142 142 144 145 145 147 121 121 123 134 134 136 132 132 134 145 145 147 142 142 144 146 146 148 117 117 119 133 133 135 135 135 137 140 140 142 123 123 125 122 122 124 122 122 124 144 144 146 128 128 130 119 119 121 135 135 137 115 115 117 130 130 132 127 127 129 142 142 144 128 128 130 125 125 127 124 124 126 115 115 117 135 135 137 136 136 138 121 121 123 117 117 119 140 140 142 130 130 132 127 127 129 126 126 128 122 122 124 127 127 129 122 122 124 140 140 142 145 145 147 133 133 135 140 140 142 135 135 137 125 125 127 115 115 117 129 129 131 130 130 132 122 122 124 111 111 113 114 114 116 143 143 145 115 115 117 142 142 144 121 121 123 140 140 142 118 118 120 114 114 116 128 128 130 143 143 145 140 140 142 115 115 117 116 116 118 138 138 140 117 117 119 118 118 120 129 129 131 129 129 131 136 136 138 127 127 129 140 140 142 136 136 138 112 112 114 137 137 139 122 122 124 140 140 142 119 119 121 115 115 117 117 117 119 124 124 126 125 125 127 126 126 128 145 145 147 133 133 135 113 113 115 116 116 118 136 136 138 134 134 136 122 122 124 136 136 138 141 141 143 136 136 138 133 133 135 121 121 123 140 140 142 143 143 145 117 117 119 123 123 125 122 122 124 139 139 141 112 112 114 119 119 121 126 126 128 112 112 114 117 117 119 124 124 126 116 116 118 125 125 127 120 120 122 136 136 138 123 123 125 133 133 135 139 139 141 124 124 126 134 134 136 123 123 125 125 125 127 144 144 146 123 123 125 144 144 146 122 122 124 130 130 132 129 129 131 144 144 146 122 122 124 130 130 132 134 134 136 138 138 140 123 123 125 143 143 145 116 116 118 117 117 119 144 144 146 118 118 120 122 122 124 114 114 116 130 130 132 115 115 117 122 122 124 128 128 130 142 142 144 143 143 145 117 117 119 137 137 139 117 117 119 126 126 128 123 123 125 134 134 136 132 132 134 131 131 133 140 140 142 115 115 117 132 132 134 122 122 124 111 111 113 120 120 122 138 138 140 132 132 134 131 131 133 136 136 138 129 129 131 135 135 137 115 115 117 135 135 137 127 127 129 120 120 122 133 133 135 130 130 132 135 135 137 129 129 131 123 123 125 142 142 144 135 135 137 123 123 125 142 142 144 113 113 115 133 133 135 128 128 130 137 137 139 135 135 137 130 130 132 135 135 137 138 138 140 135 135 137 131 131 133 139 139 141 137 137 139 133 133 135 130 130 132 114 114 116 113 113 115 113 113 115 132 132 134 137 137 139 141 141 143 140 140 142 113 113 115 121 121 123 124 124 126 126 126 128 141 141 143 130 130 132 145 145 147 124 124 126 126 126 128 121 121 123 146 146 148 119 119 121 127 127 129 146 146 148 110 110 112 143 143 145 119 119 121 127 127 129 137 137 139 137 137 139 144 144 146 129 129 131 139 139 141 130 130 132 116 116 118 120 120 122 124 124 126 139 139 141 141 141 143 140 140 142 138 138 140 139 139 141 118 118 120 142 142 144 139 139 141 130 130 132 126 126 128 124 124 126 129 129 131 125 125 127 138 138 140 137 137 139 129 129 131 131 131 133 124 124 126 113 113 115 141 141 143 136 136 138 116 116 118 137 137 139 
129 129 131 119 119 121 130 130 132 126 126 128 135 135 137 112 112 114 132 132 134 127 127 129 132 132 134 142 142 144 127 127 129 134 134 136 134 134 136 126 126 128 124 124 126 127 127 129 118 118 120 127 127 129 144 144 146 127 127 129 113 113 115 115 115 117 145 145 147 123 123 125 113 113 115 136 136 138 128 128 130 133 133 135 137 137 139 137 137 139 137 137 139 132 132 134 117 117 119 134 134 136 140 140 142 117 117 119 124 124 126 127 127 129 137 137 139 126 126 128 125 125 127 118 118 120 137 137 139 118 118 120 125 125 127 126 126 128 135 135 137 114 114 116 140 140 142 127 127 129 127 127 129 118 118 120 137 137 139 118 118 120 130 130 132 115 115 117 144 144 146 121 121 123 129 129 131 121 121 123 121 121 123 122 122 124 133 133 135 126 126 128 141 141 143 130 130 132 117 117 119 117 117 119 118 118 120 123 123 125 115 115 117 115 115 117 114 114 116 115 115 117 136 136 138 118 118 120 140 140 142 133 133 135 131 131 133 121 121 123 138 138 140 141 141 143 131 131 133 141 141 143 116 116 118 127 127 129 131 131 133 121 121 123 129 129 131 113 113 115 129 129 131 123 123 125 131 131 133 143 143 145 134 134 136 130 130 132 118 118 120 122 122 124 143 143 145 135 135 137 143 143 145 126 126 128 130 130 132 137 137 139 145 145 147 118 118 120 137 137 139 119 119 121 125 125 127 125 125 127 120 120 122 142 142 144 135 135 137 119 119 121 145 145 147 127 127 129 116 116 118 129 129 131 114 114 116 142 142 144 126 126 128 114 114 116 115 115 117 116 116 118 134 134 136 128 128 130 140 140 142 138 138 140 118 118 120 135 135 137 141 141 143 121 121 123 123 123 125 111 111 113 131 131 133 127 127 129 125 125 127 133 133 135 132 132 134 140 140 142 127 127 129 141 141 143 131 131 133 135 135 137 125 125 127 142 142 144 117 117 119 144 144 146 139 139 141 121 121 123 135 135 137 128 128 130 118 118 120 131 131 133 117 117 119 140 140 142 126 126 128 138 138 140 133 133 135 132 132 134 138 138 140 125 125 127 134 134 136 121 121 123 131 131 133 118 118 120 120 120 122 113 113 115 136 136 138 138 138 140 118 118 120 124 124 126 137 137 139 134 134 136 125 125 127 134 134 136 142 142 144 134 134 136 115 115 117 138 138 140 128 128 130 135 135 137 137 137 139 126 126 128 128 128 130 127 127 129 131 131 133 132 132 134 142 142 144 129 129 131 127 127 129 128 128 130 123 123 125 144 144 146 119 119 121 116 116 118 128 128 130 123 123 125 122 122 124 140 140 142 136 136 138 120 120 122 127 127 129 112 112 114 132 132 134 116 116 118 133 133 135 116 116 118 122 122 124 140 140 142 142 142 144 123 123 125 146 146 148 145 145 147 114 114 116 129 129 131 120 120 122 137 137 139 142 142 144 127 127 129 144 144 146 144 144 146 142 142 144 128 128 130 126 126 128 138 138 140 121 121 123 120 120 122 138 138 140 120 120 122 133 133 135 145 145 147 119 119 121 120 120 122 139 139 141 135 135 137 139 139 141 134 134 136 125 125 127 126 126 128 139 139 141 129 129 131 142 142 144 126 126 128 133 133 135 120 120 122 129 129 131 125 125 127 118 118 120 139 139 141 129 129 131 133 133 135 122 122 124 115 115 117 144 144 146 136 136 138 
118 118 120 144 144 146 130 130 132 126 126 128 113 113 115 144 144 146 122 122 124 124 124 126 136 136 138 126 126 128 124 124 126 116 116 118 138 138 140 132 132 134 137 137 139 115 115 117 131 131 133 123 123 125 125 125 127 127 127 129 132 132 134 127 127 129 138 138 140 125 125 127 123 123 125 120 120 122 122 122 124 126 126 128 139 139 141 126 126 128 112 112 114 137 137 139 142 142 144 115 115 117 112 112 114 116 116 118 122 122 124 111 111 113 140 140 142 125 125 127 143 143 145 133 133 135 131 131 133 130 130 132 118 118 120 127 127 129 131 131 133 140 140 142 128 128 130 133 133 135 117 117 119 143 143 145 126 126 128 134 134 136 138 138 140 133 133 135 123 123 125 143 143 145 141 141 143 138 138 140 142 142 144 129 129 131 140 140 142 115 115 117 127 127 129 145 145 147 120 120 122 134 134 136 141 141 143 128 128 130 130 130 132 118 118 120 126 126 128 140 140 142 121 121 123 145 145 147 132 132 134 138 138 140 127 127 129 134 134 136 134 134 136 117 117 119 126 126 128 116 116 118 142 142 144 138 138 140 117 117 119 142 142 144 128 128 130 136 136 138 116 116 118 142 142 144 116 116 118 138 138 140 124 124 126 128 128 130 129 129 131 118 118 120 128 128 130 120 120 122 145 145 147 121 121 123 128 128 130 125 125 127 137 137 139 139 139 141 114 114 116 131 131 133 142 142 144 132 132 134 140 140 142 133 133 135 139 139 141 143 143 145 127 127 129 142 142 144 129 129 131 137 137 139 145 145 147 135 135 137 130 130 132 136 136 138 140 140 142 119 119 121 117 117 119 133 133 135 141 141 143 123 123 125 128 128 130 141 141 143 138 138 140 129 129 131 118 118 120 138 138 140 129 129 131 117 117 119 117 117 119 132 132 134 132 132 134 133 133 135 128 128 130 135 135 137 130 130 132 111 111 113 143 143 145 115 115 117 142 142 144 116 116 118 127 127 129 140 140 142 133 133 135 121 121 123 123 123 125 111 111 113 134 134 136 143 143 145 124 124 126 132 132 134 124 124 126 137 137 139 123 123 125 135 135 137 138 138 140 119 119 121 132 132 134 116 116 118 118 118 120 132 132 134 123 123 125 115 115 117 145 145 147 131 131 133 144 144 146 124 124 126 140 140 142 128 128 130 125 125 127 116 116 118 136 136 138 121 121 123 133 133 135 123 123 125 127 127 129 115 115 117 124 124 126 111 111 113 137 137 139 123 123 125 122 122 124 127 127 129 135 135 137 114 114 116 129 129 131 121 121 123 131 131 133 125 125 127 135 135 137 136 136 138 129 129 131 140 140 142 121 121 123 114 114 116 124 124 126 140 140 142 134 134 136 121 121 123 141 141 143 119 119 121 121 121 123 129 129 131 121 121 123 134 134 136 130 130 132 126 126 128 114 114 116 135 135 137 115 115 117 126 126 128 128 128 130 143 143 145 143 143 145 117 117 119 139 139 141 120 120 122 141 141 143 123 123 125 120 120 122 136 136 138 135 135 137 126 126 128 143 143 145 136 136 138 140 140 142 131 131 133 131 131 133 138 138 140 125 125 127 130 130 132 122 122 124 141 141 143 114 114 116 120 120 122 135 135 137 139 139 141 126 126 128 119 119 121 118 118 120 122 122 124 129 129 131 128 128 130 133 133 135 124 124 126 143 143 145 115 115 117 121 121 123 112 112 114 
113 113 115 129 129 131 129 129 131 122 122 124 144 144 146 116 116 118 142 142 144 138 138 140 137 137 139 119 119 121 125 125 127 133 133 135 114 114 116 118 118 120 133 133 135 129 129 131 117 117 119 126 126 128 120 120 122 131 131 133 112 112 114 126 126 128 134 134 136 138 138 140 136 136 138 120 120 122 118 118 120 112 112 114 125 125 127 135 135 137 121 121 123 133 133 135 117 117 119 128 128 130 128 128 130 138 138 140 136 136 138 119 119 121 139 139 141 122 122 124 125 125 127 118 118 120 140 140 142 120 120 122 123 123 125 124 124 126 132 132 134 142 142 144 116 116 118 123 123 125 137 137 139 142 142 144 139 139 141 138 138 140 137 137 139 143 143 145 139 139 141 141 141 143 127 127 129 139 139 141 112 112 114 133 133 135 124 124 126 115 115 117 135 135 137 127 127 129 141 141 143 143 143 145 142 142 144 120 120 122 122 122 124 127 127 129 132 132 134 114 114 116 134 134 136 117 117 119 116 116 118 117 117 119 124 124 126 136 136 138 129 129 131 124 124 126 145 145 147 138 138 140 142 142 144 140 140 142 113 113 115 122 122 124 121 121 123 132 132 134 134 134 136 126 126 128 117 117 119 136 136 138 128 128 130 138 138 140 135 135 137 133 133 135 128 128 130 130 130 132 130 130 132 111 111 113 129 129 131 119 119 121 141 141 143 126 126 128 121 121 123 140 140 142 127 127 129 136 136 138 128 128 130 142 142 144 134 134 136 117 117 119 117 117 119 134 134 136 118 118 120 136 136 138 114 114 116 144 144 146 123 123 125 142 142 144 131 131 133 133 133 135 126 126 128 123 123 125 144 144 146 135 135 137 111 111 113 120 120 122 126 126 128 118 118 120 122 122 124 122 122 124 138 138 140 116 116 118 147 147 149 144 144 146 123 123 125 145 145 147 143 143 145 139 139 141 140 140 142 138 138 140 124 124 126 127 127 129 116 116 118 137 137 139 127 127 129 121 121 123 120 120 122 115 115 117 138 138 140 131 131 133 143 143 145 116 116 118 130 130 132 145 145 147 139 139 141 136 136 138 122 122 124 130 130 132 127 127 129 136 136 138 133 133 135 117 117 119 136 136 138 113 113 115 130 130 132 141 141 143 142 142 144 134 134 136 119 119 121 141 141 143 126 126 128 116 116 118 127 127 129 136 136 138 132 132 134 125 125 127 117 117 119 140 140 142 140 140 142 130 130 132 142 142 144 121 121 123 130 130 132 127 127 129 144 144 146 130 130 132 130 130 132 124 124 126 143 143 145 142 142 144 116 116 118 132 132 134 135 135 137 144 144 146 128 128 130 117 117 119 115 115 117 142 142 144 141 141 143 133 133 135 117 117 119 123 123 125 144 144 146 143 143 145 136 136 138 136 136 138 132 132 134 129 129 131 115 115 117 130 130 132 127 127 129 138 138 140 111 111 113 139 139 141 128 128 130 123 123 125 118 118 120 115 115 117 114 114 116 132 132 134 129 129 131 116 116 118 129 129 131 117 117 119 138 138 140 125 125 127 119 119 121 123 123 125 120 120 122 138 138 140 129 129 131 120 120 122 141 141 143 143 143 145 135 135 137 121 121 123 136 136 138 140 140 142 141 141 143 123 123 125 140 140 142 116 116 118 136 136 138 131 131 133 136 136 138 124 124 126 137 137 139 132 132 134 125 125 127 125 125 127 136 136 138 137 137 139 
118 118 120 117 117 119 140 140 142 136 136 138 145 145 147 134 134 136 142 142 144 128 128 130 133 133 135 130 130 132 141 141 143 133 133 135 141 141 143 123 123 125 122 122 124 119 119 121 131 131 133 126 126 128 117 117 119 139 139 141 127 127 129 126 126 128 136 136 138 122 122 124 126 126 128 146 146 148 126 126 128 116 116 118 123 123 125 126 126 128 113 113 115 143 143 145 119 119 121 133 133 135 112 112 114 128 128 130 144 144 146 122 122 124 140 140 142 137 137 139 142 142 144 120 120 122 129 129 131 117 117 119 128 128 130 126 126 128 115 115 117 119 119 121 138 138 140 124 124 126 120 120 122 140 140 142 132 132 134 134 134 136 142 142 144 129 129 131 121 121 123 116 116 118 120 120 122 130 130 132 143 143 145 136 136 138 122 122 124 123 123 125 116 116 118 126 126 128 145 145 147 130 130 132 130 130 132 140 140 142 115 115 117 134 134 136 139 139 141 131 131 133 143 143 145 137 137 139 130 130 132 132 132 134 133 133 135 132 132 134 120 120 122 125 125 127 124 124 126 129 129 131 141 141 143 112 112 114 138 138 140 135 135 137 131 131 133 135 135 137 123 123 125 116 116 118 137 137 139 115 115 117 138 138 140 139 139 141 120 120 122 137 137 139 132 132 134 135 135 137 122 122 124 127 127 129 123 123 125 145 145 147 137 137 139 129 129 131 128 128 130 135 135 137 114 114 116 136 136 138 124 124 126 116 116 118 122 122 124 142 142 144 120 120 122 118 118 120 121 121 123 146 146 148 127 127 129 130 130 132 134 134 136 137 137 139 125 125 127 122 122 124 123 123 125 122 122 124 128 128 130 127 127 129 133 133 135 126 126 128 137 137 139 134 134 136 135 135 137 115 115 117 128 128 130 123 123 125 132 132 134 131 131 133 119 119 121 147 147 149 117 117 119 145 145 147 135 135 137 133 133 135 128 128 130 129 129 131 118 118 120 134 134 136 141 141 143 137 137 139 128 128 130 124 124 126 130 130 132 126 126 128 127 127 129 119 119 121 120 120 122 113 113 115 114 114 116 123 123 125 134 134 136 110 110 112 131 131 133 143 143 145 117 117 119 125 125 127 120 120 122 134 134 136 119 119 121 127 127 129 140 140 142 115 115 117 137 137 139 122 122 124 129 129 131 118 118 120 129 129 131 120 120 122 133 133 135 120 120 122 140 140 142 140 140 142 118 118 120 127 127 129 120 120 122 134 134 136 121 121 123 133 133 135 127 127 129 140 140 142 123 123 125 128 128 130 117 117 119 120 120 122 143 143 145 127 127 129 138 138 140 132 132 134 129 129 131 138 138 140 140 140 142 114 114 116 128 128 130 115 115 117 132 132 134 129 129 131 114 114 116 123 123 125 147 147 149 134 134 136 125 125 127 121 121 123 141 141 143 125 125 127 123 123 125 135 135 137 136 136 138 133 133 135 125 125 127 140 140 142 134 134 136 127 127 129 142 142 144 123 123 125 129 129 131 125 125 127 125 125 127 141 141 143 124 124 126 136 136 138 142 142 144 126 126 128 145 145 147 144 144 146 146 146 148 119 119 121 125 125 127 141 141 143 125 125 127 127 127 129 141 141 143 118 118 120 140 140 142 144 144 146 117 117 119 122 122 124 136 136 138 115 115 117 142 142 144 140 140 142 116 116 118 142 142 144 139 139 141 116 116 118 136 136 138 142 142 144 
138 138 140 126 126 128 126 126 128 133 133 135 142 142 144 122 122 124 112 112 114 137 137 139 128 128 130 122 122 124 127 127 129 128 128 130 139 139 141 127 127 129 140 140 142 131 131 133 131 131 133 126 126 128 138 138 140 126 126 128 122 122 124 126 126 128 135 135 137 134 134 136 113 113 115 136 136 138 143 143 145 138 138 140 126 126 128 121 121 123 137 137 139 138 138 140 124 124 126 131 131 133 118 118 120 127 127 129 133 133 135 137 137 139 121 121 123 126 126 128 121 121 123 137 137 139 134 134 136 141 141 143 134 134 136 128 128 130 137 137 139 133 133 135 121 121 123 128 128 130 120 120 122 129 129 131 139 139 141 128 128 130 132 132 134 142 142 144 139 139 141 123 123 125 124 124 126 136 136 138 119 119 121 129 129 131 115 115 117 139 139 141 133 133 135 125 125 127 122 122 124 144 144 146 144 144 146 125 125 127 127 127 129 139 139 141 114 114 116 131 131 133 124 124 126 129 129 131 133 133 135 116 116 118 147 147 149 139 139 141 112 112 114 116 116 118 144 144 146 125 125 127 124 124 126 132 132 134 123 123 125 127 127 129 123 123 125 111 111 113 123 123 125 126 126 128 144 144 146 132 132 134 118 118 120 140 140 142 115 115 117 117 117 119 113 113 115 132 132 134 127 127 129 130 130 132 142 142 144 139 139 141 119 119 121 116 116 118 134 134 136 135 135 137 131 131 133 129 129 131 137 137 139 130 130 132 142 142 144 141 141 143 140 140 142 131 131 133 120 120 122 127 127 129 123 123 125 130 130 132 131 131 133 125 125 127 138 138 140 112 112 114 114 114 116 134 134 136 124 124 126 115 115 117 117 117 119 139 139 141 135 135 137 136 136 138 135 135 137 128 128 130 130 130 132 123 123 125 126 126 128 143 143 145 126 126 128 133 133 135 125 125 127 135 135 137 117 117 119 141 141 143 136 136 138 131 131 133 116 116 118 124 124 126 132 132 134 144 144 146 118 118 120 140 140 142 117 117 119 119 119 121 125 125 127 143 143 145 134 134 136 137 137 139 122 122 124 141 141 143 136 136 138 122 122 124 140 140 142 135 135 137 141 141 143 138 138 140 121 121 123 133 133 135 138 138 140 119 119 121 118 118 120 116 116 118 116 116 118 137 137 139 125 125 127 140 140 142 135 135 137 137 137 139 121 121 123 133 133 135 137 137 139 134 134 136 123 123 125 121 121 123 128 128 130 133 133 135 139 139 141 145 145 147 123 123 125 120 120 122 110 110 112 116 116 118 126 126 128 114 114 116 127 127 129 141 141 143 123 123 125 129 129 131 140 140 142 128 128 130 133 133 135 124 124 126 132 132 134 114 114 116 133 133 135 125 125 127 111 111 113 135 135 137 116 116 118 121 121 123 136 136 138 138 138 140 115 115 117 134 134 136 137 137 139 142 142 144 143 143 145 140 140 142 128 128 130 121 121 123 138 138 140 138 138 140 120 120 122 124 124 126 139 139 141 121 121 123 121 121 123 129 129 131 147 147 149 118 118 120 126 126 128 123 123 125 121 121 123 122 122 124 124 124 126 120 120 122 125 125 127 143 143 145 138 138 140 130 130 132 113 113 115 139 139 141 126 126 128 145 145 147 130 130 132 121 121 123 125 125 127 138 138 140 135 135 137 128 128 130 132 132 134 141 141 143 134 134 136 138 138 140 127 127 129 121 121 123 
125 125 127 122 122 124 120 120 122 122 122 124 127 127 129 139 139 141 124 124 126 144 144 146 126 126 128 123 123 125 136 136 138 142 142 144 115 115 117 131 131 133 119 119 121 128 128 130 117 117 119 120 120 122 144 144 146 118 118 120 137 137 139 117 117 119 130 130 132 125 125 127 124 124 126 139 139 141 127 127 129 119 119 121 141 141 143 140 140 142 130 130 132 114 114 116 121 121 123 123 123 125 121 121 123 137 137 139 128 128 130 134 134 136 113 113 115 132 132 134 115 115 117 124 124 126 112 112 114 129 129 131 120 120 122 124 124 126 139 139 141 130 130 132 125 125 127 144 144 146 119 119 121 134 134 136 141 141 143 114 114 116 140 140 142 116 116 118 123 123 125 131 131 133 110 110 112 116 116 118 115 115 117 116 116 118 125 125 127 139 139 141 118 118 120 133 133 135 144 144 146 115 115 117 132 132 134 142 142 144 134 134 136 115 115 117 141 141 143 145 145 147 142 142 144 137 137 139 133 133 135 134 134 136 134 134 136 140 140 142 127 127 129 122 122 124 145 145 147 139 139 141 140 140 142 142 142 144 140 140 142 119 119 121 141 141 143 117 117 119 134 134 136 138 138 140 133 133 135 136 136 138 117 117 119 121 121 123 114 114 116 134 134 136 136 136 138 142 142 144 140 140 142 147 147 149 122 122 124 129 129 131 113 113 115 133 133 135 123 123 125 123 123 125 121 121 123 134 134 136 143 143 145 119 119 121 140 140 142 141 141 143 130 130 132 144 144 146 138 138 140 122 122 124 133 133 135 121 121 123 118 118 120 117 117 119 146 146 148 126 126 128 128 128 130 137 137 139 133 133 135 145 145 147 127 127 129 123 123 125 135 135 137 116 116 118 128 128 130 136 136 138 131 131 133 126 126 128 121 121 123 135 135 137 118 118 120 143 143 145 119 119 121 125 125 127 124 124 126 139 139 141 114 114 116 140 140 142 130 130 132 129 129 131 138 138 140 113 113 115 136 136 138 131 131 133 124 124 126 116 116 118 126 126 128 145 145 147 134 134 136 140 140 142 129 129 131 145 145 147 125 125 127 136 136 138 132 132 134 122 122 124 117 117 119 116 116 118 123 123 125 130 130 132 119 119 121 125 125 127 117 117 119 141 141 143 127 127 129 123 123 125 117 117 119 116 116 118 135 135 137 130 130 132 128 128 130 134 134 136 129 129 131 124 124 126 123 123 125 117 117 119 138 138 140 134 134 136 135 135 137 121 121 123 132 132 134 135 135 137 120 120 122 119 119 121 132 132 134 119 119 121 139 139 141 122 122 124 142 142 144 117 117 119 121 121 123 141 141 143 115 115 117 147 147 149 114 114 116 137 137 139 128 128 130 128 128 130 115 115 117 117 117 119 126 126 128 132 132 134 137 137 139 115 115 117 121 121 123 130 130 132 132 132 134 118 118 120 144 144 146 124 124 126 145 145 147 136 136 138 114 114 116 119 119 121 122 122 124 117 117 119 130 130 132 132 132 134 117 117 119 134 134 136 126 126 128 123 123 125 115 115 117 115 115 117 128 128 130 144 144 146 117 117 119 139 139 141 138 138 140 112 112 114 140 140 142 119 119 121 113 113 115 123 123 125 120 120 122 118 118 120 131 131 133 129 129 131 118 118 120 136 136 138 117 117 119 136 136 138 143 143 145 129 129 131 134 134 136 116 116 118 125 125 127 122 122 124 
115 115 117 129 129 131 119 119 121 130 130 132 127 127 129 124 124 126 137 137 139 139 139 141 136 136 138 112 112 114 119 119 121 139 139 141 144 144 146 145 145 147 117 117 119 127 127 129 139 139 141 124 124 126 134 134 136 128 128 130 125 125 127 136 136 138 136 136 138 135 135 137 140 140 142 144 144 146 123 123 125 122 122 124 123 123 125 119 119 121 144 144 146 140 140 142 139 139 141 144 144 146 129 129 131 128 128 130 142 142 144 132 132 134 140 140 142 115 115 117 145 145 147 134 134 136 123 123 125 129 129 131 135 135 137 122 122 124 111 111 113 135 135 137 130 130 132 113 113 115 132 132 134 124 124 126 133 133 135 127 127 129 123 123 125 146 146 148 125 125 127 126 126 128 120 120 122 139 139 141 125 125 127 119 119 121 137 137 139 123 123 125 142 142 144 140 140 142 131 131 133 119 119 121 118 118 120 132 132 134 142 142 144 135 135 137 131 131 133 119 119 121 132 132 134 137 137 139 115 115 117 128 128 130 110 110 112 118 118 120 131 131 133 130 130 132 122 122 124 138 138 140 138 138 140 125 125 127 121 121 123 122 122 124 141 141 143 142 142 144 136 136 138 141 141 143 129 129 131 114 114 116 120 120 122 123 123 125 130 130 132 126 126 128 124 124 126 137 137 139 125 125 127 129 129 131 145 145 147 139 139 141 119 119 121 125 125 127 143 143 145 133 133 135 132 132 134 135 135 137 119 119 121 115 115 117 126 126 128 129 129 131 127 127 129 115 115 117 137 137 139 129 129 131 112 112 114 130 130 132 137 137 139 120 120 122 146 146 148 118 118 120 112 112 114 135 135 137 133 133 135 122 122 124 131 131 133 143 143 145 131 131 133 132 132 134 133 133 135 135 135 137 131 131 133 143 143 145 141 141 143 142 142 144 141 141 143 130 130 132 136 136 138 144 144 146 115 115 117 129 129 131 120 120 122 125 125 127 136 136 138 135 135 137 125 125 127 119 119 121 139 139 141 141 141 143 125 125 127 124 124 126 136 136 138 120 120 122 136 136 138 134 134 136 126 126 128 128 128 130 129 129 131 140 140 142 142 142 144 133 133 135 142 142 144 133 133 135 127 127 129 126 126 128 118 118 120 125 125 127 121 121 123 127 127 129 141 141 143 141 141 143 127 127 129 130 130 132 121 121 123 123 123 125 136 136 138 145 145 147 131 131 133 141 141 143 116 116 118 113 113 115 130 130 132 128 128 130 136 136 138 116 116 118 135 135 137 142 142 144 121 121 123 129 129 131 114 114 116 129 129 131 140 140 142 117 117 119 123 123 125 128 128 130 125 125 127 137 137 139 126 126 128 127 127 129 129 129 131 128 128 130 136 136 138 129 129 131 135 135 137 138 138 140 142 142 144 141 141 143 114 114 116 133 133 135 132 132 134 132 132 134 141 141 143 125 125 127 124 124 126 122 122 124 121 121 123 124 124 126 113 113 115 128 128 130 124 124 126 118 118 120 137 137 139 122 122 124 121 121 123 120 120 122 122 122 124 120 120 122 129 129 131 144 144 146 135 135 137 123 123 125 119 119 121 123 123 125 147 147 149 128 128 130 142 142 144 115 115 117 120 120 122 118 118 120 132 132 134 124 124 126 118 118 120 125 125 127 123 123 125 119 119 121 130 130 132 131 131 133 141 141 143 134 134 136 123 123 125 140 140 142 128 128 130 141 141 143 
128 128 130 139 139 141 131 131 133 119 119 121 134 134 136 138 138 140 129 129 131 122 122 124 134 134 136 135 135 137 115 115 117 128 128 130 140 140 142 138 138 140 120 120 122 144 144 146 116 116 118 119 119 121 135 135 137 137 137 139 117 117 119 119 119 121 136 136 138 145 145 147 121 121 123 126 126 128 132 132 134 136 136 138 139 139 141 116 116 118 132 132 134 120 120 122 132 132 134 138 138 140 128 128 130 122 122 124 129 129 131 136 136 138 143 143 145 122 122 124 136 136 138 120 120 122 133 133 135 124 124 126 122 122 124 142 142 144 129 129 131 130 130 132 121 121 123 132 132 134 118 118 120 120 120 122 132 132 134 130 130 132 124 124 126 131 131 133 140 140 142 120 120 122 117 117 119 143 143 145 138 138 140 135 135 137 142 142 144 130 130 132 143 143 145 139 139 141 135 135 137 119 119 121 131 131 133 130 130 132 123 123 125 121 121 123 133 133 135 120 120 122 128 128 130 119 119 121 122 122 124 131 131 133 119 119 121 131 131 133 123 123 125 128 128 130 143 143 145 128 128 130 134 134 136 123 123 125 130 130 132 120 120 122 114 114 116 145 145 147 121 121 123 137 137 139 125 125 127 136 136 138 132 132 134 141 141 143 123 123 125 134 134 136 135 135 137 119 119 121 116 116 118 141 141 143 121 121 123 135 135 137 137 137 139 114 114 116 135 135 137 137 137 139 128 128 130 123 123 125 144 144 146 139 139 141 113 113 115 129 129 131 130 130 132 134 134 136 125 125 127 137 137 139 115 115 117 129 129 131 129 129 131 145 145 147 133 133 135 117 117 119 120 120 122 118 118 120 141 141 143 132 132 134 143 143 145 124 124 126 124 124 126 117 117 119 139 139 141 124 124 126 136 136 138 136 136 138 141 141 143 135 135 137 137 137 139 133 133 135 132 132 134 137 137 139 112 112 114 139 139 141 129 129 131 115 115 117 124 124 126 138 138 140 114 114 116 141 141 143 116 116 118 120 120 122 137 137 139 141 141 143 140 140 142 143 143 145 139 139 141 135 135 137 119 119 121 121 121 123 112 112 114 143 143 145 143 143 145 135 135 137 128 128 130 125 125 127 136 136 138 139 139 141 132 132 134 138 138 140 116 116 118 129 129 131 118 118 120 143 143 145 134 134 136 141 141 143 129 129 131 140 140 142 143 143 145 127 127 129 141 141 143 127 127 129 144 144 146 117 117 119 133 133 135 123 123 125 125 125 127 138 138 140 112 112 114 134 134 136 129 129 131 123 123 125 116 116 118 123 123 125 138 138 140 118 118 120 141 141 143 120 120 122 137 137 139 136 136 138 126 126 128 132 132 134 136 136 138 139 139 141 126 126 128 132 132 134 144 144 146 132 132 134 131 131 133 116 116 118 121 121 123 132 132 134 136 136 138 146 146 148 127 127 129 116 116 118 121 121 123 126 126 128 131 131 133 140 140 142 145 145 147 131 131 133 122 122 124 116 116 118 124 124 126 129 129 131 131 131 133 135 135 137 136 136 138 130 130 132 140 140 142 141 141 143 130 130 132 120 120 122 133 133 135 142 142 144 120 120 122 126 126 128 118 118 120 117 117 119 119 119 121 135 135 137 116 116 118 130 130 132 120 120 122 147 147 149 131 131 133 144 144 146 128 128 130 133 133 135 121 121 123 117 117 119 122 122 124 137 137 139 123 123 125 118 118 120 
142 142 144 136 136 138 126 126 128 115 115 117 114 114 116 130 130 132 123 123 125 121 121 123 131 131 133 140 140 142 116 116 118 114 114 116 135 135 137 127 127 129 138 138 140 135 135 137 142 142 144 110 110 112 141 141 143 129 129 131 133 133 135 125 125 127 125 125 127 116 116 118 121 121 123 124 124 126 117 117 119 127 127 129 116 116 118 113 113 115 139 139 141 120 120 122 128 128 130 117 117 119 139 139 141 123 123 125 138 138 140 113 113 115 112 112 114 128 128 130 124 124 126 116 116 118 135 135 137 139 139 141 131 131 133 128 128 130 118 118 120 116 116 118 142 142 144 121 121 123 134 134 136 118 118 120 134 134 136 124 124 126 134 134 136 136 136 138 137 137 139 120 120 122 129 129 131 118 118 120 126 126 128 121 121 123 120 120 122 125 125 127 143 143 145 139 139 141 127 127 129 141 141 143 127 127 129 123 123 125 137 137 139 133 133 135 138 138 140 120 120 122 120 120 122 136 136 138 135 135 137 124 124 126 146 146 148 115 115 117 117 117 119 116 116 118 133 133 135 138 138 140 139 139 141 117 117 119 140 140 142 138 138 140 136 136 138 143 143 145 138 138 140 133 133 135 123 123 125 114 114 116 133 133 135 111 111 113 135 135 137 121 121 123 128 128 130 121 121 123 128 128 130 142 142 144 130 130 132 131 131 133 134 134 136 141 141 143 117 117 119 121 121 123 141 141 143 129 129 131 125 125 127 114 114 116 117 117 119 121 121 123 135 135 137 132 132 134 138 138 140 132 132 134 145 145 147 115 115 117 130 130 132 112 112 114 124 124 126 138 138 140 121 121 123 132 132 134 120 120 122 114 114 116 145 145 147 136 136 138 142 142 144 133 133 135 123 123 125 115 115 117 140 140 142 144 144 146 129 129 131 120 120 122 133 133 135 122 122 124 136 136 138 115 115 117 144 144 146 132 132 134 117 117 119 127 127 129 138 138 140 137 137 139 132 132 134 138 138 140 123 123 125 128 128 130 137 137 139 140 140 142 121 121 123 131 131 133 143 143 145 114 114 116 118 118 120 133 133 135 127 127 129 127 127 129 136 136 138 121 121 123 116 116 118 118 118 120 135 135 137 134 134 136 126 126 128 129 129 131 126 126 128 134 134 136 126 126 128 147 147 149 114 114 116 138 138 140 134 134 136 132 132 134 143 143 145 110 110 112 134 134 136 141 141 143 139 139 141 119 119 121 116 116 118 117 117 119 130 130 132 139 139 141 118 118 120 125 125 127 119 119 121 142 142 144 145 145 147 128 128 130 143 143 145 116 116 118 119 119 121 133 133 135 124 124 126 122 122 124 117 117 119 121 121 123 132 132 134 115 115 117 140 140 142 122 122 124 123 123 125 144 144 146 130 130 132 135 135 137 132 132 134 119 119 121 119 119 121 134 134 136 122 122 124 128 128 130 144 144 146 119 119 121 114 114 116 114 114 116 122 122 124 140 140 142 138 138 140 131 131 133 114 114 116 117 117 119 130 130 132 138 138 140 141 141 143 125 125 127 125 125 127 127 127 129 137 137 139 130 130 132 125 125 127 138 138 140 133 133 135 134 134 136 139 139 141 139 139 141 129 129 131 120 120 122 115 115 117 111 111 113 143 143 145 122 122 124 114 114 116 133 133 135 127 127 129 117 117 119 123 123 125 124 124 126 142 142 144 136 136 138 138 138 140 135 135 137 
138 138 140 131 131 133 140 140 142 118 118 120 133 133 135 133 133 135 145 145 147 134 134 136 138 138 140 129 129 131 112 112 114 124 124 126 126 126 128 128 128 130 136 136 138 115 115 117 112 112 114 121 121 123 129 129 131 128 128 130 113 113 115 116 116 118 142 142 144 134 134 136 119 119 121 122 122 124 140 140 142 117 117 119 139 139 141 137 137 139 142 142 144 116 116 118 140 140 142 129 129 131 116 116 118 140 140 142 137 137 139 142 142 144 118 118 120 123 123 125 116 116 118 129 129 131 126 126 128 117 117 119 142 142 144 114 114 116 127 127 129 134 134 136 127 127 129 132 132 134 134 134 136 136 136 138 117 117 119 115 115 117 137 137 139 143 143 145 139 139 141 136 136 138 145 145 147 120 120 122 114 114 116 117 117 119 116 116 118 137 137 139 139 139 141 134 134 136 143 143 145 122 122 124 143 143 145 111 111 113 118 118 120 133 133 135 131 131 133 122 122 124 124 124 126 140 140 142 126 126 128 141 141 143 133 133 135 142 142 144 137 137 139 132 132 134 117 117 119 118 118 120 124 124 126 122 122 124 120 120 122 120 120 122 123 123 125 131 131 133 118 118 120 142 142 144 145 145 147 127 127 129 146 146 148 132 132 134 114 114 116 126 126 128 125 125 127 134 134 136 120 120 122 112 112 114 118 118 120 129 129 131 139 139 141 129 129 131 134 134 136 140 140 142 146 146 148 143 143 145 114 114 116 131 131 133 125 125 127 145 145 147 118 118 120 125 125 127 133 133 135 140 140 142 133 133 135 124 124 126 119 119 121 140 140 142 126 126 128 120 120 122 125 125 127 137 137 139 122 122 124 120 120 122 127 127 129 141 141 143 133 133 135 116 116 118 140 140 142 134 134 136 117 117 119 117 117 119 130 130 132 116 116 118 140 140 142 137 137 139 123 123 125 142 142 144 115 115 117 146 146 148 126 126 128 130 130 132 141 141 143 134 134 136 114 114 116 132 132 134 123 123 125 133 133 135 136 136 138 143 143 145 138 138 140 131 131 133 119 119 121 125 125 127 120 120 122 118 118 120 127 127 129 126 126 128 147 147 149 133 133 135 121 121 123 136 136 138 113 113 115 142 142 144 140 140 142 126 126 128 141 141 143 136 136 138 131 131 133 114 114 116 145 145 147 115 115 117 117 117 119 132 132 134 140 140 142 132 132 134 127 127 129 140 140 142 128 128 130 127 127 129 118 118 120 123 123 125 146 146 148 141 141 143 125 125 127 119 119 121 132 132 134 137 137 139 138 138 140 129 129 131 122 122 124 120 120 122 115 115 117 142 142 144 117 117 119 136 136 138 117 117 119 133 133 135 126 126 128 124 124 126 141 141 143 141 141 143 139 139 141 120 120 122 132 132 134 117 117 119 138 138 140 145 145 147 142 142 144 126 126 128 141 141 143 139 139 141 143 143 145 139 139 141 119 119 121 137 137 139 127 127 129 115 115 117 133 133 135 126 126 128 123 123 125 117 117 119 138 138 140 133 133 135 131 131 133 129 129 131 139 139 141 120 120 122 144 144 146 126 126 128 137 137 139 146 146 148 140 140 142 112 112 114 117 117 119 128 128 130 140 140 142 137 137 139 141 141 143 140 140 142 139 139 141 134 134 136 116 116 118 129 129 131 135 135 137 118 118 120 126 126 128 142 142 144 122 122 124 123 123 125 133 133 135 120 120 122 
143 143 145 117 117 119 133 133 135 140 140 142 136 136 138 138 138 140 121 121 123 143 143 145 145 145 147 119 119 121 141 141 143 132 132 134 132 132 134 116 116 118 120 120 122 122 122 124 141 141 143 113 113 115 144 144 146 129 129 131 136 136 138 122 122 124 131 131 133 133 133 135 118 118 120 124 124 126 128 128 130 122 122 124 128 128 130 135 135 137 122 122 124 134 134 136 125 125 127 135 135 137 122 122 124 136 136 138 116 116 118 143 143 145 128 128 130 132 132 134 127 127 129 131 131 133 135 135 137 144 144 146 132 132 134 128 128 130 122 122 124 115 115 117 140 140 142 120 120 122 128 128 130 145 145 147 139 139 141 129 129 131 134 134 136 141 141 143 116 116 118 118 118 120 134 134 136 136 136 138 135 135 137 135 135 137 114 114 116 140 140 142 146 146 148 131 131 133 124 124 126 141 141 143 129 129 131 126 126 128 117 117 119 141 141 143 117 117 119 118 118 120 123 123 125 125 125 127 128 128 130 138 138 140 122 122 124 139 139 141 117 117 119 123 123 125 127 127 129 130 130 132 138 138 140 137 137 139 136 136 138 137 137 139 138 138 140 123 123 125 139 139 141 117 117 119 132 132 134 142 142 144 116 116 118 135 135 137 117 117 119 130 130 132 118 118 120 129 129 131 120 120 122 138 138 140 120 120 122 118 118 120 122 122 124 143 143 145 127 127 129 126 126 128 120 120 122 132 132 134 128 128 130 140 140 142 128 128 130 131 131 133 140 140 142 117 117 119 140 140 142 116 116 118 138 138 140 134 134 136 111 111 113 144 144 146 125 125 127 139 139 141 134 134 136 128 128 130 134 134 136 127 127 129 139 139 141 122 122 124 118 118 120 117 117 119 123 123 125 139 139 141 116 116 118 137 137 139 126 126 128 119 119 121 137 137 139 127 127 129 133 133 135 137 137 139 113 113 115 137 137 139 132 132 134 142 142 144 133 133 135 115 115 117 117 117 119 141 141 143 123 123 125 118 118 120 125 125 127 119 119 121 115 115 117 134 134 136 119 119 121 141 141 143 129 129 131 117 117 119 140 140 142 128 128 130 115 115 117 117 117 119 116 116 118 113 113 115 140 140 142 142 142 144 119 119 121 138 138 140 120 120 122 141 141 143 147 147 149 137 137 139 125 125 127 129 129 131 123 123 125 141 141 143 135 135 137 129 129 131 120 120 122 118 118 120 119 119 121 129 129 131 140 140 142 135 135 137 116 116 118 129 129 131 134 134 136 143 143 145 145 145 147 138 138 140 122 122 124 127 127 129 139 139 141 122 122 124 141 141 143 127 127 129 128 128 130 139 139 141 133 133 135 113 113 115 135 135 137 127 127 129 134 134 136 113 113 115 129 129 131 131 131 133 138 138 140 128 128 130 138 138 140 116 116 118 141 141 143 141 141 143 139 139 141 115 115 117 127 127 129 126 126 128 127 127 129 136 136 138 131 131 133 139 139 141 130 130 132 139 139 141 116 116 118 121 121 123 120 120 122 143 143 145 125 125 127 140 140 142 123 123 125 140 140 142 119 119 121 130 130 132 112 112 114 121 121 123 135 135 137 139 139 141 127 127 129 124 124 126 111 111 113 139 139 141 140 140 142 127 127 129 120 120 122 138 138 140 117 117 119 124 124 126 130 130 132 137 137 139 117 117 119 139 139 141 116 116 118 135 135 137 140 140 142 126 126 128 
141 141 143 113 113 115 124 124 126 124 124 126 121 121 123 134 134 136 114 114 116 140 140 142 142 142 144 122 122 124 137 137 139 122 122 124 116 116 118 121 121 123 137 137 139 124 124 126 142 142 144 134 134 136 132 132 134 136 136 138 132 132 134 123 123 125 125 125 127 135 135 137 118 118 120 143 143 145 133 133 135 120 120 122 125 125 127 138 138 140 142 142 144 127 127 129 135 135 137 124 124 126 128 128 130 125 125 127 118 118 120 124 124 126 138 138 140 138 138 140 121 121 123 141 141 143 140 140 142 115 115 117 126 126 128 138 138 140 119 119 121 121 121 123 133 133 135 132 132 134 114 114 116 137 137 139 131 131 133 134 134 136 137 137 139 143 143 145 129 129 131 116 116 118 134 134 136 141 141 143 113 113 115 125 125 127 130 130 132 114 114 116 147 147 149 136 136 138 134 134 136 114 114 116 112 112 114 142 142 144 134 134 136 144 144 146 116 116 118 130 130 132 137 137 139 130 130 132 125 125 127 111 111 113 142 142 144 137 137 139 136 136 138 117 117 119 140 140 142 123 123 125 138 138 140 133 133 135 120 120 122 142 142 144 120 120 122 112 112 114 117 117 119 122 122 124 137 137 139 132 132 134 123 123 125 139 139 141 117 117 119 124 124 126 144 144 146 128 128 130 117 117 119 119 119 121 130 130 132 146 146 148 117 117 119 143 143 145 142 142 144 121 121 123 141 141 143 130 130 132 134 134 136 115 115 117 137 137 139 127 127 129 136 136 138 128 128 130 145 145 147 116 116 118 136 136 138 135 135 137 138 138 140 143 143 145 134 134 136 140 140 142 118 118 120 133 133 135 128 128 130 129 129 131 130 130 132 123 123 125 136 136 138 122 122 124 138 138 140 125 125 127 125 125 127 141 141 143 137 137 139 138 138 140 136 136 138 129 129 131 118 118 120 142 142 144 123 123 125 136 136 138 133 133 135 130 130 132 112 112 114 115 115 117 118 118 120 119 119 121 115 115 117 144 144 146 137 137 139 143 143 145 140 140 142 134 134 136 132 132 134 128 128 130 135 135 137 123 123 125 136 136 138 144 144 146 119 119 121 113 113 115 117 117 119 121 121 123 123 123 125 115 115 117 119 119 121 121 121 123 145 145 147 134 134 136 113 113 115 129 129 131 115 115 117 120 120 122 120 120 122 143 143 145 117 117 119 134 134 136 112 112 114 128 128 130 126 126 128 141 141 143 144 144 146 118 118 120 134 134 136 120 120 122 125 125 127 125 125 127 134 134 136 140 140 142 124 124 126 115 115 117 124 124 126 117 117 119 125 125 127 135 135 137 139 139 141 117 117 119 118 118 120 135 135 137 116 116 118 117 117 119 124 124 126 124 124 126 140 140 142 120 120 122 120 120 122 128 128 130 122 122 124 124 124 126 130 130 132 131 131 133 120 120 122 124 124 126 117 117 119 119 119 121 125 125 127 120 120 122 123 123 125 127 127 129 142 142 144 118 118 120 119 119 121 138 138 140 121 121 123 128 128 130 127 127 129 143 143 145 120 120 122 130 130 132 146 146 148 123 123 125 139 139 141 133 133 135 133 133 135 142 142 144 138 138 140 135 135 137 117 117 119 121 121 123 141 141 143 123 123 125 119 119 121 128 128 130 131 131 133 131 131 133 112 112 114 136 136 138 135 135 137 138 138 140 141 141 143 117 117 119 117 117 119 132 132 134 
118 118 120 125 125 127 128 128 130 122 122 124 117 117 119 142 142 144 142 142 144 141 141 143 136 136 138 129 129 131 124 124 126 140 140 142 144 144 146 142 142 144 130 130 132 139 139 141 124 124 126 140 140 142 122 122 124 144 144 146 117 117 119 138 138 140 140 140 142 129 129 131 134 134 136 124 124 126 139 139 141 115 115 117 130 130 132 131 131 133 115 115 117 135 135 137 120 120 122 110 110 112 125 125 127 118 118 120 132 132 134 128 128 130 126 126 128 116 116 118 130 130 132 115 115 117 124 124 126 125 125 127 127 127 129 121 121 123 136 136 138 127 127 129 113 113 115 123 123 125 136 136 138 140 140 142 137 137 139 125 125 127 135 135 137 127 127 129 132 132 134 126 126 128 131 131 133 136 136 138 143 143 145 120 120 122 113 113 115 116 116 118 137 137 139 130 130 132 130 130 132 142 142 144 133 133 135 119 119 121 143 143 145 128 128 130 115 115 117 114 114 116 141 141 143 129 129 131 141 141 143 139 139 141 140 140 142 115 115 117 141 141 143 141 141 143 116 116 118 124 124 126 125 125 127 132 132 134 114 114 116 112 112 114 144 144 146 130 130 132 126 126 128 133 133 135 134 134 136 139 139 141 123 123 125 136 136 138 133 133 135 125 125 127 125 125 127 143 143 145 114 114 116 141 141 143 122 122 124 139 139 141 118 118 120 128 128 130 125 125 127 130 130 132 132 132 134 143 143 145 130 130 132 119 119 121 119 119 121 139 139 141 131 131 133 125 125 127 121 121 123 132 132 134 126 126 128 118 118 120 126 126 128 127 127 129 141 141 143 116 116 118 116 116 118 118 118 120 130 130 132 146 146 148 131 131 133 120 120 122 135 135 137 142 142 144 131 131 133 120 120 122 128 128 130 116 116 118 119 119 121 140 140 142 143 143 145 133 133 135 124 124 126 112 112 114 121 121 123 125 125 127 142 142 144 131 131 133 118 118 120 145 145 147 125 125 127 119 119 121 124 124 126 126 126 128 126 126 128 140 140 142 122 122 124 131 131 133 124 124 126 123 123 125 110 110 112 124 124 126 115 115 117 139 139 141 137 137 139 139 139 141 146 146 148 132 132 134 132 132 134 118 118 120 133 133 135 117 117 119 137 137 139 137 137 139 120 120 122 123 123 125 124 124 126 115 115 117 114 114 116 145 145 147 142 142 144 115 115 117 126 126 128 116 116 118 116 116 118 136 136 138 130 130 132 136 136 138 136 136 138 141 141 143 120 120 122 114 114 116 138 138 140 123 123 125 122 122 124 134 134 136 134 134 136 121 121 123 126 126 128 139 139 141 138 138 140 129 129 131 119 119 121 117 117 119 116 116 118 132 132 134 118 118 120 115 115 117 125 125 127 127 127 129 130 130 132 124 124 126 119 119 121 126 126 128 119 119 121 135 135 137 122 122 124 131 131 133 123 123 125 137 137 139 131 131 133 142 142 144 144 144 146 136 136 138 129 129 131 135 135 137 140 140 142 124 124 126 130 130 132 134 134 136 128 128 130 120 120 122 131 131 133 135 135 137 134 134 136 143 143 145 137 137 139 118 118 120 128 128 130 119 119 121 127 127 129 128 128 130 138 138 140 147 147 149 121 121 123 117 117 119 142 142 144 123 123 125 140 140 142 131 131 133 122 122 124 139 139 141 126 126 128 117 117 119 113 113 115 115 115 117 123 123 125 143 143 145 
135 135 137 112 112 114 130 130 132 117 117 119 122 122 124 131 131 133 129 129 131 136 136 138 124 124 126 113 113 115 122 122 124 117 117 119 146 146 148 113 113 115 126 126 128 133 133 135 133 133 135 116 116 118 137 137 139 116 116 118 126 126 128 114 114 116 121 121 123 123 123 125 129 129 131 126 126 128 143 143 145 139 139 141 115 115 117 133 133 135 116 116 118 119 119 121 127 127 129 133 133 135 140 140 142 110 110 112 118 118 120 118 118 120 134 134 136 124 124 126 138 138 140 117 117 119 137 137 139 114 114 116 127 127 129 126 126 128 141 141 143 117 117 119 138 138 140 140 140 142 135 135 137 122 122 124 138 138 140 127 127 129 119 119 121 139 139 141 131 131 133 131 131 133 144 144 146 127 127 129 145 145 147 115 115 117 122 122 124 115 115 117 124 124 126 122 122 124 113 113 115 112 112 114 127 127 129 139 139 141 117 117 119 114 114 116 134 134 136 119 119 121 119 119 121 123 123 125 119 119 121 127 127 129 130 130 132 134 134 136 121 121 123 126 126 128 141 141 143 122 122 124 118 118 120 119 119 121 128 128 130 136 136 138 117 117 119 148 148 150 142 142 144 136 136 138 130 130 132 128 128 130 119 119 121 112 112 114 141 141 143 118 118 120 128 128 130 141 141 143 132 132 134 128 128 130 138 138 140 113 113 115 143 143 145 122 122 124 118 118 120 126 126 128 131 131 133 124 124 126 126 126 128 132 132 134 127 127 129 118 118 120 130 130 132 126 126 128 144 144 146 139 139 141 135 135 137 111 111 113 125 125 127 124 124 126 135 135 137 120 120 122 115 115 117 142 142 144 128 128 130 123 123 125 129 129 131 116 116 118 117 117 119 143 143 145 136 136 138 121 121 123 136 136 138 115 115 117 133 133 135 134 134 136 123 123 125 123 123 125 139 139 141 142 142 144 135 135 137 131 131 133 123 123 125 140 140 142 140 140 142 144 144 146 144 144 146 115 115 117 135 135 137 121 121 123 136 136 138 127 127 129 120 120 122 122 122 124 143 143 145 118 118 120 131 131 133 130 130 132 139 139 141 114 114 116 137 137 139 133 133 135 139 139 141 118 118 120 117 117 119 145 145 147 122 122 124 125 125 127 119 119 121 134 134 136 137 137 139 116 116 118 124 124 126 142 142 144 111 111 113 124 124 126 130 130 132 141 141 143 125 125 127 122 122 124 122 122 124 139 139 141 112 112 114 145 145 147 134 134 136 132 132 134 114 114 116 129 129 131 136 136 138 116 116 118 117 117 119 141 141 143 140 140 142 122 122 124 118 118 120 121 121 123 117 117 119 136 136 138 123 123 125 116 116 118 137 137 139 116 116 118 115 115 117 118 118 120 129 129 131 147 147 149 129 129 131 142 142 144 119 119 121 132 132 134 145 145 147 142 142 144 140 140 142 127 127 129 135 135 137 111 111 113 128 128 130 123 123 125 127 127 129 134 134 136 139 139 141 140 140 142 113 113 115 131 131 133 140 140 142 132 132 134 134 134 136 130 130 132 142 142 144 139 139 141 122 122 124 116 116 118 146 146 148 141 141 143 122 122 124 118 118 120 114 114 116 131 131 133 139 139 141 142 142 144 125 125 127 116 116 118 132 132 134 122 122 124 141 141 143 126 126 128 139 139 141 131 131 133 142 142 144 141 141 143 136 136 138 126 126 128 121 121 123 122 122 124 
137 137 139 136 136 138 122 122 124 138 138 140 123 123 125 133 133 135 126 126 128 132 132 134 129 129 131 139 139 141 139 139 141 117 117 119 121 121 123 128 128 130 121 121 123 124 124 126 121 121 123 133 133 135 131 131 133 137 137 139 120 120 122 125 125 127 129 129 131 129 129 131 130 130 132 130 130 132 132 132 134 134 134 136 125 125 127 128 128 130 126 126 128 132 132 134 120 120 122 133 133 135 127 127 129 130 130 132 147 147 149 147 147 149 133 133 135 116 116 118 127 127 129 145 145 147 121 121 123 131 131 133 147 147 149 125 125 127 132 132 134 141 141 143 130 130 132 127 127 129 137 137 139 138 138 140 117 117 119 121 121 123 132 132 134 124 124 126 128 128 130 118 118 120 122 122 124 137 137 139 132 132 134 126 126 128 123 123 125 140 140 142 120 120 122 133 133 135 114 114 116 126 126 128 125 125 127 116 116 118 132 132 134 131 131 133 126 126 128 115 115 117 137 137 139 115 115 117 124 124 126 114 114 116 126 126 128 122 122 124 134 134 136 124 124 126 133 133 135 116 116 118 122 122 124 141 141 143 126 126 128 145 145 147 117 117 119 117 117 119 111 111 113 138 138 140 129 129 131 126 126 128 124 124 126 118 118 120 129 129 131 145 145 147 121 121 123 122 122 124 113 113 115 114 114 116 147 147 149 129 129 131 122 122 124 119 119 121 130 130 132 121 121 123 135 135 137 127 127 129 122 122 124 129 129 131 139 139 141 125 125 127 130 130 132 135 135 137 134 134 136 136 136 138 121 121 123 143 143 145 134 134 136 123 123 125 136 136 138 129 129 131 136 136 138 120 120 122 119 119 121 124 124 126 121 121 123 130 130 132 129 129 131 127 127 129 116 116 118 132 132 134 138 138 140 130 130 132 141 141 143 134 134 136 138 138 140 138 138 140 121 121 123 126 126 128 141 141 143 128 128 130 119 119 121 139 139 141 112 112 114 129 129 131 113 113 115 134 134 136 121 121 123 130 130 132 138 138 140 132 132 134 118 118 120 116 116 118 133 133 135 124 124 126 137 137 139 123 123 125 113 113 115 142 142 144 112 112 114 134 134 136 125 125 127 125 125 127 134 134 136 121 121 123 127 127 129 137 137 139 143 143 145 135 135 137 127 127 129 116 116 118 118 118 120 122 122 124 127 127 129 122 122 124 130 130 132 119 119 121 137 137 139 139 139 141 132 132 134 122 122 124 138 138 140 128 128 130 143 143 145 140 140 142 140 140 142 138 138 140 122 122 124 142 142 144 133 133 135 128 128 130 136 136 138 140 140 142 132 132 134 122 122 124 125 125 127 124 124 126 146 146 148 126 126 128 120 120 122 132 132 134 133 133 135 141 141 143 117 117 119 122 122 124 132 132 134 116 116 118 128 128 130 130 130 132 131 131 133 147 147 149 132 132 134 141 141 143 134 134 136 124 124 126 137 137 139 137 137 139 110 110 112 133 133 135 119 119 121 116 116 118 130 130 132 143 143 145 120 120 122 118 118 120 124 124 126 124 124 126 129 129 131 138 138 140 145 145 147 115 115 117 114 114 116 141 141 143 124 124 126 143 143 145 125 125 127 135 135 137 140 140 142 139 139 141 144 144 146 128 128 130 143 143 145 127 127 129 115 115 117 122 122 124 129 129 131 131 131 133 129 129 131 122 122 124 126 126 128 135 135 137 122 122 124 144 144 146 
144 144 146 131 131 133 116 116 118 134 134 136 128 128 130 112 112 114 138 138 140 119 119 121 122 122 124 134 134 136 122 122 124 141 141 143 116 116 118 120 120 122 131 131 133 136 136 138 132 132 134 135 135 137 131 131 133 138 138 140 123 123 125 130 130 132 119 119 121 126 126 128 119 119 121 138 138 140 144 144 146 111 111 113 138 138 140 120 120 122 136 136 138 114 114 116 115 115 117 111 111 113 145 145 147 116 116 118 118 118 120 122 122 124 135 135 137 136 136 138 117 117 119 135 135 137 115 115 117 144 144 146 128 128 130 129 129 131 112 112 114 116 116 118 116 116 118 124 124 126 143 143 145 113 113 115 112 112 114 133 133 135 112 112 114 141 141 143 131 131 133 121 121 123 136 136 138 136 136 138 115 115 117 116 116 118 123 123 125 117 117 119 125 125 127 139 139 141 140 140 142 128 128 130 112 112 114 137 137 139 120 120 122 122 122 124 112 112 114 111 111 113 129 129 131 140 140 142 119 119 121 123 123 125 118 118 120 132 132 134 120 120 122 132 132 134 111 111 113 138 138 140 123 123 125 124 124 126 117 117 119 125 125 127 119 119 121 126 126 128 122 122 124 120 120 122 136 136 138 126 126 128 126 126 128 121 121 123 139 139 141 136 136 138 135 135 137 115 115 117 135 135 137 141 141 143 136 136 138 138 138 140 130 130 132 117 117 119 132 132 134 137 137 139 120 120 122 143 143 145 125 125 127 144 144 146 136 136 138 114 114 116 119 119 121 122 122 124 125 125 127 124 124 126 122 122 124 134 134 136 141 141 143 126 126 128 132 132 134 137 137 139 128 128 130 133 133 135 120 120 122 121 121 123 130 130 132 115 115 117 117 117 119 138 138 140 123 123 125 119 119 121 128 128 130 124 124 126 128 128 130 141 141 143 132 132 134 141 141 143 120 120 122 125 125 127 122 122 124 122 122 124 115 115 117 134 134 136 119 119 121 128 128 130 133 133 135 122 122 124 129 129 131 141 141 143 140 140 142 131 131 133 114 114 116 145 145 147 121 121 123 135 135 137 131 131 133 136 136 138 112 112 114 124 124 126 139 139 141 121 121 123 110 110 112 129 129 131 122 122 124 141 141 143 134 134 136 122 122 124 142 142 144 117 117 119 132 132 134 138 138 140 122 122 124 123 123 125 135 135 137 135 135 137 131 131 133 124 124 126 134 134 136 139 139 141 121 121 123 139 139 141 136 136 138 141 141 143 122 122 124 128 128 130 132 132 134 127 127 129 118 118 120 114 114 116 138 138 140 128 128 130 117 117 119 128 128 130 138 138 140 125 125 127 133 133 135 114 114 116 119 119 121 141 141 143 118 118 120 128 128 130 140 140 142 127 127 129 129 129 131 124 124 126 128 128 130 134 134 136 126 126 128 122 122 124 145 145 147 135 135 137 117 117 119 140 140 142 123 123 125 136 136 138 141 141 143 141 141 143 118 118 120 123 123 125 140 140 142 131 131 133 122 122 124 128 128 130 144 144 146 135 135 137 135 135 137 121 121 123 132 132 134 136 136 138 113 113 115 117 117 119 122 122 124 129 129 131 128 128 130 117 117 119 119 119 121 115 115 117 135 135 137 136 136 138 130 130 132 129 129 131 138 138 140 122 122 124 134 134 136 115 115 117 140 140 142 127 127 129 129 129 131 110 110 112 117 117 119 135 135 137 138 138 140 122 122 124 
129 129 131 118 118 120 141 141 143 129 129 131 123 123 125 114 114 116 141 141 143 127 127 129 130 130 132 128 128 130 133 133 135 129 129 131 134 134 136 142 142 144 139 139 141 124 124 126 124 124 126 127 127 129 130 130 132 124 124 126 144 144 146 144 144 146 125 125 127 122 122 124 130 130 132 141 141 143 120 120 122 127 127 129 132 132 134 140 140 142 122 122 124 129 129 131 140 140 142 133 133 135 121 121 123 129 129 131 136 136 138 138 138 140 117 117 119 131 131 133 115 115 117 117 117 119 140 140 142 145 145 147 129 129 131 137 137 139 119 119 121 118 118 120 139 139 141 126 126 128 125 125 127 115 115 117 115 115 117 123 123 125 135 135 137 114 114 116 129 129 131 136 136 138 124 124 126 118 118 120 127 127 129 130 130 132 117 117 119 124 124 126 114 114 116 137 137 139 138 138 140 129 129 131 135 135 137 132 132 134 121 121 123 128 128 130 131 131 133 119 119 121 129 129 131 125 125 127 130 130 132 139 139 141 139 139 141 140 140 142 138 138 140 126 126 128 120 120 122 141 141 143 113 113 115 124 124 126 124 124 126 127 127 129 123 123 125 145 145 147 116 116 118 118 118 120 131 131 133 124 124 126 117 117 119 136 136 138 141 141 143 141 141 143 115 115 117 112 112 114 146 146 148 136 136 138 114 114 116 125 125 127 141 141 143 127 127 129 141 141 143 131 131 133 134 134 136 135 135 137 127 127 129 121 121 123 119 119 121 121 121 123 141 141 143 144 144 146 114 114 116 133 133 135 144 144 146 125 125 127 128 128 130 116 116 118 134 134 136 133 133 135 119 119 121 140 140 142 134 134 136 118 118 120 121 121 123 131 131 133 127 127 129 134 134 136 120 120 122 125 125 127 135 135 137 139 139 141 125 125 127 111 111 113 119 119 121 147 147 149 138 138 140 121 121 123 140 140 142 122 122 124 132 132 134 132 132 134 116 116 118 132 132 134 126 126 128 136 136 138 138 138 140 145 145 147 141 141 143 141 141 143 113 113 115 129 129 131 127 127 129 118 118 120 122 122 124 127 127 129 126 126 128 128 128 130 126 126 128 122 122 124 119 119 121 114 114 116 126 126 128 113 113 115 120 120 122 143 143 145 119 119 121 114 114 116 136 136 138 118 118 120 111 111 113 136 136 138 133 133 135 114 114 116 131 131 133 121 121 123 125 125 127 132 132 134 136 136 138 125 125 127 137 137 139 134 134 136 117 117 119 132 132 134 129 129 131 124 124 126 138 138 140 138 138 140 118 118 120 124 124 126 113 113 115 128 128 130 117 117 119 122 122 124 115 115 117 143 143 145 115 115 117 129 129 131 133 133 135 123 123 125 129 129 131 143 143 145 122 122 124 120 120 122 126 126 128 142 142 144 129 129 131 142 142 144 128 128 130 129 129 131 131 131 133 136 136 138 126 126 128 137 137 139 133 133 135 136 136 138 125 125 127 141 141 143 141 141 143 140 140 142 139 139 141 141 141 143 116 116 118 133 133 135 126 126 128 127 127 129 118 118 120 137 137 139 124 124 126 124 124 126 132 132 134 143 143 145 117 117 119 131 131 133 136 136 138 141 141 143 138 138 140 139 139 141 141 141 143 136 136 138 125 125 127 113 113 115 135 135 137 123 123 125 123 123 125 135 135 137 145 145 147 138 138 140 139 139 141 116 116 118 127 127 129 112 112 114 
120 120 122 131 131 133 136 136 138 143 143 145 141 141 143 112 112 114 147 147 149 126 126 128 141 141 143 116 116 118 145 145 147 134 134 136 132 132 134 135 135 137 134 134 136 143 143 145 127 127 129 118 118 120 133 133 135 138 138 140 134 134 136 138 138 140 125 125 127 139 139 141 118 118 120 136 136 138 134 134 136 132 132 134 129 129 131 146 146 148 127 127 129 141 141 143 133 133 135 135 135 137 110 110 112 125 125 127 113 113 115 128 128 130 145 145 147 139 139 141 123 123 125 134 134 136 127 127 129 123 123 125 143 143 145 115 115 117 119 119 121 137 137 139 135 135 137 126 126 128 121 121 123 126 126 128 118 118 120 139 139 141 128 128 130 116 116 118 130 130 132 136 136 138 141 141 143 120 120 122 120 120 122 137 137 139 126 126 128 123 123 125 137 137 139 136 136 138 142 142 144 140 140 142 131 131 133 134 134 136 134 134 136 120 120 122 124 124 126 124 124 126 130 130 132 123 123 125 139 139 141 134 134 136 136 136 138 131 131 133 128 128 130 117 117 119 144 144 146 124 124 126 113 113 115 143 143 145 139 139 141 128 128 130 133 133 135 139 139 141 113 113 115 129 129 131 125 125 127 116 116 118 128 128 130 122 122 124 128 128 130 120 120 122 129 129 131 119 119 121 138 138 140 128 128 130 142 142 144 144 144 146 129 129 131 129 129 131 146 146 148 143 143 145 139 139 141 111 111 113 124 124 126 126 126 128 143 143 145 139 139 141 112 112 114 139 139 141 132 132 134 114 114 116 144 144 146 130 130 132 131 131 133 139 139 141 135 135 137 141 141 143 115 115 117 137 137 139 136 136 138 135 135 137 117 117 119 134 134 136 129 129 131 124 124 126 117 117 119 131 131 133 118 118 120 139 139 141 137 137 139 129 129 131 114 114 116 138 138 140 128 128 130 122 122 124 128 128 130 142 142 144 142 142 144 139 139 141 120 120 122 132 132 134 135 135 137 117 117 119 141 141 143 117 117 119 136 136 138 117 117 119 135 135 137 135 135 137 132 132 134 113 113 115 129 129 131 121 121 123 137 137 139 131 131 133 141 141 143 130 130 132 143 143 145 136 136 138 134 134 136 146 146 148 115 115 117 125 125 127 135 135 137 120 120 122 142 142 144 136 136 138 113 113 115 124 124 126 120 120 122 139 139 141 141 141 143 125 125 127 135 135 137 131 131 133 129 129 131 134 134 136 112 112 114 129 129 131 120 120 122 122 122 124 145 145 147 139 139 141 132 132 134 116 116 118 118 118 120 122 122 124 136 136 138 125 125 127 121 121 123 116 116 118 129 129 131 117 117 119 120 120 122 130 130 132 116 116 118 127 127 129 126 126 128 121 121 123 143 143 145 123 123 125 130 130 132 141 141 143 132 132 134 120 120 122 129 129 131 120 120 122 139 139 141 135 135 137 115 115 117 139 139 141 133 133 135 115 115 117 139 139 141 131 131 133 143 143 145 129 129 131 137 137 139 120 120 122 133 133 135 131 131 133 125 125 127 125 125 127 138 138 140 112 112 114 117 117 119 136 136 138 147 147 149 117 117 119 138 138 140 136 136 138 119 119 121 140 140 142 117 117 119 112 112 114 128 128 130 118 118 120 138 138 140 127 127 129 130 130 132 141 141 143 115 115 117 114 114 116 111 111 113 142 142 144 122 122 124 118 118 120 114 114 116 132 132 134 
120 120 122 128 128 130 131 131 133 134 134 136 128 128 130 116 116 118 130 130 132 137 137 139 143 143 145 123 123 125 124 124 126 131 131 133 124 124 126 135 135 137 127 127 129 115 115 117 139 139 141 117 117 119 124 124 126 121 121 123 116 116 118 140 140 142 114 114 116 132 132 134 120 120 122 121 121 123 111 111 113 132 132 134 139 139 141 127 127 129 136 136 138 136 136 138 130 130 132 142 142 144 137 137 139 131 131 133 123 123 125 143 143 145 128 128 130 113 113 115 137 137 139 128 128 130 113 113 115 133 133 135 118 118 120 141 141 143 133 133 135 119 119 121 116 116 118 139 139 141 126 126 128 139 139 141 112 112 114 134 134 136 115 115 117 140 140 142 120 120 122 141 141 143 131 131 133 128 128 130 131 131 133 119 119 121 142 142 144 124 124 126 121 121 123 127 127 129 130 130 132 126 126 128 129 129 131 138 138 140 134 134 136 123 123 125 126 126 128 122 122 124 117 117 119 143 143 145 136 136 138 134 134 136 115 115 117 125 125 127 118 118 120 117 117 119 136 136 138 131 131 133 127 127 129 133 133 135 130 130 132 125 125 127 124 124 126 113 113 115 128 128 130 121 121 123 130 130 132 121 121 123 136 136 138 120 120 122 137 137 139 126 126 128 118 118 120 140 140 142 130 130 132 140 140 142 137 137 139 130 130 132 140 140 142 126 126 128 143 143 145 126 126 128 144 144 146 123 123 125 132 132 134 122 122 124 139 139 141 134 134 136 133 133 135 146 146 148 115 115 117 138 138 140 129 129 131 135 135 137 113 113 115 117 117 119 115 115 117 136 136 138 141 141 143 125 125 127 115 115 117 115 115 117 140 140 142 119 119 121 137 137 139 125 125 127 124 124 126 118 118 120 137 137 139 147 147 149 140 140 142 135 135 137 124 124 126 140 140 142 120 120 122 120 120 122 118 118 120 122 122 124 115 115 117 138 138 140 136 136 138 134 134 136 147 147 149 117 117 119 122 122 124 137 137 139 127 127 129 128 128 130 131 131 133 126 126 128 129 129 131 124 124 126 142 142 144 145 145 147 127 127 129 120 120 122 142 142 144 137 137 139 127 127 129 136 136 138 131 131 133 119 119 121 130 130 132 126 126 128 143 143 145 119 119 121 133 133 135 132 132 134 136 136 138 125 125 127 122 122 124 122 122 124 127 127 129 136 136 138 144 144 146 132 132 134 119 119 121 116 116 118 117 117 119 115 115 117 124 124 126 117 117 119 124 124 126 132 132 134 138 138 140 128 128 130 139 139 141 142 142 144 139 139 141 118 118 120 140 140 142 120 120 122 142 142 144 130 130 132 118 118 120 146 146 148 131 131 133 138 138 140 126 126 128 137 137 139 136 136 138 144 144 146 123 123 125 123 123 125 126 126 128 129 129 131 127 127 129 131 131 133 130 130 132 132 132 134 133 133 135 135 135 137 132 132 134 140 140 142 137 137 139 138 138 140 136 136 138 128 128 130 141 141 143 136 136 138 115 115 117 126 126 128 116 116 118 113 113 115 140 140 142 118 118 120 129 129 131 120 120 122 120 120 122 113 113 115 131 131 133 131 131 133 116 116 118 128 128 130 122 122 124 116 116 118 121 121 123 135 135 137 124 124 126 125 125 127 124 124 126 139 139 141 121 121 123 116 116 118 128 128 130 115 115 117 130 130 132 140 140 142 143 143 145 143 143 145 
117 117 119 128 128 130 115 115 117 120 120 122 137 137 139 116 116 118 139 139 141 119 119 121 141 141 143 133 133 135 125 125 127 144 144 146 141 141 143 129 129 131 122 122 124 142 142 144 129 129 131 134 134 136 135 135 137 138 138 140 125 125 127 126 126 128 118 118 120 137 137 139 114 114 116 133 133 135 122 122 124 114 114 116 134 134 136 133 133 135 126 126 128 112 112 114 147 147 149 135 135 137 139 139 141 116 116 118 119 119 121 118 118 120 135 135 137 130 130 132 129 129 131 137 137 139 141 141 143 119 119 121 117 117 119 117 117 119 119 119 121 128 128 130 124 124 126 118 118 120 131 131 133 134 134 136 130 130 132 139 139 141 129 129 131 130 130 132 134 134 136 143 143 145 123 123 125 143 143 145 129 129 131 134 134 136 128 128 130 119 119 121 133 133 135 118 118 120 131 131 133 127 127 129 140 140 142 127 127 129 128 128 130 121 121 123 119 119 121 126 126 128 111 111 113 141 141 143 134 134 136 120 120 122 136 136 138 132 132 134 122 122 124 118 118 120 133 133 135 141 141 143 132 132 134 140 140 142 125 125 127 128 128 130 139 139 141 129 129 131 130 130 132 119 119 121 145 145 147 116 116 118 133 133 135 137 137 139 114 114 116 125 125 127 113 113 115 124 124 126 116 116 118 123 123 125 122 122 124 137 137 139 134 134 136 138 138 140 131 131 133 137 137 139 119 119 121 117 117 119 135 135 137 133 133 135 144 144 146 125 125 127 122 122 124 119 119 121 131 131 133 129 129 131 145 145 147 116 116 118 121 121 123 115 115 117 136 136 138 141 141 143 118 118 120 113 113 115 120 120 122 127 127 129 138 138 140 137 137 139 139 139 141 145 145 147 138 138 140 133 133 135 135 135 137 135 135 137 124 124 126 145 145 147 143 143 145 115 115 117 136 136 138 123 123 125 138 138 140 127 127 129 133 133 135 126 126 128 120 120 122 110 110 112 144 144 146 132 132 134 138 138 140 133 133 135 125 125 127 118 118 120 139 139 141 139 139 141 115 115 117 125 125 127 123 123 125 128 128 130 131 131 133 135 135 137 138 138 140 141 141 143 127 127 129 138 138 140 123 123 125 133 133 135 133 133 135 135 135 137 124 124 126 128 128 130 120 120 122 136 136 138 116 116 118 118 118 120 115 115 117 113 113 115 120 120 122 112 112 114 123 123 125 130 130 132 133 133 135 117 117 119 129 129 131 116 116 118 134 134 136 131 131 133 123 123 125 144 144 146 143 143 145 115 115 117 121 121 123 127 127 129 120 120 122 111 111 113 122 122 124 126 126 128 141 141 143 126 126 128 137 137 139 126 126 128 113 113 115 145 145 147 146 146 148 133 133 135 132 132 134 119 119 121 123 123 125 118 118 120 137 137 139 131 131 133 121 121 123 131 131 133 120 120 122 115 115 117 134 134 136 123 123 125 144 144 146 117 117 119 142 142 144 139 139 141 116 116 118 121 121 123 141 141 143 136 136 138 124 124 126 117 117 119 124 124 126 139 139 141 123 123 125 142 142 144 144 144 146 114 114 116 126 126 128 119 119 121 127 127 129 134 134 136 122 122 124 133 133 135 129 129 131 112 112 114 134 134 136 144 144 146 132 132 134 145 145 147 142 142 144 137 137 139 119 119 121 117 117 119 126 126 128 130 130 132 129 129 131 140 140 142 123 123 125 124 124 126 
136 136 138 116 116 118 113 113 115 123 123 125 145 145 147 126 126 128 117 117 119 130 130 132 128 128 130 132 132 134 128 128 130 127 127 129 141 141 143 126 126 128 143 143 145 143 143 145 136 136 138 117 117 119 128 128 130 123 123 125 130 130 132 139 139 141 120 120 122 123 123 125 127 127 129 129 129 131 115 115 117 143 143 145 135 135 137 138 138 140 135 135 137 117 117 119 112 112 114 133 133 135 125 125 127 131 131 133 132 132 134 127 127 129 136 136 138 135 135 137 137 137 139 143 143 145 121 121 123 140 140 142 137 137 139 115 115 117 133 133 135 123 123 125 125 125 127 145 145 147 126 126 128 139 139 141 136 136 138 139 139 141 133 133 135 119 119 121 119 119 121 117 117 119 128 128 130 115 115 117 119 119 121 136 136 138 122 122 124 140 140 142 127 127 129 142 142 144 139 139 141 145 145 147 139 139 141 119 119 121 115 115 117 116 116 118 139 139 141 137 137 139 131 131 133 143 143 145 139 139 141 119 119 121 130 130 132 125 125 127 131 131 133 110 110 112 123 123 125 111 111 113 134 134 136 121 121 123 140 140 142 139 139 141 113 113 115 140 140 142 141 141 143 128 128 130 126 126 128 132 132 134 130 130 132 135 135 137 124 124 126 120 120 122 118 118 120 112 112 114 121 121 123 121 121 123 118 118 120 137 137 139 120 120 122 125 125 127 141 141 143 136 136 138 124 124 126 137 137 139 125 125 127 135 135 137 127 127 129 137 137 139 133 133 135 122 122 124 122 122 124 110 110 112 117 117 119 118 118 120 131 131 133 117 117 119 135 135 137 135 135 137 126 126 128 131 131 133 115 115 117 121 121 123 125 125 127 129 129 131 128 128 130 140 140 142 135 135 137 141 141 143 126 126 128 111 111 113 123 123 125 117 117 119 145 145 147 116 116 118 131 131 133 128 128 130 130 130 132 117 117 119 140 140 142 117 117 119 141 141 143 125 125 127 131 131 133 115 115 117 128 128 130 126 126 128 144 144 146 119 119 121 117 117 119 127 127 129 141 141 143 118 118 120 140 140 142 129 129 131 143 143 145 135 135 137 136 136 138 112 112 114 123 123 125 141 141 143 146 146 148 119 119 121 143 143 145 140 140 142 141 141 143 122 122 124 138 138 140 113 113 115 124 124 126 138 138 140 131 131 133 120 120 122 128 128 130 140 140 142 131 131 133 145 145 147 139 139 141 128 128 130 129 129 131 134 134 136 144 144 146 141 141 143 118 118 120 128 128 130 123 123 125 136 136 138 137 137 139 139 139 141 128 128 130 128 128 130 130 130 132 130 130 132 130 130 132 139 139 141 132 132 134 115 115 117 112 112 114 122 122 124 114 114 116 116 116 118 136 136 138 141 141 143 130 130 132 144 144 146 137 137 139 136 136 138 134 134 136 139 139 141 119 119 121 112 112 114 138 138 140 138 138 140 125 125 127 113 113 115 126 126 128 137 137 139 127 127 129 138 138 140 140 140 142 115 115 117 122 122 124 117 117 119 142 142 144 130 130 132 122 122 124 130 130 132 126 126 128 119 119 121 117 117 119 146 146 148 141 141 143 134 134 136 122 122 124 135 135 137 117 117 119 114 114 116 122 122 124 133 133 135 140 140 142 119 119 121 123 123 125 118 118 120 136 136 138 129 129 131 124 124 126 140 140 142 115 115 117 140 140 142 137 137 139 117 117 119 
125 125 127 136 136 138 111 111 113 132 132 134 139 139 141 129 129 131 119 119 121 138 138 140 139 139 141 133 133 135 136 136 138 131 131 133 129 129 131 116 116 118 140 140 142 115 115 117 124 124 126 124 124 126 133 133 135 125 125 127 121 121 123 123 123 125 133 133 135 127 127 129 143 143 145 128 128 130 124 124 126 141 141 143 135 135 137 136 136 138 136 136 138 136 136 138 126 126 128 143 143 145 121 121 123 122 122 124 116 116 118 133 133 135 121 121 123 132 132 134 141 141 143 127 127 129 131 131 133 109 109 111 125 125 127 118 118 120 134 134 136 119 119 121 134 134 136 120 120 122 146 146 148 122 122 124 120 120 122 134 134 136 121 121 123 134 134 136 128 128 130 119 119 121 139 139 141 138 138 140 140 140 142 122 122 124 135 135 137 118 118 120 126 126 128 128 128 130 125 125 127 139 139 141 117 117 119 125 125 127 133 133 135 146 146 148 120 120 122 144 144 146 120 120 122 129 129 131 137 137 139 125 125 127 115 115 117 136 136 138 125 125 127 135 135 137 125 125 127 116 116 118 130 130 132 115 115 117 121 121 123 138 138 140 129 129 131 142 142 144 128 128 130 139 139 141 126 126 128 123 123 125 129 129 131 134 134 136 146 146 148 130 130 132 113 113 115 117 117 119 141 141 143 139 139 141 127 127 129 117 117 119 126 126 128 141 141 143 121 121 123 117 117 119 141 141 143 138 138 140 122 122 124 134 134 136 138 138 140 121 121 123 114 114 116 125 125 127 125 125 127 141 141 143 143 143 145 125 125 127 131 131 133 110 110 112 113 113 115 143 143 145 125 125 127 138 138 140 130 130 132 137 137 139 129 129 131 135 135 137 125 125 127 137 137 139 130 130 132 129 129 131 142 142 144 125 125 127 112 112 114 134 134 136 146 146 148 125 125 127 132 132 134 118 118 120 134 134 136 123 123 125 138 138 140 142 142 144 133 133 135 127 127 129 131 131 133 135 135 137 140 140 142 122 122 124 120 120 122 135 135 137 132 132 134 115 115 117 122 122 124 124 124 126 123 123 125 140 140 142 130 130 132 135 135 137 128 128 130 117 117 119 128 128 130 147 147 149 122 122 124 144 144 146 129 129 131 129 129 131 122 122 124 138 138 140 114 114 116 130 130 132 123 123 125 124 124 126 131 131 133 129 129 131 115 115 117 133 133 135 141 141 143 127 127 129 131 131 133 145 145 147 130 130 132 117 117 119 143 143 145 118 118 120 124 124 126 131 131 133 138 138 140 136 136 138 115 115 117 119 119 121 140 140 142 133 133 135 137 137 139 116 116 118 126 126 128 131 131 133 124 124 126 114 114 116 137 137 139 128 128 130 123 123 125 140 140 142 114 114 116 119 119 121 122 122 124 126 126 128 134 134 136 115 115 117 136 136 138 123 123 125 126 126 128 127 127 129 119 119 121 123 123 125 110 110 112 117 117 119 114 114 116 128 128 130 126 126 128 131 131 133 121 121 123 141 141 143 114 114 116 140 140 142 128 128 130 129 129 131 131 131 133 142 142 144 117 117 119 142 142 144 117 117 119 139 139 141 138 138 140 131 131 133 127 127 129 139 139 141 144 144 146 140 140 142 119 119 121 125 125 127 117 117 119 146 146 148 113 113 115 137 137 139 120 120 122 121 121 123 125 125 127 115 115 117 135 135 137 138 138 140 134 134 136 131 131 133 
120 120 122 120 120 122 121 121 123 141 141 143 112 112 114 136 136 138 137 137 139 125 125 127 120 120 122 114 114 116 115 115 117 135 135 137 113 113 115 117 117 119 119 119 121 135 135 137 135 135 137 124 124 126 122 122 124 127 127 129 110 110 112 138 138 140 136 136 138 139 139 141 142 142 144 125 125 127 113 113 115 116 116 118 119 119 121 133 133 135 142 142 144 127 127 129 132 132 134 129 129 131 142 142 144 146 146 148 116 116 118 132 132 134 131 131 133 124 124 126 131 131 133 130 130 132 138 138 140 144 144 146 144 144 146 122 122 124 118 118 120 147 147 149 113 113 115 128 128 130 137 137 139 111 111 113 124 124 126 110 110 112 123 123 125 126 126 128 133 133 135 130 130 132 122 122 124 128 128 130 132 132 134 118 118 120 141 141 143 118 118 120 118 118 120 131 131 133 114 114 116 125 125 127 117 117 119 136 136 138 116 116 118 119 119 121 139 139 141 140 140 142 111 111 113 133 133 135 138 138 140 139 139 141 129 129 131 119 119 121 140 140 142 146 146 148 121 121 123 127 127 129 126 126 128 128 128 130 126 126 128 122 122 124 130 130 132 120 120 122 144 144 146 142 142 144 129 129 131 130 130 132 136 136 138 136 136 138 123 123 125 145 145 147 139 139 141 126 126 128 131 131 133 130 130 132 125 125 127 113 113 115 129 129 131 144 144 146 128 128 130 138 138 140 115 115 117 113 113 115 128 128 130 116 116 118 114 114 116 113 113 115 136 136 138 129 129 131 113 113 115 138 138 140 118 118 120 135 135 137 128 128 130 113 113 115 139 139 141 129 129 131 128 128 130 124 124 126 118 118 120 116 116 118 140 140 142 123 123 125 140 140 142 110 110 112 145 145 147 142 142 144 140 140 142 134 134 136 130 130 132 128 128 130 143 143 145 131 131 133 133 133 135 128 128 130 118 118 120 113 113 115 133 133 135 141 141 143 140 140 142 126 126 128 125 125 127 133 133 135 115 115 117 126 126 128 127 127 129 134 134 136 120 120 122 119 119 121 139 139 141 122 122 124 123 123 125 134 134 136 121 121 123 124 124 126 115 115 117 130 130 132 137 137 139 128 128 130 144 144 146 142 142 144 117 117 119 130 130 132 135 135 137 123 123 125 126 126 128 127 127 129 133 133 135 121 121 123 135 135 137 138 138 140 133 133 135 120 120 122 133 133 135 123 123 125 139 139 141 143 143 145 142 142 144 119 119 121 129 129 131 137 137 139 120 120 122 136 136 138 132 132 134 121 121 123 122 122 124 116 116 118 126 126 128 129 129 131 124 124 126 143 143 145 146 146 148 126 126 128 135 135 137 120 120 122 123 123 125 141 141 143 128 128 130 123 123 125 145 145 147 135 135 137 141 141 143 116 116 118 111 111 113 144 144 146 112 112 114 122 122 124 124 124 126 127 127 129 123 123 125 120 120 122 119 119 121 140 140 142 127 127 129 141 141 143 121 121 123 136 136 138 120 120 122 122 122 124 120 120 122 136 136 138 128 128 130 117 117 119 135 135 137 130 130 132 136 136 138 136 136 138 143 143 145 125 125 127 132 132 134 127 127 129 125 125 127 115 115 117 141 141 143 128 128 130 138 138 140 132 132 134 120 120 122 120 120 122 134 134 136 126 126 128 117 117 119 119 119 121 121 121 123 134 134 136 132 132 134 122 122 124 121 121 123 138 138 140 
119 119 121 118 118 120 135 135 137 122 122 124 130 130 132 146 146 148 139 139 141 130 130 132 144 144 146 117 117 119 139 139 141 114 114 116 111 111 113 131 131 133 125 125 127 119 119 121 130 130 132 123 123 125 143 143 145 133 133 135 127 127 129 125 125 127 139 139 141 116 116 118 134 134 136 125 125 127 126 126 128 117 117 119 119 119 121 145 145 147 130 130 132 124 124 126 138 138 140 122 122 124 112 112 114 136 136 138 134 134 136 121 121 123 116 116 118 138 138 140 135 135 137 136 136 138 138 138 140 129 129 131 122 122 124 132 132 134 114 114 116 135 135 137 125 125 127 119 119 121 125 125 127 132 132 134 144 144 146 125 125 127 133 133 135 133 133 135 121 121 123 122 122 124 139 139 141 140 140 142 136 136 138 142 142 144 140 140 142 127 127 129 132 132 134 127 127 129 140 140 142 119 119 121 143 143 145 139 139 141 125 125 127 112 112 114 116 116 118 124 124 126 112 112 114 145 145 147 141 141 143 144 144 146 124 124 126 125 125 127 142 142 144 121 121 123 129 129 131 131 131 133 128 128 130 138 138 140 145 145 147 133 133 135 139 139 141 117 117 119 146 146 148 141 141 143 137 137 139 136 136 138 140 140 142 144 144 146 113 113 115 136 136 138 129 129 131 120 120 122 125 125 127 112 112 114 135 135 137 120 120 122 132 132 134 131 131 133 137 137 139 134 134 136 134 134 136 118 118 120 113 113 115 141 141 143 130 130 132 142 142 144 124 124 126 146 146 148 122 122 124 144 144 146 117 117 119 128 128 130 119 119 121 122 122 124 142 142 144 139 139 141 118 118 120 127 127 129 110 110 112 113 113 115 120 120 122 120 120 122 142 142 144 130 130 132 132 132 134 119 119 121 118 118 120 130 130 132 113 113 115 113 113 115 138 138 140 133 133 135 125 125 127 132 132 134 117 117 119 120 120 122 133 133 135 138 138 140 143 143 145 139 139 141 119 119 121 125 125 127 132 132 134 126 126 128 132 132 134 118 118 120 140 140 142 147 147 149 123 123 125 136 136 138 114 114 116 126 126 128 116 116 118 121 121 123 119 119 121 136 136 138 122 122 124 125 125 127 141 141 143 133 133 135 142 142 144 127 127 129 120 120 122 145 145 147 124 124 126 131 131 133 130 130 132 123 123 125 130 130 132 128 128 130 118 118 120 138 138 140 139 139 141 127 127 129 140 140 142 145 145 147 123 123 125 140 140 142 142 142 144 137 137 139 142 142 144 116 116 118 124 124 126 115 115 117 121 121 123 118 118 120 123 123 125 117 117 119 140 140 142 131 131 133 132 132 134 117 117 119 125 125 127 116 116 118 118 118 120 137 137 139 139 139 141 121 121 123 139 139 141 137 137 139 135 135 137 128 128 130 122 122 124 109 109 111 122 122 124 118 118 120 115 115 117 112 112 114 137 137 139 126 126 128 145 145 147 129 129 131 146 146 148 140 140 142 131 131 133 134 134 136 146 146 148 128 128 130 122 122 124 131 131 133 120 120 122 133 133 135 124 124 126 118 118 120 124 124 126 118 118 120 116 116 118 115 115 117 115 115 117 119 119 121 129 129 131 132 132 134 145 145 147 125 125 127 124 124 126 141 141 143 121 121 123 116 116 118 130 130 132 121 121 123 124 124 126 133 133 135 142 142 144 121 121 123 126 126 128 119 119 121 125 125 127 136 136 138 
121 121 123 139 139 141 138 138 140 140 140 142 121 121 123 140 140 142 121 121 123 132 132 134 126 126 128 124 124 126 129 129 131 119 119 121 115 115 117 138 138 140 125 125 127 125 125 127 119 119 121 125 125 127 119 119 121 127 127 129 134 134 136 141 141 143 118 118 120 141 141 143 141 141 143 129 129 131 125 125 127 113 113 115 115 115 117 142 142 144 127 127 129 139 139 141 125 125 127 111 111 113 115 115 117 128 128 130 134 134 136 125 125 127 120 120 122 141 141 143 137 137 139 112 112 114 135 135 137 125 125 127 143 143 145 123 123 125 118 118 120 121 121 123 136 136 138 135 135 137 139 139 141 132 132 134 112 112 114 135 135 137 116 116 118 131 131 133 132 132 134 130 130 132 115 115 117 120 120 122 136 136 138 121 121 123 130 130 132 129 129 131 131 131 133 142 142 144 133 133 135 115 115 117 132 132 134 117 117 119 131 131 133 141 141 143 129 129 131 138 138 140 124 124 126 128 128 130 133 133 135 124 124 126 119 119 121 144 144 146 129 129 131 112 112 114 140 140 142 116 116 118 114 114 116 127 127 129 129 129 131 125 125 127 135 135 137 118 118 120 136 136 138 111 111 113 137 137 139 131 131 133 120 120 122 119 119 121 124 124 126 118 118 120 137 137 139 133 133 135 121 121 123 124 124 126 126 126 128 116 116 118 128 128 130 119 119 121 111 111 113 141 141 143 123 123 125 125 125 127 123 123 125 120 120 122 118 118 120 131 131 133 119 119 121 144 144 146 142 142 144 118 118 120 143 143 145 134 134 136 134 134 136 139 139 141 118 118 120 121 121 123 139 139 141 135 135 137 139 139 141 133 133 135 133 133 135 135 135 137 131 131 133 134 134 136 119 119 121 145 145 147 130 130 132 136 136 138 112 112 114 138 138 140 129 129 131 131 131 133 145 145 147 120 120 122 116 116 118 129 129 131 130 130 132 124 124 126 120 120 122 129 129 131 114 114 116 121 121 123 131 131 133 140 140 142 144 144 146 124 124 126 128 128 130 121 121 123 114 114 116 118 118 120 136 136 138 140 140 142 116 116 118 118 118 120 127 127 129 125 125 127 124 124 126 131 131 133 122 122 124 117 117 119 118 118 120 136 136 138 126 126 128 144 144 146 123 123 125 125 125 127 124 124 126 111 111 113 138 138 140 141 141 143 141 141 143 119 119 121 112 112 114 133 133 135 120 120 122 118 118 120 145 145 147 122 122 124 134 134 136 130 130 132 128 128 130 144 144 146 127 127 129 132 132 134 119 119 121 135 135 137 116 116 118 121 121 123 133 133 135 137 137 139 125 125 127 119 119 121 116 116 118 140 140 142 130 130 132 113 113 115 121 121 123 124 124 126 113 113 115 128 128 130 121 121 123 139 139 141 132 132 134 130 130 132 144 144 146 129 129 131 121 121 123 144 144 146 117 117 119 137 137 139 141 141 143 141 141 143 143 143 145 129 129 131 125 125 127 111 111 113 132 132 134 138 138 140 129 129 131 141 141 143 138 138 140 112 112 114 114 114 116 126 126 128 133 133 135 121 121 123 120 120 122 134 134 136 131 131 133 118 118 120 124 124 126 139 139 141 127 127 129 138 138 140 116 116 118 131 131 133 130 130 132 119 119 121 131 131 133 143 143 145 125 125 127 111 111 113 134 134 136 131 131 133 141 141 143 129 129 131 142 142 144 121 121 123 
138 138 140 141 141 143 138 138 140 131 131 133 132 132 134 120 120 122 113 113 115 119 119 121 116 116 118 136 136 138 115 115 117 139 139 141 124 124 126 125 125 127 113 113 115 142 142 144 119 119 121 121 121 123 115 115 117 123 123 125 115 115 117 123 123 125 120 120 122 135 135 137 123 123 125 145 145 147 138 138 140 133 133 135 122 122 124 127 127 129 135 135 137 125 125 127 114 114 116 140 140 142 129 129 131 140 140 142 121 121 123 128 128 130 118 118 120 119 119 121 121 121 123 120 120 122 119 119 121 116 116 118 142 142 144 114 114 116 120 120 122 130 130 132 133 133 135 121 121 123 131 131 133 113 113 115 124 124 126 143 143 145 126 126 128 116 116 118 127 127 129 143 143 145 128 128 130 127 127 129 128 128 130 141 141 143 143 143 145 122 122 124 111 111 113 136 136 138 129 129 131 116 116 118 120 120 122 122 122 124 117 117 119 136 136 138 120 120 122 138 138 140 145 145 147 118 118 120 145 145 147 129 129 131 130 130 132 127 127 129 144 144 146 126 126 128 140 140 142 136 136 138 137 137 139 130 130 132 123 123 125 111 111 113 133 133 135 127 127 129 129 129 131 131 131 133 111 111 113 118 118 120 138 138 140 142 142 144 115 115 117 125 125 127 132 132 134 126 126 128 123 123 125 141 141 143 124 124 126 119 119 121 133 133 135 118 118 120 144 144 146 133 133 135 137 137 139 144 144 146 111 111 113 121 121 123 132 132 134 122 122 124 125 125 127 141 141 143 116 116 118 112 112 114 129 129 131 118 118 120 120 120 122 123 123 125 112 112 114 118 118 120 143 143 145 115 115 117 135 135 137 142 142 144 130 130 132 113 113 115 132 132 134 119 119 121 127 127 129 132 132 134 121 121 123 131 131 133 119 119 121 117 117 119 126 126 128 123 123 125 133 133 135 118 118 120 134 134 136 139 139 141 123 123 125 129 129 131 114 114 116 126 126 128 126 126 128 126 126 128 114 114 116 126 126 128 130 130 132 126 126 128 131 131 133 136 136 138 114 114 116 131 131 133 118 118 120 119 119 121 118 118 120 115 115 117 122 122 124 116 116 118 141 141 143 145 145 147 142 142 144 143 143 145 143 143 145 116 116 118 132 132 134 134 134 136 114 114 116 135 135 137 129 129 131 145 145 147 116 116 118 145 145 147 128 128 130 124 124 126 128 128 130 137 137 139 135 135 137 133 133 135 114 114 116 136 136 138 135 135 137 133 133 135 125 125 127 145 145 147 137 137 139 132 132 134 136 136 138 134 134 136 137 137 139 133 133 135 127 127 129 120 120 122 118 118 120 122 122 124 140 140 142 133 133 135 120 120 122 128 128 130 140 140 142 122 122 124 122 122 124 122 122 124 117 117 119 135 135 137 127 127 129 133 133 135 125 125 127 128 128 130 113 113 115 130 130 132 125 125 127 120 120 122 131 131 133 136 136 138 117 117 119 127 127 129 127 127 129 119 119 121 128 128 130 123 123 125 125 125 127 135 135 137 127 127 129 137 137 139 127 127 129 141 141 143 131 131 133 131 131 133 141 141 143 143 143 145 119 119 121 117 117 119 110 110 112 143 143 145 119 119 121 141 141 143 127 127 129 136 136 138 145 145 147 139 139 141 114 114 116 134 134 136 138 138 140 128 128 130 129 129 131 116 116 118 134 134 136 118 118 120 140 140 142 118 118 120 
122 122 124 114 114 116 110 110 112 126 126 128 141 141 143 116 116 118 136 136 138 122 122 124 125 125 127 133 133 135 117 117 119 130 130 132 123 123 125 110 110 112 142 142 144 120 120 122 133 133 135 131 131 133 122 122 124 130 130 132 137 137 139 145 145 147 135 135 137 135 135 137 126 126 128 114 114 116 135 135 137 116 116 118 125 125 127 111 111 113 120 120 122 140 140 142 131 131 133 117 117 119 138 138 140 117 117 119 113 113 115 129 129 131 129 129 131 119 119 121 133 133 135 137 137 139 133 133 135 142 142 144 141 141 143 118 118 120 131 131 133 121 121 123 134 134 136 144 144 146 125 125 127 111 111 113 129 129 131 130 130 132 126 126 128 128 128 130 142 142 144 123 123 125 120 120 122 134 134 136 124 124 126 117 117 119 128 128 130 120 120 122 116 116 118 116 116 118 125 125 127 138 138 140 118 118 120 132 132 134 139 139 141 140 140 142 121 121 123 122 122 124 142 142 144 124 124 126 132 132 134 117 117 119 141 141 143 125 125 127 129 129 131 142 142 144 129 129 131 128 128 130 120 120 122 133 133 135 135 135 137 144 144 146 134 134 136 126 126 128 139 139 141 139 139 141 131 131 133 137 137 139 135 135 137 139 139 141 115 115 117 130 130 132 125 125 127 136 136 138 137 137 139 137 137 139 119 119 121 119 119 121 143 143 145 140 140 142 143 143 145 116 116 118 129 129 131 138 138 140 135 135 137 133 133 135 138 138 140 130 130 132 133 133 135 119 119 121 127 127 129 134 134 136 134 134 136 130 130 132 128 128 130 133 133 135 138 138 140 111 111 113 134 134 136 129 129 131 131 131 133 141 141 143 116 116 118 144 144 146 117 117 119 117 117 119 133 133 135 125 125 127 145 145 147 128 128 130 113 113 115 131 131 133 127 127 129 136 136 138 130 130 132 112 112 114 145 145 147 142 142 144 126 126 128 136 136 138 128 128 130 120 120 122 116 116 118 118 118 120 116 116 118 129 129 131 141 141 143 136 136 138 134 134 136 114 114 116 128 128 130 128 128 130 139 139 141 119 119 121 144 144 146 136 136 138 129 129 131 136 136 138 119 119 121 123 123 125 127 127 129 135 135 137 132 132 134 115 115 117 130 130 132 136 136 138 121 121 123 113 113 115 129 129 131 121 121 123 120 120 122 133 133 135 123 123 125 120 120 122 134 134 136 126 126 128 112 112 114 117 117 119 116 116 118 129 129 131 114 114 116 140 140 142 131 131 133 139 139 141 125 125 127 140 140 142 133 133 135 128 128 130 133 133 135 125 125 127 147 147 149 124 124 126 113 113 115 113 113 115 135 135 137 122 122 124 119 119 121 126 126 128 144 144 146 118 118 120 134 134 136 138 138 140 136 136 138 131 131 133 114 114 116 132 132 134 119 119 121 132 132 134 130 130 132 120 120 122 125 125 127 117 117 119 120 120 122 126 126 128 125 125 127 139 139 141 119 119 121 134 134 136 136 136 138 126 126 128 131 131 133 129 129 131 136 136 138 124 124 126 146 146 148 120 120 122 118 118 120 118 118 120 142 142 144 135 135 137 139 139 141 134 134 136 117 117 119 127 127 129 117 117 119 140 140 142 132 132 134 132 132 134 127 127 129 120 120 122 117 117 119 138 138 140 117 117 119 142 142 144 123 123 125 121 121 123 119 119 121 126 126 128 119 119 121 144 144 146 
134 134 136 132 132 134 110 110 112 117 117 119 121 121 123 129 129 131 134 134 136 133 133 135 121 121 123 120 120 122 136 136 138 119 119 121 145 145 147 136 136 138 118 118 120 132 132 134 138 138 140 136 136 138 140 140 142 118 118 120 126 126 128 137 137 139 126 126 128 117 117 119 117 117 119 142 142 144 134 134 136 129 129 131 122 122 124 122 122 124 136 136 138 130 130 132 136 136 138 118 118 120 118 118 120 124 124 126 129 129 131 114 114 116 130 130 132 145 145 147 135 135 137 113 113 115 137 137 139 132 132 134 143 143 145 130 130 132 118 118 120 124 124 126 132 132 134 119 119 121 125 125 127 141 141 143 144 144 146 145 145 147 123 123 125 142 142 144 118 118 120 128 128 130 136 136 138 123 123 125 145 145 147 139 139 141 130 130 132 117 117 119 112 112 114 139 139 141 118 118 120 121 121 123 121 121 123 110 110 112 136 136 138 139 139 141 133 133 135 130 130 132 118 118 120 121 121 123 148 148 150 142 142 144 147 147 149 110 110 112 137 137 139 126 126 128 122 122 124 119 119 121 141 141 143 128 128 130 116 116 118 126 126 128 118 118 120 134 134 136 121 121 123 113 113 115 140 140 142 129 129 131 129 129 131 115 115 117 145 145 147 129 129 131 120 120 122 129 129 131 140 140 142 137 137 139 117 117 119 131 131 133 118 118 120 115 115 117 121 121 123 116 116 118 142 142 144 127 127 129 121 121 123 115 115 117 126 126 128 142 142 144 128 128 130 122 122 124 142 142 144 118 118 120 124 124 126 140 140 142 135 135 137 142 142 144 115 115 117 126 126 128 125 125 127 143 143 145 138 138 140 138 138 140 121 121 123 126 126 128 132 132 134 126 126 128 140 140 142 115 115 117 142 142 144 142 142 144 141 141 143 128 128 130 131 131 133 126 126 128 112 112 114 134 134 136 126 126 128 136 136 138 127 127 129 139 139 141 117 117 119 134 134 136 147 147 149 125 125 127 142 142 144 139 139 141 137 137 139 136 136 138 134 134 136 137 137 139 116 116 118 139 139 141 141 141 143 119 119 121 111 111 113 125 125 127 133 133 135 115 115 117 135 135 137 122 122 124 117 117 119 138 138 140 136 136 138 140 140 142 137 137 139 144 144 146 117 117 119 115 115 117 117 117 119 127 127 129 139 139 141 141 141 143 131 131 133 133 133 135 128 128 130 132 132 134 140 140 142 127 127 129 136 136 138 125 125 127 132 132 134 137 137 139 122 122 124 133 133 135 138 138 140 126 126 128 137 137 139 131 131 133 136 136 138 115 115 117 137 137 139 145 145 147 143 143 145 118 118 120 144 144 146 127 127 129 141 141 143 117 117 119 113 113 115 112 112 114 114 114 116 116 116 118 131 131 133 122 122 124 139 139 141 132 132 134 119 119 121 130 130 132 126 126 128 136 136 138 135 135 137 142 142 144 140 140 142 115 115 117 138 138 140 130 130 132 118 118 120 127 127 129 131 131 133 129 129 131 121 121 123 135 135 137 142 142 144 121 121 123 120 120 122 141 141 143 115 115 117 140 140 142 138 138 140 142 142 144 135 135 137 141 141 143 116 116 118 116 116 118 143 143 145 140 140 142 141 141 143 122 122 124 128 128 130 140 140 142 123 123 125 124 124 126 120 120 122 117 117 119 140 140 142 146 146 148 142 142 144 135 135 137 116 116 118 132 132 134 
111 111 113 138 138 140 116 116 118 121 121 123 138 138 140 135 135 137 128 128 130 136 136 138 115 115 117 116 116 118 141 141 143 134 134 136 131 131 133 125 125 127 129 129 131 121 121 123 110 110 112 132 132 134 125 125 127 134 134 136 125 125 127 142 142 144 119 119 121 124 124 126 136 136 138 116 116 118 142 142 144 122 122 124 138 138 140 143 143 145 126 126 128 129 129 131 136 136 138 132 132 134 123 123 125 114 114 116 117 117 119 130 130 132 125 125 127 110 110 112 118 118 120 137 137 139 126 126 128 123 123 125 130 130 132 124 124 126 144 144 146 137 137 139 120 120 122 131 131 133 133 133 135 116 116 118 120 120 122 117 117 119 115 115 117 127 127 129 140 140 142 138 138 140 117 117 119 119 119 121 116 116 118 139 139 141 137 137 139 123 123 125 123 123 125 141 141 143 143 143 145 120 120 122 116 116 118 131 131 133 130 130 132 114 114 116 141 141 143 128 128 130 114 114 116 131 131 133 118 118 120 138 138 140 121 121 123 130 130 132 118 118 120 134 134 136 112 112 114 139 139 141 145 145 147 129 129 131 120 120 122 140 140 142 122 122 124 115 115 117 130 130 132 114 114 116 125 125 127 120 120 122 132 132 134 120 120 122 121 121 123 136 136 138 125 125 127 123 123 125 127 127 129 142 142 144 119 119 121 116 116 118 136 136 138 133 133 135 125 125 127 121 121 123 139 139 141 128 128 130 117 117 119 140 140 142 135 135 137 124 124 126 116 116 118 140 140 142 128 128 130 138 138 140 138 138 140 134 134 136 114 114 116 139 139 141 128 128 130 136 136 138 134 134 136 138 138 140 142 142 144 115 115 117 125 125 127 144 144 146 133 133 135 123 123 125 116 116 118 133 133 135 128 128 130 135 135 137 145 145 147 126 126 128 128 128 130 125 125 127 134 134 136 120 120 122 133 133 135 124 124 126 129 129 131 134 134 136 133 133 135 116 116 118 115 115 117 122 122 124 144 144 146 131 131 133 136 136 138 132 132 134 139 139 141 134 134 136 139 139 141 120 120 122 127 127 129 137 137 139 134 134 136 137 137 139 139 139 141 119 119 121 124 124 126 123 123 125 117 117 119 121 121 123 128 128 130 124 124 126 126 126 128 116 116 118 141 141 143 131 131 133 145 145 147 138 138 140 147 147 149 128 128 130 126 126 128 125 125 127 132 132 134 130 130 132 133 133 135 137 137 139 109 109 111 129 129 131 135 135 137 116 116 118 143 143 145 134 134 136 144 144 146 125 125 127 126 126 128 118 118 120 141 141 143 145 145 147 119 119 121 126 126 128 129 129 131 140 140 142 121 121 123 138 138 140 131 131 133 136 136 138 117 117 119 144 144 146 132 132 134 141 141 143 111 111 113 125 125 127 127 127 129 124 124 126 145 145 147 129 129 131 140 140 142 110 110 112 120 120 122 139 139 141 139 139 141 141 141 143 129 129 131 123 123 125 127 127 129 141 141 143 123 123 125 121 121 123 125 125 127 116 116 118 121 121 123 132 132 134 129 129 131 126 126 128 122 122 124 111 111 113 129 129 131 134 134 136 134 134 136 116 116 118 123 123 125 129 129 131 123 123 125 121 121 123 146 146 148 146 146 148 131 131 133 139 139 141 116 116 118 142 142 144 142 142 144 142 142 144 136 136 138 134 134 136 141 141 143 138 138 140 122 122 124 125 125 127 
115 115 117 118 118 120 114 114 116 125 125 127 125 125 127 114 114 116 120 120 122 131 131 133 136 136 138 138 138 140 145 145 147 115 115 117 117 117 119 120 120 122 122 122 124 123 123 125 137 137 139 113 113 115 131 131 133 140 140 142 118 118 120 128 128 130 112 112 114 138 138 140 136 136 138 132 132 134 126 126 128 132 132 134 129 129 131 121 121 123 142 142 144 141 141 143 112 112 114 142 142 144 139 139 141 118 118 120 128 128 130 125 125 127 136 136 138 116 116 118 118 118 120 128 128 130 131 131 133 130 130 132 144 144 146 123 123 125 131 131 133 129 129 131 130 130 132 117 117 119 146 146 148 126 126 128 140 140 142 123 123 125 130 130 132 128 128 130 116 116 118 120 120 122 121 121 123 126 126 128 122 122 124 141 141 143 121 121 123 121 121 123 114 114 116 141 141 143 136 136 138 123 123 125 141 141 143 117 117 119 131 131 133 125 125 127 124 124 126 137 137 139 129 129 131 120 120 122 139 139 141 125 125 127 133 133 135 118 118 120 131 131 133 131 131 133 119 119 121 138 138 140 121 121 123 124 124 126 124 124 126 133 133 135 142 142 144 133 133 135 115 115 117 122 122 124 132 132 134 139 139 141 114 114 116 132 132 134 120 120 122 121 121 123 148 148 150 117 117 119 133 133 135 128 128 130 133 133 135 128 128 130 115 115 117 128 128 130 125 125 127 132 132 134 126 126 128 138 138 140 124 124 126 148 148 150 145 145 147 131 131 133 126 126 128 120 120 122 136 136 138 127 127 129 124 124 126 134 134 136 131 131 133 136 136 138 118 118 120 127 127 129 125 125 127 144 144 146 119 119 121 140 140 142 147 147 149 137 137 139 137 137 139 134 134 136 114 114 116 140 140 142 132 132 134 113 113 115 134 134 136 115 115 117 124 124 126 124 124 126 144 144 146 136 136 138 137 137 139 129 129 131 140 140 142 125 125 127 115 115 117 115 115 117 122 122 124 125 125 127 122 122 124 138 138 140 137 137 139 117 117 119 121 121 123 140 140 142 142 142 144 140 140 142 122 122 124 114 114 116 142 142 144 117 117 119 132 132 134 126 126 128 127 127 129 126 126 128 115 115 117 135 135 137 144 144 146 125 125 127 137 137 139 129 129 131 141 141 143 123 123 125 132 132 134 113 113 115 141 141 143 145 145 147 120 120 122 132 132 134 125 125 127 135 135 137 123 123 125 130 130 132 111 111 113 121 121 123 118 118 120 114 114 116 139 139 141 140 140 142 136 136 138 111 111 113 135 135 137 127 127 129 132 132 134 123 123 125 141 141 143 116 116 118 143 143 145 142 142 144 143 143 145 112 112 114 129 129 131 124 124 126 137 137 139 133 133 135 118 118 120 135 135 137 121 121 123 118 118 120 145 145 147 129 129 131 126 126 128 110 110 112 133 133 135 140 140 142 140 140 142 141 141 143 141 141 143 142 142 144 115 115 117 113 113 115 135 135 137 127 127 129 133 133 135 133 133 135 137 137 139 146 146 148 120 120 122 117 117 119 133 133 135 131 131 133 131 131 133 142 142 144 125 125 127 140 140 142 129 129 131 131 131 133 124 124 126 126 126 128 135 135 137 125 125 127 139 139 141 143 143 145 121 121 123 126 126 128 127 127 129 122 122 124 120 120 122 133 133 135 143 143 145 118 118 120 114 114 116 138 138 140 125 125 127 136 136 138 
127 127 129 133 133 135 137 137 139 117 117 119 118 118 120 116 116 118 133 133 135 113 113 115 117 117 119 139 139 141 126 126 128 128 128 130 133 133 135 119 119 121 127 127 129 121 121 123 133 133 135 125 125 127 128 128 130 134 134 136 137 137 139 127 127 129 123 123 125 136 136 138 127 127 129 140 140 142 141 141 143 144 144 146 131 131 133 136 136 138 136 136 138 126 126 128 143 143 145 130 130 132 128 128 130 113 113 115 121 121 123 130 130 132 127 127 129 121 121 123 123 123 125 137 137 139 130 130 132 116 116 118 127 127 129 143 143 145 123 123 125 136 136 138 124 124 126 144 144 146 122 122 124 141 141 143 123 123 125 121 121 123 119 119 121 132 132 134 113 113 115 138 138 140 142 142 144 141 141 143 110 110 112 137 137 139 116 116 118 121 121 123 145 145 147 137 137 139 124 124 126 126 126 128 126 126 128 115 115 117 117 117 119 122 122 124 142 142 144 118 118 120 130 130 132 140 140 142 132 132 134 112 112 114 121 121 123 137 137 139 131 131 133 133 133 135 122 122 124 135 135 137 145 145 147 137 137 139 128 128 130 128 128 130 133 133 135 144 144 146 128 128 130 125 125 127 127 127 129 143 143 145 128 128 130 126 126 128 120 120 122 126 126 128 111 111 113 137 137 139 130 130 132 129 129 131 121 121 123 124 124 126 115 115 117 129 129 131 136 136 138 139 139 141 115 115 117 127 127 129 145 145 147 113 113 115 134 134 136 117 117 119 120 120 122 118 118 120 132 132 134 116 116 118 138 138 140 141 141 143 117 117 119 131 131 133 115 115 117 141 141 143 147 147 149 130 130 132 125 125 127 127 127 129 140 140 142 143 143 145 124 124 126 141 141 143 128 128 130 136 136 138 134 134 136 117 117 119 132 132 134 142 142 144 119 119 121 119 119 121 147 147 149 135 135 137 124 124 126 128 128 130 138 138 140 135 135 137 138 138 140 121 121 123 140 140 142 115 115 117 141 141 143 125 125 127 137 137 139 141 141 143 125 125 127 128 128 130 113 113 115 113 113 115 137 137 139 127 127 129 133 133 135 126 126 128 119 119 121 132 132 134 135 135 137 129 129 131 137 137 139 141 141 143 126 126 128 130 130 132 113 113 115 129 129 131 121 121 123 138 138 140 128 128 130 123 123 125 119 119 121 135 135 137 140 140 142 118 118 120 113 113 115 140 140 142 124 124 126 115 115 117 140 140 142 122 122 124 138 138 140 121 121 123 130 130 132 141 141 143 122 122 124 121 121 123 120 120 122 122 122 124 133 133 135 134 134 136 121 121 123 126 126 128 118 118 120 126 126 128 134 134 136 119 119 121 129 129 131 120 120 122 135 135 137 130 130 132 127 127 129 124 124 126 127 127 129 137 137 139 120 120 122 132 132 134 125 125 127 142 142 144 114 114 116 128 128 130 111 111 113 126 126 128 133 133 135 133 133 135 131 131 133 142 142 144 132 132 134 125 125 127 136 136 138 142 142 144 144 144 146 144 144 146 136 136 138 122 122 124 120 120 122 132 132 134 136 136 138 136 136 138 131 131 133 137 137 139 119 119 121 142 142 144 116 116 118 114 114 116 127 127 129 128 128 130 117 117 119 116 116 118 114 114 116 116 116 118 130 130 132 132 132 134 145 145 147 147 147 149 138 138 140 128 128 130 126 126 128 138 138 140 139 139 141 119 119 121 
139 139 141 121 121 123 113 113 115 126 126 128 136 136 138 118 118 120 139 139 141 130 130 132 123 123 125 115 115 117 117 117 119 112 112 114 118 118 120 126 126 128 126 126 128 118 118 120 126 126 128 118 118 120 146 146 148 133 133 135 121 121 123 130 130 132 117 117 119 140 140 142 143 143 145 133 133 135 137 137 139 142 142 144 119 119 121 118 118 120 111 111 113 144 144 146 139 139 141 132 132 134 130 130 132 121 121 123 127 127 129 135 135 137 131 131 133 137 137 139 120 120 122 139 139 141 135 135 137 133 133 135 112 112 114 135 135 137 122 122 124 139 139 141 121 121 123 123 123 125 132 132 134 132 132 134 117 117 119 118 118 120 127 127 129 133 133 135 126 126 128 125 125 127 127 127 129 122 122 124 110 110 112 128 128 130 136 136 138 130 130 132 145 145 147 137 137 139 127 127 129 133 133 135 132 132 134 136 136 138 116 116 118 136 136 138 117 117 119 128 128 130 129 129 131 125 125 127 142 142 144 111 111 113 131 131 133 129 129 131 146 146 148 146 146 148 145 145 147 128 128 130 118 118 120 116 116 118 126 126 128 137 137 139 125 125 127 138 138 140 128 128 130 123 123 125 114 114 116 121 121 123 139 139 141 128 128 130 119 119 121 120 120 122 146 146 148 111 111 113 138 138 140 125 125 127 135 135 137 135 135 137 122 122 124 112 112 114 135 135 137 132 132 134 114 114 116 117 117 119 138 138 140 125 125 127 133 133 135 137 137 139 131 131 133 119 119 121 128 128 130 121 121 123 140 140 142 130 130 132 115 115 117 117 117 119 141 141 143 125 125 127 115 115 117 119 119 121 124 124 126 126 126 128 140 140 142 143 143 145 121 121 123 146 146 148 136 136 138 120 120 122 132 132 134 134 134 136 120 120 122 140 140 142 128 128 130 125 125 127 140 140 142 130 130 132 137 137 139 120 120 122 144 144 146 141 141 143 137 137 139 139 139 141 118 118 120 143 143 145 130 130 132 116 116 118 128 128 130 115 115 117 126 126 128 115 115 117 125 125 127 125 125 127 124 124 126 119 119 121 134 134 136 130 130 132 143 143 145 117 117 119 119 119 121 144 144 146 140 140 142 145 145 147 124 124 126 119 119 121 123 123 125 131 131 133 132 132 134 121 121 123 131 131 133 141 141 143 138 138 140 126 126 128 137 137 139 138 138 140 117 117 119 137 137 139 117 117 119 128 128 130 138 138 140 129 129 131 143 143 145 136 136 138 119 119 121 138 138 140 133 133 135 116 116 118 133 133 135 110 110 112 145 145 147 142 142 144 137 137 139 122 122 124 129 129 131 129 129 131 138 138 140 120 120 122 129 129 131 118 118 120 131 131 133 128 128 130 118 118 120 137 137 139 129 129 131 138 138 140 117 117 119 120 120 122 130 130 132 135 135 137 128 128 130 112 112 114 135 135 137 134 134 136 145 145 147 136 136 138 121 121 123 128 128 130 137 137 139 124 124 126 129 129 131 126 126 128 135 135 137 141 141 143 123 123 125 129 129 131 133 133 135 116 116 118 117 117 119 129 129 131 126 126 128 134 134 136 130 130 132 124 124 126 127 127 129 143 143 145 113 113 115 112 112 114 117 117 119 128 128 130 121 121 123 116 116 118 130 130 132 116 116 118 137 137 139 133 133 135 115 115 117 122 122 124 119 119 121 139 139 141 118 118 120 130 130 132 
117 117 119 142 142 144 128 128 130 117 117 119 140 140 142 141 141 143 110 110 112 137 137 139 132 132 134 134 134 136 117 117 119 138 138 140 125 125 127 121 121 123 139 139 141 143 143 145 138 138 140 124 124 126 116 116 118 135 135 137 141 141 143 127 127 129 134 134 136 123 123 125 116 116 118 127 127 129 122 122 124 121 121 123 138 138 140 122 122 124 140 140 142 111 111 113 128 128 130 120 120 122 129 129 131 148 148 150 132 132 134 129 129 131 132 132 134 128 128 130 126 126 128 116 116 118 117 117 119 116 116 118 120 120 122 142 142 144 121 121 123 118 118 120 141 141 143 137 137 139 144 144 146 119 119 121 111 111 113 125 125 127 141 141 143 128 128 130 132 132 134 128 128 130 137 137 139 123 123 125 144 144 146 111 111 113 114 114 116 121 121 123 119 119 121 144 144 146 132 132 134 117 117 119 112 112 114 114 114 116 122 122 124 133 133 135 132 132 134 122 122 124 138 138 140 119 119 121 136 136 138 131 131 133 126 126 128 127 127 129 122 122 124 135 135 137 127 127 129 127 127 129 133 133 135 127 127 129 116 116 118 115 115 117 114 114 116 115 115 117 138 138 140 136 136 138 121 121 123 117 117 119 137 137 139 132 132 134 134 134 136 134 134 136 130 130 132 137 137 139 115 115 117 137 137 139 126 126 128 112 112 114 134 134 136 116 116 118 136 136 138 120 120 122 140 140 142 120 120 122 119 119 121 130 130 132 139 139 141 116 116 118 138 138 140 135 135 137 117 117 119 121 121 123 113 113 115 130 130 132 120 120 122 117 117 119 143 143 145 136 136 138 113 113 115 136 136 138 118 118 120 110 110 112 115 115 117 120 120 122 138 138 140 119 119 121 120 120 122 136 136 138 125 125 127 131 131 133 145 145 147 133 133 135 129 129 131 137 137 139 127 127 129 123 123 125 121 121 123 123 123 125 130 130 132 140 140 142 142 142 144 116 116 118 138 138 140 117 117 119 145 145 147 118 118 120 126 126 128 134 134 136 117 117 119 136 136 138 139 139 141 131 131 133 122 122 124 132 132 134 120 120 122 126 126 128 115 115 117 118 118 120 120 120 122 126 126 128 116 116 118 125 125 127 144 144 146 118 118 120 133 133 135 117 117 119 134 134 136 118 118 120 137 137 139 126 126 128 118 118 120 124 124 126 139 139 141 137 137 139 138 138 140 124 124 126 135 135 137 137 137 139 118 118 120 125 125 127 132 132 134 117 117 119 141 141 143 118 118 120 141 141 143 113 113 115 146 146 148 125 125 127 117 117 119 123 123 125 143 143 145 124 124 126 129 129 131 141 141 143 117 117 119 144 144 146 135 135 137 122 122 124 134 134 136 117 117 119 132 132 134 117 117 119 133 133 135 145 145 147 117 117 119 116 116 118 140 140 142 138 138 140 148 148 150 137 137 139 128 128 130 133 133 135 114 114 116 128 128 130 147 147 149 139 139 141 121 121 123 141 141 143 115 115 117 111 111 113 118 118 120 129 129 131 143 143 145 119 119 121 121 121 123 113 113 115 141 141 143 120 120 122 127 127 129 143 143 145 118 118 120 125 125 127 137 137 139 115 115 117 126 126 128 141 141 143 132 132 134 117 117 119 143 143 145 130 130 132 113 113 115 132 132 134 124 124 126 112 112 114 116 116 118 139 139 141 126 126 128 134 134 136 143 143 145 117 117 119 
124 124 126 131 131 133 131 131 133 128 128 130 125 125 127 132 132 134 121 121 123 129 129 131 122 122 124 143 143 145 126 126 128 117 117 119 146 146 148 135 135 137 124 124 126 129 129 131 138 138 140 138 138 140 126 126 128 144 144 146 138 138 140 145 145 147 137 137 139 139 139 141 117 117 119 133 133 135 128 128 130 120 120 122 112 112 114 119 119 121 115 115 117 143 143 145 133 133 135 133 133 135 112 112 114 129 129 131 134 134 136 135 135 137 136 136 138 145 145 147 118 118 120 124 124 126 123 123 125 143 143 145 121 121 123 134 134 136 129 129 131 129 129 131 138 138 140 120 120 122 118 118 120 136 136 138 140 140 142 113 113 115 110 110 112 119 119 121 134 134 136 137 137 139 141 141 143 140 140 142 129 129 131 127 127 129 138 138 140 119 119 121 122 122 124 134 134 136 126 126 128 141 141 143 132 132 134 133 133 135 126 126 128 145 145 147 134 134 136 117 117 119 125 125 127 113 113 115 117 117 119 118 118 120 134 134 136 121 121 123 133 133 135 119 119 121 121 121 123 129 129 131 119 119 121 135 135 137 136 136 138 114 114 116 131 131 133 140 140 142 118 118 120 123 123 125 139 139 141 118 118 120 125 125 127 117 117 119 124 124 126 133 133 135 123 123 125 118 118 120 136 136 138 114 114 116 133 133 135 117 117 119 125 125 127 125 125 127 127 127 129 128 128 130 137 137 139 118 118 120 122 122 124 122 122 124 115 115 117 113 113 115 123 123 125 115 115 117 131 131 133 115 115 117 137 137 139 114 114 116 122 122 124 136 136 138 139 139 141 137 137 139 130 130 132 122 122 124 123 123 125 130 130 132 130 130 132 137 137 139 138 138 140 139 139 141 125 125 127 127 127 129 141 141 143 140 140 142 116 116 118 138 138 140 118 118 120 125 125 127 124 124 126 121 121 123 118 118 120 117 117 119 122 122 124 118 118 120 126 126 128 113 113 115 135 135 137 134 134 136 120 120 122 128 128 130 128 128 130 121 121 123 121 121 123 131 131 133 116 116 118 130 130 132 124 124 126 131 131 133 118 118 120 139 139 141 140 140 142 125 125 127 145 145 147 135 135 137 126 126 128 114 114 116 126 126 128 118 118 120 137 137 139 139 139 141 135 135 137 135 135 137 121 121 123 115 115 117 134 134 136 138 138 140 136 136 138 129 129 131 130 130 132 118 118 120 122 122 124 137 137 139 131 131 133 139 139 141 139 139 141 135 135 137 119 119 121 136 136 138 124 124 126 120 120 122 128 128 130 111 111 113 125 125 127 124 124 126 126 126 128 131 131 133 121 121 123 139 139 141 127 127 129 126 126 128 142 142 144 121 121 123 111 111 113 123 123 125 121 121 123 128 128 130 118 118 120 136 136 138 120 120 122 119 119 121 129 129 131 121 121 123 121 121 123 125 125 127 116 116 118 118 118 120 133 133 135 135 135 137 122 122 124 133 133 135 131 131 133 127 127 129 125 125 127 111 111 113 119 119 121 123 123 125 118 118 120 120 120 122 130 130 132 136 136 138 140 140 142 140 140 142 139 139 141 141 141 143 129 129 131 118 118 120 133 133 135 134 134 136 121 121 123 135 135 137 112 112 114 130 130 132 128 128 130 114 114 116 119 119 121 145 145 147 117 117 119 123 123 125 140 140 142 120 120 122 138 138 140 125 125 127 132 132 134 122 122 124 
142 142 144 116 116 118 116 116 118 125 125 127 138 138 140 140 140 142 119 119 121 111 111 113 112 112 114 119 119 121 133 133 135 136 136 138 119 119 121 124 124 126 131 131 133 127 127 129 127 127 129 141 141 143 134 134 136 126 126 128 133 133 135 117 117 119 118 118 120 138 138 140 130 130 132 118 118 120 126 126 128 124 124 126 139 139 141 126 126 128 122 122 124 116 116 118 124 124 126 120 120 122 127 127 129 132 132 134 133 133 135 134 134 136 119 119 121 134 134 136 137 137 139 139 139 141 123 123 125 125 125 127 125 125 127 137 137 139 115 115 117 131 131 133 129 129 131 143 143 145 120 120 122 118 118 120 118 118 120 127 127 129 135 135 137 125 125 127 114 114 116 140 140 142 123 123 125 137 137 139 121 121 123 116 116 118 137 137 139 131 131 133 127 127 129 143 143 145 139 139 141 126 126 128 138 138 140 113 113 115 134 134 136 130 130 132 130 130 132 120 120 122 131 131 133 111 111 113 114 114 116 121 121 123 139 139 141 129 129 131 145 145 147 142 142 144 132 132 134 140 140 142 127 127 129 129 129 131 116 116 118 130 130 132 125 125 127 138 138 140 118 118 120 130 130 132 133 133 135 123 123 125 115 115 117 131 131 133 118 118 120 141 141 143 122 122 124 126 126 128 133 133 135 132 132 134 139 139 141 143 143 145 135 135 137 123 123 125 126 126 128 129 129 131 122 122 124 141 141 143 135 135 137 133 133 135 132 132 134 131 131 133 116 116 118 141 141 143 133 133 135 140 140 142 129 129 131 125 125 127 136 136 138 141 141 143 122 122 124 121 121 123 144 144 146 126 126 128 127 127 129 132 132 134 139 139 141 115 115 117 130 130 132 127 127 129 117 117 119 121 121 123 124 124 126 131 131 133 136 136 138 115 115 117 121 121 123 118 118 120 134 134 136 133 133 135 128 128 130 138 138 140 134 134 136 138 138 140 125 125 127 124 124 126 124 124 126 134 134 136 119 119 121 138 138 140 117 117 119 139 139 141 112 112 114 121 121 123 136 136 138 119 119 121 131 131 133 120 120 122 120 120 122 137 137 139 118 118 120 118 118 120 111 111 113 124 124 126 136 136 138 131 131 133 128 128 130 126 126 128 147 147 149 122 122 124 132 132 134 133 133 135 130 130 132 127 127 129 146 146 148 133 133 135 138 138 140 134 134 136 121 121 123 123 123 125 120 120 122 136 136 138 116 116 118 135 135 137 142 142 144 131 131 133 144 144 146 115 115 117 117 117 119 122 122 124 131 131 133 135 135 137 111 111 113 123 123 125 143 143 145 124 124 126 114 114 116 120 120 122 137 137 139 122 122 124 133 133 135 122 122 124 117 117 119 129 129 131 121 121 123 123 123 125 124 124 126 140 140 142 120 120 122 113 113 115 117 117 119 131 131 133 139 139 141 133 133 135 119 119 121 135 135 137 123 123 125 134 134 136 119 119 121 136 136 138 122 122 124 131 131 133 143 143 145 130 130 132 120 120 122 133 133 135 142 142 144 112 112 114 124 124 126 110 110 112 132 132 134 119 119 121 131 131 133 124 124 126 123 123 125 130 130 132 119 119 121 143 143 145 132 132 134 137 137 139 132 132 134 129 129 131 131 131 133 112 112 114 121 121 123 128 128 130 115 115 117 125 125 127 115 115 117 138 138 140 135 135 137 134 134 136 117 117 119 135 135 137 
123 123 125 145 145 147 135 135 137 110 110 112 125 125 127 140 140 142 128 128 130 120 120 122 133 133 135 145 145 147 125 125 127 121 121 123 121 121 123 130 130 132 135 135 137 122 122 124 127 127 129 138 138 140 143 143 145 120 120 122 122 122 124 114 114 116 115 115 117 128 128 130 110 110 112 123 123 125 134 134 136 117 117 119 134 134 136 129 129 131 125 125 127 139 139 141 140 140 142 113 113 115 129 129 131 137 137 139 114 114 116 121 121 123 141 141 143 137 137 139 137 137 139 133 133 135 115 115 117 123 123 125 134 134 136 115 115 117 127 127 129 144 144 146 121 121 123 123 123 125 140 140 142 114 114 116 133 133 135 130 130 132 130 130 132 132 132 134 125 125 127 145 145 147 140 140 142 123 123 125 133 133 135 136 136 138 144 144 146 135 135 137 126 126 128 125 125 127 133 133 135 116 116 118 123 123 125 113 113 115 122 122 124 115 115 117 145 145 147 122 122 124 117 117 119 137 137 139 132 132 134 125 125 127 129 129 131 130 130 132 117 117 119 127 127 129 134 134 136 128 128 130 137 137 139 119 119 121 116 116 118 138 138 140 116 116 118 115 115 117 117 117 119 122 122 124 119 119 121 116 116 118 123 123 125 133 133 135 111 111 113 145 145 147 123 123 125 126 126 128 141 141 143 113 113 115 125 125 127 132 132 134 125 125 127 116 116 118 135 135 137 133 133 135 134 134 136 112 112 114 133 133 135 125 125 127 131 131 133 147 147 149 124 124 126 138 138 140 113 113 115 114 114 116 129 129 131 126 126 128 127 127 129 122 122 124 137 137 139 124 124 126 127 127 129 116 116 118 120 120 122 145 145 147 141 141 143 142 142 144 135 135 137 125 125 127 137 137 139 120 120 122 114 114 116 140 140 142 121 121 123 122 122 124 122 122 124 126 126 128 128 128 130 119 119 121 128 128 130 136 136 138 118 118 120 125 125 127 141 141 143 134 134 136 134 134 136 119 119 121 128 128 130 121 121 123 129 129 131 133 133 135 115 115 117 141 141 143 144 144 146 124 124 126 129 129 131 144 144 146 117 117 119 128 128 130 127 127 129 122 122 124 117 117 119 113 113 115 127 127 129 122 122 124 131 131 133 121 121 123 113 113 115 132 132 134 134 134 136 121 121 123 118 118 120 141 141 143 124 124 126 138 138 140 123 123 125 133 133 135 137 137 139 140 140 142 136 136 138 116 116 118 127 127 129 133 133 135 130 130 132 123 123 125 135 135 137 112 112 114 118 118 120 146 146 148 115 115 117 127 127 129 136 136 138 120 120 122 122 122 124 140 140 142 146 146 148 121 121 123 117 117 119 132 132 134 115 115 117 120 120 122 125 125 127 139 139 141 132 132 134 146 146 148 120 120 122 130 130 132 130 130 132 138 138 140 138 138 140 144 144 146 125 125 127 122 122 124 122 122 124 142 142 144 123 123 125 126 126 128 134 134 136 125 125 127 115 115 117 135 135 137 121 121 123 134 134 136 118 118 120 120 120 122 110 110 112 123 123 125 138 138 140 119 119 121 143 143 145 112 112 114 142 142 144 141 141 143 117 117 119 130 130 132 140 140 142 146 146 148 119 119 121 131 131 133 123 123 125 133 133 135 115 115 117 135 135 137 119 119 121 142 142 144 134 134 136 110 110 112 116 116 118 145 145 147 136 136 138 136 136 138 116 116 118 127 127 129 
128 128 130 137 137 139 145 145 147 116 116 118 141 141 143 146 146 148 112 112 114 139 139 141 135 135 137 125 125 127 134 134 136 140 140 142 136 136 138 132 132 134 118 118 120 121 121 123 135 135 137 139 139 141 118 118 120 142 142 144 138 138 140 132 132 134 135 135 137 137 137 139 132 132 134 114 114 116 117 117 119 140 140 142 120 120 122 127 127 129 130 130 132 136 136 138 131 131 133 136 136 138 142 142 144 132 132 134 137 137 139 126 126 128 138 138 140 143 143 145 130 130 132 127 127 129 118 118 120 142 142 144 128 128 130 139 139 141 115 115 117 117 117 119 123 123 125 113 113 115 136 136 138 121 121 123 130 130 132 111 111 113 141 141 143 114 114 116 116 116 118 133 133 135 128 128 130 117 117 119 129 129 131 112 112 114 115 115 117 119 119 121 128 128 130 116 116 118 144 144 146 134 134 136 115 115 117 138 138 140 143 143 145 122 122 124 120 120 122 113 113 115 123 123 125 116 116 118 132 132 134 124 124 126 134 134 136 109 109 111 134 134 136 135 135 137 124 124 126 133 133 135 128 128 130 128 128 130 119 119 121 135 135 137 130 130 132 126 126 128 125 125 127 139 139 141 126 126 128 122 122 124 142 142 144 122 122 124 144 144 146 125 125 127 141 141 143 139 139 141 145 145 147 122 122 124 125 125 127 141 141 143 139 139 141 129 129 131 126 126 128 118 118 120 114 114 116 114 114 116 139 139 141 127 127 129 130 130 132 137 137 139 119 119 121 131 131 133 144 144 146 113 113 115 126 126 128 124 124 126 139 139 141 127 127 129 132 132 134 127 127 129 122 122 124 131 131 133 132 132 134 145 145 147 137 137 139 135 135 137 128 128 130 114 114 116 126 126 128 124 124 126 146 146 148 118 118 120 128 128 130 112 112 114 127 127 129 136 136 138 111 111 113 120 120 122 134 134 136 125 125 127 134 134 136 124 124 126 115 115 117 123 123 125 124 124 126 124 124 126 115 115 117 142 142 144 114 114 116 134 134 136 126 126 128 114 114 116 126 126 128 130 130 132 135 135 137 119 119 121 110 110 112 117 117 119 134 134 136 137 137 139 121 121 123 119 119 121 121 121 123 138 138 140 141 141 143 117 117 119 136 136 138 113 113 115 120 120 122 139 139 141 122 122 124 137 137 139 111 111 113 127 127 129 142 142 144 141 141 143 124 124 126 132 132 134 144 144 146 129 129 131 136 136 138 119 119 121 141 141 143 115 115 117 116 116 118 119 119 121 136 136 138 123 123 125 110 110 112 120 120 122 144 144 146 118 118 120 124 124 126 125 125 127 140 140 142 124 124 126 125 125 127 114 114 116 142 142 144 123 123 125 111 111 113 139 139 141 139 139 141 137 137 139 133 133 135 139 139 141 131 131 133 114 114 116 138 138 140 143 143 145 136 136 138 136 136 138 123 123 125 135 135 137 129 129 131 128 128 130 130 130 132 116 116 118 124 124 126 133 133 135 120 120 122 122 122 124 117 117 119 131 131 133 130 130 132 146 146 148 112 112 114 126 126 128 138 138 140 123 123 125 132 132 134 117 117 119 140 140 142 132 132 134 113 113 115 130 130 132 137 137 139 115 115 117 126 126 128 120 120 122 139 139 141 119 119 121 140 140 142 120 120 122 124 124 126 117 117 119 119 119 121 138 138 140 135 135 137 131 131 133 144 144 146 120 120 122 
143 143 145 115 115 117 120 120 122 128 128 130 122 122 124 139 139 141 117 117 119 137 137 139 124 124 126 128 128 130 142 142 144 129 129 131 126 126 128 128 128 130 130 130 132 139 139 141 140 140 142 119 119 121 138 138 140 129 129 131 119 119 121 142 142 144 126 126 128 135 135 137 142 142 144 128 128 130 125 125 127 117 117 119 119 119 121 127 127 129 143 143 145 140 140 142 144 144 146 135 135 137 133 133 135 111 111 113 124 124 126 133 133 135 132 132 134 142 142 144 135 135 137 125 125 127 109 109 111 139 139 141 127 127 129 129 129 131 124 124 126 122 122 124 139 139 141 132 132 134 129 129 131 134 134 136 138 138 140 139 139 141 138 138 140 121 121 123 116 116 118 130 130 132 116 116 118 126 126 128 119 119 121 137 137 139 123 123 125 128 128 130 125 125 127 126 126 128 139 139 141 145 145 147 119 119 121 125 125 127 142 142 144 145 145 147 147 147 149 126 126 128 135 135 137 120 120 122 142 142 144 127 127 129 120 120 122 131 131 133 134 134 136 126 126 128 122 122 124 133 133 135 144 144 146 123 123 125 132 132 134 142 142 144 136 136 138 117 117 119 131 131 133 127 127 129 136 136 138 127 127 129 129 129 131 126 126 128 132 132 134 125 125 127 139 139 141 125 125 127 141 141 143 126 126 128 124 124 126 124 124 126 133 133 135 128 128 130 123 123 125 120 120 122 130 130 132 142 142 144 130 130 132 113 113 115 125 125 127 126 126 128 139 139 141 114 114 116 134 134 136 129 129 131 115 115 117 127 127 129 114 114 116 120 120 122 138 138 140 139 139 141 135 135 137 140 140 142 141 141 143 128 128 130 139 139 141 142 142 144 138 138 140 123 123 125 122 122 124 142 142 144 127 127 129 120 120 122 135 135 137 144 144 146 142 142 144 137 137 139 131 131 133 115 115 117 132 132 134 128 128 130 134 134 136 139 139 141 139 139 141 119 119 121 117 117 119 133 133 135 118 118 120 136 136 138 119 119 121 131 131 133 130 130 132 140 140 142 119 119 121 130 130 132 112 112 114 133 133 135 133 133 135 141 141 143 133 133 135 111 111 113 126 126 128 120 120 122 129 129 131 141 141 143 132 132 134 127 127 129 130 130 132 138 138 140 123 123 125 139 139 141 138 138 140 124 124 126 135 135 137 125 125 127 141 141 143 117 117 119 139 139 141 140 140 142 132 132 134 138 138 140 142 142 144 142 142 144 123 123 125 142 142 144 115 115 117 135 135 137 133 133 135 130 130 132 128 128 130 116 116 118 134 134 136 128 128 130 117 117 119 132 132 134 141 141 143 140 140 142 116 116 118 129 129 131 118 118 120 118 118 120 123 123 125 123 123 125 127 127 129 128 128 130 123 123 125 137 137 139 133 133 135 112 112 114 123 123 125 131 131 133 130 130 132 127 127 129 127 127 129 110 110 112 139 139 141 134 134 136 136 136 138 129 129 131 118 118 120 127 127 129 139 139 141 116 116 118 137 137 139 116 116 118 129 129 131 121 121 123 124 124 126 133 133 135 112 112 114 134 134 136 119 119 121 128 128 130 143 143 145 117 117 119 139 139 141 121 121 123 136 136 138 123 123 125 123 123 125 139 139 141 120 120 122 120 120 122 124 124 126 143 143 145 144 144 146 113 113 115 137 137 139 140 140 142 118 118 120 135 135 137 126 126 128 143 143 145 
122 122 124 134 134 136 139 139 141 128 128 130 132 132 134 135 135 137 115 115 117 127 127 129 141 141 143 110 110 112 122 122 124 135 135 137 136 136 138 115 115 117 119 119 121 132 132 134 117 117 119 117 117 119 128 128 130 134 134 136 126 126 128 116 116 118 118 118 120 117 117 119 145 145 147 130 130 132 141 141 143 138 138 140 120 120 122 141 141 143 129 129 131 133 133 135 126 126 128 124 124 126 130 130 132 126 126 128 136 136 138 117 117 119 134 134 136 132 132 134 128 128 130 132 132 134 135 135 137 116 116 118 126 126 128 116 116 118 113 113 115 128 128 130 122 122 124 113 113 115 145 145 147 139 139 141 131 131 133 110 110 112 125 125 127 128 128 130 139 139 141 127 127 129 137 137 139 128 128 130 137 137 139 124 124 126 121 121 123 117 117 119 136 136 138 135 135 137 135 135 137 127 127 129 124 124 126 145 145 147 122 122 124 139 139 141 115 115 117 125 125 127 140 140 142 124 124 126 132 132 134 132 132 134 118 118 120 116 116 118 129 129 131 146 146 148 119 119 121 126 126 128 139 139 141 113 113 115 116 116 118 134 134 136 122 122 124 139 139 141 119 119 121 125 125 127 123 123 125 136 136 138 127 127 129 118 118 120 134 134 136 139 139 141 140 140 142 137 137 139 127 127 129 127 127 129 127 127 129 114 114 116 135 135 137 119 119 121 136 136 138 120 120 122 126 126 128 138 138 140 127 127 129 130 130 132 133 133 135 136 136 138 123 123 125 139 139 141 111 111 113 125 125 127 112 112 114 121 121 123 141 141 143 118 118 120 141 141 143 113 113 115 117 117 119 134 134 136 142 142 144 113 113 115 139 139 141 136 136 138 132 132 134 118 118 120 136 136 138 119 119 121 144 144 146 123 123 125 114 114 116 139 139 141 127 127 129 118 118 120 132 132 134 122 122 124 139 139 141 130 130 132 135 135 137 138 138 140 126 126 128 119 119 121 119 119 121 131 131 133 139 139 141 134 134 136 122 122 124 127 127 129 124 124 126 126 126 128 129 129 131 120 120 122 112 112 114 115 115 117 128 128 130 128 128 130 136 136 138 141 141 143 138 138 140 116 116 118 128 128 130 130 130 132 125 125 127 113 113 115 115 115 117 121 121 123 115 115 117 132 132 134 124 124 126 131 131 133 126 126 128 126 126 128 135 135 137 144 144 146 130 130 132 141 141 143 122 122 124 115 115 117 121 121 123 145 145 147 126 126 128 137 137 139 113 113 115 125 125 127 132 132 134 135 135 137 139 139 141 123 123 125 128 128 130 115 115 117 119 119 121 139 139 141 125 125 127 117 117 119 125 125 127 126 126 128 124 124 126 119 119 121 111 111 113 137 137 139 115 115 117 131 131 133 141 141 143 128 128 130 142 142 144 129 129 131 125 125 127 131 131 133 122 122 124 110 110 112 116 116 118 127 127 129 128 128 130 143 143 145 128 128 130 120 120 122 142 142 144 142 142 144 143 143 145 119 119 121 115 115 117 116 116 118 128 128 130 121 121 123 125 125 127 133 133 135 128 128 130 137 137 139 113 113 115 130 130 132 127 127 129 128 128 130 133 133 135 142 142 144 125 125 127 118 118 120 126 126 128 116 116 118 110 110 112 129 129 131 124 124 126 120 120 122 141 141 143 142 142 144 125 125 127 128 128 130 112 112 114 136 136 138 120 120 122 140 140 142 
132 132 134 140 140 142 117 117 119 132 132 134 124 124 126 128 128 130 138 138 140 118 118 120 135 135 137 134 134 136 127 127 129 125 125 127 120 120 122 114 114 116 116 116 118 123 123 125 127 127 129 136 136 138 136 136 138 120 120 122 147 147 149 142 142 144 113 113 115 119 119 121 128 128 130 141 141 143 112 112 114 119 119 121 142 142 144 135 135 137 116 116 118 142 142 144 119 119 121 134 134 136 127 127 129 145 145 147 142 142 144 134 134 136 116 116 118 125 125 127 146 146 148 128 128 130 117 117 119 124 124 126 119 119 121 124 124 126 127 127 129 133 133 135 127 127 129 146 146 148 121 121 123 120 120 122 137 137 139 117 117 119 116 116 118 132 132 134 146 146 148 127 127 129 138 138 140 125 125 127 115 115 117 135 135 137 117 117 119 115 115 117 116 116 118 131 131 133 118 118 120 124 124 126 126 126 128 129 129 131 114 114 116 118 118 120 122 122 124 122 122 124 139 139 141 145 145 147 121 121 123 139 139 141 128 128 130 131 131 133 120 120 122 125 125 127 131 131 133 129 129 131 112 112 114 124 124 126 144 144 146 130 130 132 127 127 129 139 139 141 138 138 140 137 137 139 129 129 131 125 125 127 125 125 127 141 141 143 143 143 145 124 124 126 143 143 145 118 118 120 135 135 137 116 116 118 140 140 142 136 136 138 133 133 135 145 145 147 137 137 139 123 123 125 142 142 144 133 133 135 116 116 118 118 118 120 136 136 138 117 117 119 121 121 123 138 138 140 122 122 124 116 116 118 120 120 122 135 135 137 132 132 134 129 129 131 129 129 131 129 129 131 120 120 122 130 130 132 111 111 113 119 119 121 135 135 137 126 126 128 118 118 120 141 141 143 138 138 140 118 118 120 120 120 122 125 125 127 125 125 127 144 144 146 134 134 136 121 121 123 111 111 113 134 134 136 142 142 144 136 136 138 139 139 141 129 129 131 138 138 140 124 124 126 124 124 126 125 125 127 129 129 131 125 125 127 127 127 129 137 137 139 142 142 144 126 126 128 132 132 134 123 123 125 128 128 130 121 121 123 141 141 143 120 120 122 134 134 136 123 123 125 130 130 132 141 141 143 146 146 148 110 110 112 122 122 124 119 119 121 111 111 113 131 131 133 127 127 129 143 143 145 116 116 118 119 119 121 120 120 122 127 127 129 122 122 124 124 124 126 120 120 122 125 125 127 121 121 123 129 129 131 130 130 132 139 139 141 126 126 128 116 116 118 114 114 116 132 132 134 145 145 147 126 126 128 142 142 144 135 135 137 134 134 136 120 120 122 139 139 141 120 120 122 141 141 143 114 114 116 114 114 116 128 128 130 117 117 119 130 130 132 116 116 118 133 133 135 138 138 140 131 131 133 127 127 129 131 131 133 123 123 125 124 124 126 126 126 128 136 136 138 136 136 138 140 140 142 137 137 139 130 130 132 117 117 119 139 139 141 120 120 122 115 115 117 115 115 117 132 132 134 142 142 144 142 142 144 119 119 121 122 122 124 123 123 125 130 130 132 117 117 119 119 119 121 122 122 124 134 134 136 143 143 145 123 123 125 117 117 119 146 146 148 129 129 131 135 135 137 132 132 134 141 141 143 138 138 140 126 126 128 140 140 142 135 135 137 129 129 131 114 114 116 143 143 145 109 109 111 134 134 136 140 140 142 124 124 126 137 137 139 138 138 140 135 135 137 
140 140 142 127 127 129 117 117 119 123 123 125 115 115 117 119 119 121 117 117 119 136 136 138 134 134 136 140 140 142 136 136 138 138 138 140 126 126 128 116 116 118 117 117 119 119 119 121 135 135 137 127 127 129 128 128 130 135 135 137 118 118 120 128 128 130 135 135 137 128 128 130 126 126 128 134 134 136 128 128 130 130 130 132 122 122 124 119 119 121 131 131 133 119 119 121 132 132 134 131 131 133 122 122 124 126 126 128 120 120 122 134 134 136 116 116 118 135 135 137 125 125 127 135 135 137 122 122 124 136 136 138 145 145 147 131 131 133 142 142 144 139 139 141 141 141 143 136 136 138 142 142 144 126 126 128 122 122 124 135 135 137 129 129 131 132 132 134 136 136 138 141 141 143 133 133 135 126 126 128 118 118 120 126 126 128 147 147 149 129 129 131 117 117 119 130 130 132 112 112 114 139 139 141 117 117 119 116 116 118 118 118 120 120 120 122 146 146 148 135 135 137 134 134 136 118 118 120 117 117 119 120 120 122 141 141 143 122 122 124 115 115 117 134 134 136 115 115 117 139 139 141 124 124 126 145 145 147 109 109 111 119 119 121 116 116 118 126 126 128 132 132 134 126 126 128 136 136 138 111 111 113 129 129 131 120 120 122 124 124 126 123 123 125 134 134 136 125 125 127 129 129 131 138 138 140 138 138 140 140 140 142 138 138 140 133 133 135 138 138 140 118 118 120 124 124 126 125 125 127 131 131 133 118 118 120 128 128 130 126 126 128 143 143 145 131 131 133 143 143 145 139 139 141 127 127 129 144 144 146 140 140 142 139 139 141 120 120 122 124 124 126 139 139 141 129 129 131 115 115 117 121 121 123 116 116 118 122 122 124 132 132 134 128 128 130 137 137 139 114 114 116 126 126 128 142 142 144 131 131 133 127 127 129 139 139 141 127 127 129 128 128 130 134 134 136 146 146 148 134 134 136 117 117 119 127 127 129 121 121 123 138 138 140 127 127 129 131 131 133 133 133 135 131 131 133 121 121 123 121 121 123 112 112 114 129 129 131 124 124 126 144 144 146 133 133 135 134 134 136 136 136 138 140 140 142 139 139 141 146 146 148 126 126 128 128 128 130 119 119 121 126 126 128 120 120 122 129 129 131 134 134 136 135 135 137 143 143 145 128 128 130 124 124 126 122 122 124 112 112 114 119 119 121 124 124 126 138 138 140 139 139 141 120 120 122 130 130 132 123 123 125 120 120 122 116 116 118 118 118 120 113 113 115 122 122 124 127 127 129 121 121 123 143 143 145 122 122 124 126 126 128 135 135 137 135 135 137 141 141 143 146 146 148 140 140 142 138 138 140 137 137 139 116 116 118 137 137 139 132 132 134 127 127 129 138 138 140 116 116 118 123 123 125 129 129 131 131 131 133 124 124 126 122 122 124 143 143 145 114 114 116 111 111 113 117 117 119 120 120 122 124 124 126 140 140 142 144 144 146 119 119 121 119 119 121 119 119 121 116 116 118 141 141 143 135 135 137 128 128 130 121 121 123 124 124 126 132 132 134 135 135 137 121 121 123 130 130 132 133 133 135 125 125 127 146 146 148 128 128 130 124 124 126 140 140 142 119 119 121 138 138 140 132 132 134 133 133 135 140 140 142 132 132 134 115 115 117 138 138 140 115 115 117 118 118 120 122 122 124 129 129 131 123 123 125 125 125 127 127 127 129 143 143 145 125 125 127 
143 143 145 139 139 141 122 122 124 140 140 142 121 121 123 120 120 122 137 137 139 146 146 148 141 141 143 140 140 142 124 124 126 134 134 136 116 116 118 133 133 135 129 129 131 117 117 119 118 118 120 126 126 128 122 122 124 123 123 125 134 134 136 132 132 134 129 129 131 123 123 125 126 126 128 113 113 115 124 124 126 136 136 138 138 138 140 144 144 146 120 120 122 120 120 122 110 110 112 135 135 137 115 115 117 140 140 142 134 134 136 117 117 119 116 116 118 141 141 143 138 138 140 121 121 123 131 131 133 141 141 143 141 141 143 139 139 141 122 122 124 118 118 120 121 121 123 123 123 125 136 136 138 118 118 120 122 122 124 136 136 138 127 127 129 129 129 131 128 128 130 131 131 133 125 125 127 130 130 132 139 139 141 142 142 144 126 126 128 129 129 131 134 134 136 134 134 136 114 114 116 127 127 129 141 141 143 143 143 145 121 121 123 130 130 132 124 124 126 120 120 122 114 114 116 135 135 137 131 131 133 132 132 134 132 132 134 145 145 147 108 108 110 109 109 111 118 118 120 123 123 125 137 137 139 132 132 134 119 119 121 117 117 119 144 144 146 135 135 137 119 119 121 116 116 118 139 139 141 135 135 137 115 115 117 141 141 143 124 124 126 132 132 134 115 115 117 122 122 124 119 119 121 142 142 144 129 129 131 112 112 114 125 125 127 143 143 145 141 141 143 135 135 137 132 132 134 117 117 119 137 137 139 122 122 124 143 143 145 140 140 142 123 123 125 116 116 118 139 139 141 117 117 119 121 121 123 126 126 128 122 122 124 121 121 123 129 129 131 145 145 147 121 121 123 141 141 143 141 141 143 132 132 134 135 135 137 124 124 126 139 139 141 121 121 123 126 126 128 121 121 123 144 144 146 115 115 117 132 132 134 133 133 135 110 110 112 120 120 122 141 141 143 130 130 132 119 119 121 141 141 143 126 126 128 124 124 126 144 144 146 135 135 137 142 142 144 129 129 131 120 120 122 124 124 126 121 121 123 125 125 127 128 128 130 123 123 125 109 109 111 131 131 133 129 129 131 127 127 129 126 126 128 110 110 112 123 123 125 112 112 114 126 126 128 125 125 127 140 140 142 122 122 124 138 138 140 130 130 132 143 143 145 123 123 125 127 127 129 131 131 133 133 133 135 120 120 122 142 142 144 113 113 115 134 134 136 129 129 131 118 118 120 135 135 137 122 122 124 132 132 134 129 129 131 123 123 125 123 123 125 122 122 124 135 135 137 138 138 140 119 119 121 145 145 147 139 139 141 125 125 127 125 125 127 118 118 120 126 126 128 124 124 126 138 138 140 128 128 130 139 139 141 135 135 137 122 122 124 115 115 117 115 115 117 124 124 126 113 113 115 129 129 131 138 138 140 137 137 139 133 133 135 113 113 115 141 141 143 143 143 145 142 142 144 139 139 141 133 133 135 143 143 145 118 118 120 148 148 150 135 135 137 118 118 120 112 112 114 122 122 124 140 140 142 123 123 125 134 134 136 121 121 123 127 127 129 137 137 139 124 124 126 118 118 120 128 128 130 131 131 133 143 143 145 131 131 133 134 134 136 116 116 118 119 119 121 119 119 121 136 136 138 145 145 147 130 130 132 124 124 126 118 118 120 126 126 128 129 129 131 129 129 131 118 118 120 118 118 120 140 140 142 128 128 130 114 114 116 136 136 138 134 134 136 120 120 122 
137 137 139 120 120 122 116 116 118 123 123 125 130 130 132 133 133 135 121 121 123 117 117 119 141 141 143 138 138 140 122 122 124 142 142 144 125 125 127 127 127 129 136 136 138 137 137 139 131 131 133 127 127 129 143 143 145 121 121 123 130 130 132 126 126 128 137 137 139 140 140 142 111 111 113 119 119 121 144 144 146 132 132 134 129 129 131 131 131 133 123 123 125 126 126 128 139 139 141 132 132 134 133 133 135 135 135 137 119 119 121 144 144 146 109 109 111 136 136 138 115 115 117 119 119 121 128 128 130 127 127 129 120 120 122 131 131 133 132 132 134 130 130 132 124 124 126 115 115 117 135 135 137 124 124 126 114 114 116 113 113 115 120 120 122 143 143 145 124 124 126 132 132 134 126 126 128 132 132 134 141 141 143 136 136 138 122 122 124 136 136 138 113 113 115 131 131 133 119 119 121 118 118 120 119 119 121 129 129 131 129 129 131 113 113 115 123 123 125 123 123 125 131 131 133 130 130 132 134 134 136 115 115 117 125 125 127 128 128 130 125 125 127 141 141 143 143 143 145 132 132 134 133 133 135 127 127 129 141 141 143 138 138 140 130 130 132 127 127 129 117 117 119 142 142 144 127 127 129 138 138 140 122 122 124 138 138 140 126 126 128 120 120 122 119 119 121 143 143 145 125 125 127 136 136 138 142 142 144 129 129 131 123 123 125 131 131 133 119 119 121 145 145 147 123 123 125 112 112 114 137 137 139 118 118 120 129 129 131 123 123 125 136 136 138 145 145 147 129 129 131 113 113 115 119 119 121 124 124 126 133 133 135 127 127 129 141 141 143 143 143 145 130 130 132 109 109 111 136 136 138 119 119 121 114 114 116 129 129 131 135 135 137 144 144 146 134 134 136 119 119 121 127 127 129 114 114 116 122 122 124 130 130 132 136 136 138 125 125 127 133 133 135 132 132 134 138 138 140 134 134 136 130 130 132 113 113 115 116 116 118 126 126 128 124 124 126 132 132 134 136 136 138 137 137 139 121 121 123 145 145 147 136 136 138 133 133 135 142 142 144 120 120 122 128 128 130 118 118 120 125 125 127 122 122 124 117 117 119 110 110 112 139 139 141 131 131 133 133 133 135 118 118 120 126 126 128 129 129 131 135 135 137 126 126 128 139 139 141 132 132 134 128 128 130 124 124 126 134 134 136 116 116 118 114 114 116 113 113 115 120 120 122 129 129 131 111 111 113 132 132 134 116 116 118 143 143 145 133 133 135 130 130 132 134 134 136 138 138 140 112 112 114 113 113 115 139 139 141 114 114 116 127 127 129 132 132 134 130 130 132 137 137 139 117 117 119 116 116 118 127 127 129 134 134 136 120 120 122 121 121 123 115 115 117 136 136 138 143 143 145 128 128 130 120 120 122 134 134 136 126 126 128 145 145 147 128 128 130 116 116 118 127 127 129 114 114 116 120 120 122 142 142 144 127 127 129 129 129 131 139 139 141 124 124 126 136 136 138 139 139 141 110 110 112 116 116 118 121 121 123 120 120 122 139 139 141 115 115 117 119 119 121 109 109 111 133 133 135 130 130 132 144 144 146 115 115 117 137 137 139 135 135 137 118 118 120 139 139 141 131 131 133 122 122 124 129 129 131 131 131 133 117 117 119 118 118 120 139 139 141 140 140 142 136 136 138 137 137 139 123 123 125 120 120 122 144 144 146 114 114 116 115 115 117 143 143 145 
123 123 125 129 129 131 122 122 124 135 135 137 121 121 123 140 140 142 131 131 133 121 121 123 124 124 126 140 140 142 126 126 128 121 121 123 132 132 134 140 140 142 128 128 130 134 134 136 124 124 126 125 125 127 131 131 133 119 119 121 130 130 132 114 114 116 139 139 141 142 142 144 128 128 130 125 125 127 125 125 127 121 121 123 130 130 132 117 117 119 134 134 136 129 129 131 110 110 112 116 116 118 138 138 140 139 139 141 133 133 135 142 142 144 137 137 139 116 116 118 135 135 137 127 127 129 122 122 124 117 117 119 146 146 148 127 127 129 131 131 133 137 137 139 137 137 139 146 146 148 121 121 123 134 134 136 112 112 114 142 142 144 122 122 124 133 133 135 119 119 121 134 134 136 121 121 123 137 137 139 129 129 131 141 141 143 141 141 143 135 135 137 124 124 126 139 139 141 123 123 125 118 118 120 124 124 126 130 130 132 119 119 121 121 121 123 142 142 144 118 118 120 128 128 130 133 133 135 121 121 123 123 123 125 126 126 128 117 117 119 118 118 120 127 127 129 118 118 120 122 122 124 137 137 139 116 116 118 147 147 149 118 118 120 117 117 119 130 130 132 124 124 126 126 126 128 141 141 143 124 124 126 135 135 137 147 147 149 111 111 113 139 139 141 118 118 120 130 130 132 127 127 129 116 116 118 117 117 119 118 118 120 144 144 146 143 143 145 128 128 130 132 132 134 116 116 118 129 129 131 135 135 137 114 114 116 128 128 130 119 119 121 116 116 118 144 144 146 122 122 124 114 114 116 112 112 114 138 138 140 119 119 121 141 141 143 128 128 130 129 129 131 134 134 136 116 116 118 141 141 143 126 126 128 132 132 134 114 114 116 119 119 121 128 128 130 132 132 134 130 130 132 128 128 130 120 120 122 117 117 119 145 145 147 133 133 135 127 127 129 138 138 140 144 144 146 136 136 138 120 120 122 140 140 142 136 136 138 114 114 116 120 120 122 137 137 139 117 117 119 124 124 126 130 130 132 131 131 133 128 128 130 119 119 121 140 140 142 139 139 141 117 117 119 126 126 128 125 125 127 119 119 121 117 117 119 128 128 130 135 135 137 126 126 128 137 137 139 126 126 128 140 140 142 123 123 125 111 111 113 142 142 144 129 129 131 148 148 150 135 135 137 140 140 142 138 138 140 131 131 133 120 120 122 132 132 134 132 132 134 121 121 123 124 124 126 127 127 129 127 127 129 125 125 127 111 111 113 122 122 124 138 138 140 119 119 121 138 138 140 143 143 145 113 113 115 130 130 132 135 135 137 125 125 127 144 144 146 130 130 132 129 129 131 124 124 126 143 143 145 128 128 130 113 113 115 140 140 142 139 139 141 139 139 141 139 139 141 137 137 139 130 130 132 109 109 111 118 118 120 131 131 133 141 141 143 114 114 116 129 129 131 130 130 132 128 128 130 119 119 121 127 127 129 119 119 121 135 135 137 113 113 115 116 116 118 119 119 121 137 137 139 118 118 120 122 122 124 132 132 134 117 117 119 114 114 116 142 142 144 112 112 114 142 142 144 127 127 129 120 120 122 121 121 123 112 112 114 133 133 135 122 122 124 134 134 136 127 127 129 136 136 138 137 137 139 125 125 127 125 125 127 126 126 128 134 134 136 110 110 112 119 119 121 132 132 134 129 129 131 136 136 138 120 120 122 116 116 118 126 126 128 123 123 125 140 140 142 
120 120 122 129 129 131 114 114 116 118 118 120 145 145 147 138 138 140 143 143 145 128 128 130 121 121 123 132 132 134 133 133 135 119 119 121 113 113 115 137 137 139 119 119 121 126 126 128 134 134 136 125 125 127 144 144 146 119 119 121 120 120 122 139 139 141 119 119 121 134 134 136 140 140 142 139 139 141 130 130 132 132 132 134 128 128 130 124 124 126 136 136 138 133 133 135 123 123 125 140 140 142 121 121 123 130 130 132 117 117 119 147 147 149 119 119 121 122 122 124 114 114 116 117 117 119 139 139 141 114 114 116 125 125 127 138 138 140 126 126 128 117 117 119 114 114 116 132 132 134 120 120 122 130 130 132 137 137 139 129 129 131 139 139 141 132 132 134 125 125 127 124 124 126 129 129 131 133 133 135 131 131 133 136 136 138 129 129 131 142 142 144 148 148 150 140 140 142 143 143 145 117 117 119 131 131 133 130 130 132 145 145 147 142 142 144 136 136 138 122 122 124 142 142 144 109 109 111 142 142 144 121 121 123 140 140 142 139 139 141 136 136 138 121 121 123 127 127 129 119 119 121 128 128 130 129 129 131 133 133 135 147 147 149 114 114 116 141 141 143 143 143 145 131 131 133 136 136 138 119 119 121 122 122 124 134 134 136 119 119 121 133 133 135 120 120 122 128 128 130 125 125 127 142 142 144 114 114 116 136 136 138 130 130 132 134 134 136 129 129 131 138 138 140 128 128 130 111 111 113 139 139 141 128 128 130 133 133 135 121 121 123 123 123 125 109 109 111 129 129 131 136 136 138 126 126 128 134 134 136 128 128 130 135 135 137 112 112 114 114 114 116 125 125 127 134 134 136 129 129 131 127 127 129 120 120 122 140 140 142 139 139 141 136 136 138 127 127 129 127 127 129 145 145 147 142 142 144 124 124 126 120 120 122 135 135 137 130 130 132 139 139 141 128 128 130 124 124 126 115 115 117 116 116 118 130 130 132 138 138 140 136 136 138 140 140 142 125 125 127 124 124 126 138 138 140 130 130 132 126 126 128 141 141 143 126 126 128 121 121 123 124 124 126 140 140 142 145 145 147 113 113 115 114 114 116 119 119 121 130 130 132 142 142 144 124 124 126 127 127 129 143 143 145 131 131 133 120 120 122 131 131 133 135 135 137 133 133 135 138 138 140 135 135 137 122 122 124 142 142 144 137 137 139 111 111 113 129 129 131 139 139 141 121 121 123 133 133 135 118 118 120 115 115 117 140 140 142 120 120 122 118 118 120 125 125 127 138 138 140 140 140 142 128 128 130 112 112 114 122 122 124 118 118 120 119 119 121 128 128 130 130 130 132 116 116 118 112 112 114 140 140 142 126 126 128 114 114 116 120 120 122 148 148 150 144 144 146 119 119 121 114 114 116 111 111 113 132 132 134 142 142 144 139 139 141 146 146 148 128 128 130 132 132 134 127 127 129 117 117 119 137 137 139 136 136 138 141 141 143 135 135 137 127 127 129 137 137 139 134 134 136 128 128 130 118 118 120 130 130 132 135 135 137 109 109 111 133 133 135 141 141 143 120 120 122 137 137 139 130 130 132 118 118 120 144 144 146 120 120 122 118 118 120 124 124 126 139 139 141 127 127 129 135 135 137 136 136 138 135 135 137 114 114 116 115 115 117 125 125 127 118 118 120 134 134 136 136 136 138 118 118 120 116 116 118 122 122 124 145 145 147 121 121 123 134 134 136 
131 131 133 117 117 119 130 130 132 129 129 131 115 115 117 120 120 122 132 132 134 118 118 120 133 133 135 129 129 131 127 127 129 119 119 121 130 130 132 125 125 127 119 119 121 130 130 132 125 125 127 131 131 133 120 120 122 125 125 127 139 139 141 126 126 128 108 108 110 118 118 120 136 136 138 128 128 130 115 115 117 134 134 136 136 136 138 122 122 124 144 144 146 108 108 110 124 124 126 119 119 121 142 142 144 131 131 133 138 138 140 142 142 144 124 124 126 138 138 140 138 138 140 121 121 123 127 127 129 137 137 139 132 132 134 145 145 147 123 123 125 123 123 125 134 134 136 134 134 136 118 118 120 119 119 121 124 124 126 125 125 127 125 125 127 132 132 134 119 119 121 119 119 121 131 131 133 138 138 140 137 137 139 119 119 121 132 132 134 116 116 118 147 147 149 116 116 118 115 115 117 135 135 137 135 135 137 112 112 114 128 128 130 137 137 139 130 130 132 138 138 140 121 121 123 139 139 141 127 127 129 122 122 124 133 133 135 127 127 129 140 140 142 138 138 140 119 119 121 140 140 142 116 116 118 123 123 125 129 129 131 131 131 133 116 116 118 137 137 139 140 140 142 115 115 117 116 116 118 139 139 141 144 144 146 115 115 117 134 134 136 125 125 127 123 123 125 136 136 138 115 115 117 117 117 119 139 139 141 123 123 125 113 113 115 139 139 141 141 141 143 134 134 136 129 129 131 142 142 144 116 116 118 143 143 145 111 111 113 125 125 127 134 134 136 131 131 133 126 126 128 120 120 122 110 110 112 139 139 141 122 122 124 125 125 127 116 116 118 123 123 125 123 123 125 119 119 121 133 133 135 137 137 139 120 120 122 136 136 138 119 119 121 120 120 122 122 122 124 119 119 121 141 141 143 129 129 131 123 123 125 126 126 128 129 129 131 136 136 138 111 111 113 136 136 138 129 129 131 113 113 115 124 124 126 139 139 141 128 128 130 115 115 117 137 137 139 144 144 146 144 144 146 123 123 125 112 112 114 129 129 131 143 143 145 130 130 132 136 136 138 134 134 136 130 130 132 140 140 142 115 115 117 117 117 119 116 116 118 140 140 142 128 128 130 137 137 139 119 119 121 129 129 131 133 133 135 123 123 125 136 136 138 123 123 125 135 135 137 130 130 132 125 125 127 132 132 134 129 129 131 124 124 126 141 141 143 135 135 137 139 139 141 123 123 125 121 121 123 123 123 125 140 140 142 131 131 133 136 136 138 124 124 126 124 124 126 121 121 123 140 140 142 121 121 123 128 128 130 124 124 126 143 143 145 118 118 120 119 119 121 125 125 127 137 137 139 117 117 119 123 123 125 144 144 146 115 115 117 117 117 119 145 145 147 115 115 117 124 124 126 133 133 135 138 138 140 116 116 118 130 130 132 144 144 146 141 141 143 108 108 110 133 133 135 114 114 116 129 129 131 131 131 133 130 130 132 115 115 117 132 132 134 129 129 131 133 133 135 126 126 128 110 110 112 137 137 139 125 125 127 131 131 133 138 138 140 119 119 121 118 118 120 133 133 135 117 117 119 133 133 135 114 114 116 127 127 129 135 135 137 130 130 132 111 111 113 117 117 119 123 123 125 141 141 143 133 133 135 132 132 134 137 137 139 130 130 132 124 124 126 128 128 130 129 129 131 124 124 126 119 119 121 130 130 132 125 125 127 147 147 149 113 113 115 124 124 126 
139 139 141 132 132 134 141 141 143 136 136 138 143 143 145 116 116 118 128 128 130 122 122 124 140 140 142 138 138 140 135 135 137 112 112 114 120 120 122 128 128 130 120 120 122 139 139 141 135 135 137 144 144 146 122 122 124 140 140 142 124 124 126 111 111 113 119 119 121 131 131 133 131 131 133 114 114 116 123 123 125 121 121 123 117 117 119 137 137 139 119 119 121 133 133 135 137 137 139 141 141 143 121 121 123 113 113 115 137 137 139 117 117 119 142 142 144 122 122 124 120 120 122 142 142 144 128 128 130 132 132 134 141 141 143 114 114 116 119 119 121 139 139 141 148 148 150 145 145 147 134 134 136 137 137 139 134 134 136 145 145 147 133 133 135 131 131 133 118 118 120 130 130 132 128 128 130 137 137 139 135 135 137 130 130 132 139 139 141 132 132 134 145 145 147 120 120 122 134 134 136 132 132 134 135 135 137 146 146 148 138 138 140 145 145 147 126 126 128 129 129 131 116 116 118 114 114 116 139 139 141 121 121 123 123 123 125 129 129 131 146 146 148 128 128 130 134 134 136 114 114 116 141 141 143 128 128 130 115 115 117 121 121 123 129 129 131 145 145 147 132 132 134 141 141 143 124 124 126 125 125 127 116 116 118 125 125 127 129 129 131 114 114 116 128 128 130 143 143 145 132 132 134 116 116 118 142 142 144 134 134 136 127 127 129 112 112 114 115 115 117 133 133 135 129 129 131 134 134 136 122 122 124 120 120 122 133 133 135 139 139 141 117 117 119 127 127 129 141 141 143 141 141 143 121 121 123 132 132 134 118 118 120 132 132 134 122 122 124 120 120 122 144 144 146 121 121 123 142 142 144 138 138 140 119 119 121 136 136 138 118 118 120 143 143 145 142 142 144 136 136 138 119 119 121 130 130 132 139 139 141 134 134 136 120 120 122 143 143 145 120 120 122 122 122 124 143 143 145 118 118 120 119 119 121 124 124 126 139 139 141 129 129 131 134 134 136 142 142 144 113 113 115 138 138 140 113 113 115 139 139 141 122 122 124 123 123 125 120 120 122 132 132 134 132 132 134 137 137 139 120 120 122 112 112 114 118 118 120 131 131 133 138 138 140 140 140 142 116 116 118 130 130 132 111 111 113 139 139 141 118 118 120 120 120 122 130 130 132 126 126 128 131 131 133 128 128 130 143 143 145 116 116 118 135 135 137 136 136 138 147 147 149 138 138 140 118 118 120 114 114 116 121 121 123 118 118 120 140 140 142 137 137 139 129 129 131 117 117 119 122 122 124 125 125 127 115 115 117 146 146 148 124 124 126 125 125 127 117 117 119 126 126 128 121 121 123 136 136 138 144 144 146 120 120 122 125 125 127 114 114 116 118 118 120 116 116 118 141 141 143 128 128 130 122 122 124 132 132 134 119 119 121 121 121 123 125 125 127 127 127 129 138 138 140 139 139 141 117 117 119 120 120 122 130 130 132 136 136 138 126 126 128 128 128 130 118 118 120 146 146 148 116 116 118 112 112 114 127 127 129 127 127 129 146 146 148 122 122 124 118 118 120 118 118 120 135 135 137 139 139 141 122 122 124 133 133 135 111 111 113 136 136 138 130 130 132 127 127 129 115 115 117 131 131 133 123 123 125 122 122 124 130 130 132 130 130 132 137 137 139 117 117 119 138 138 140 140 140 142 125 125 127 116 116 118 115 115 117 124 124 126 120 120 122 136 136 138 
124 124 126 121 121 123 132 132 134 130 130 132 123 123 125 140 140 142 117 117 119 133 133 135 139 139 141 146 146 148 108 108 110 137 137 139 119 119 121 131 131 133 139 139 141 131 131 133 120 120 122 136 136 138 125 125 127 122 122 124 144 144 146 122 122 124 135 135 137 139 139 141 112 112 114 143 143 145 120 120 122 140 140 142 143 143 145 119 119 121 111 111 113 127 127 129 125 125 127 134 134 136 122 122 124 126 126 128 134 134 136 129 129 131 136 136 138 134 134 136 136 136 138 131 131 133 127 127 129 133 133 135 131 131 133 124 124 126 135 135 137 145 145 147 126 126 128 129 129 131 134 134 136 117 117 119 121 121 123 141 141 143 143 143 145 139 139 141 117 117 119 136 136 138 138 138 140 112 112 114 115 115 117 118 118 120 120 120 122 120 120 122 137 137 139 115 115 117 143 143 145 114 114 116 138 138 140 130 130 132 138 138 140 131 131 133 117 117 119 137 137 139 133 133 135 123 123 125 115 115 117 115 115 117 117 117 119 116 116 118 128 128 130 124 124 126 115 115 117 110 110 112 121 121 123 129 129 131 115 115 117 139 139 141 126 126 128 132 132 134 128 128 130 117 117 119 120 120 122 126 126 128 129 129 131 137 137 139 122 122 124 116 116 118 136 136 138 137 137 139 119 119 121 114 114 116 132 132 134 143 143 145 122 122 124 120 120 122 120 120 122 119 119 121 137 137 139 140 140 142 113 113 115 124 124 126 130 130 132 120 120 122 138 138 140 126 126 128 137 137 139 123 123 125 124 124 126 115 115 117 128 128 130 108 108 110 143 143 145 142 142 144 128 128 130 146 146 148 112 112 114 134 134 136 120 120 122 133 133 135 130 130 132 124 124 126 131 131 133 118 118 120 115 115 117 129 129 131 138 138 140 125 125 127 128 128 130 144 144 146 134 134 136 126 126 128 126 126 128 119 119 121 135 135 137 127 127 129 145 145 147 118 118 120 139 139 141 121 121 123 137 137 139 134 134 136 131 131 133 134 134 136 120 120 122 140 140 142 136 136 138 126 126 128 126 126 128 123 123 125 112 112 114 132 132 134 119 119 121 109 109 111 121 121 123 120 120 122 126 126 128 140 140 142 120 120 122 130 130 132 118 118 120 141 141 143 137 137 139 128 128 130 120 120 122 125 125 127 128 128 130 139 139 141 139 139 141 113 113 115 129 129 131 137 137 139 139 139 141 147 147 149 128 128 130 133 133 135 114 114 116 127 127 129 123 123 125 120 120 122 119 119 121 133 133 135 130 130 132 127 127 129 120 120 122 134 134 136 122 122 124 143 143 145 144 144 146 147 147 149 127 127 129 120 120 122 118 118 120 141 141 143 122 122 124 140 140 142 135 135 137 130 130 132 130 130 132 126 126 128 123 123 125 142 142 144 140 140 142 137 137 139 128 128 130 118 118 120 139 139 141 136 136 138 124 124 126 122 122 124 121 121 123 127 127 129 142 142 144 138 138 140 142 142 144 119 119 121 135 135 137 131 131 133 139 139 141 118 118 120 116 116 118 128 128 130 125 125 127 123 123 125 132 132 134 137 137 139 114 114 116 122 122 124 136 136 138 138 138 140 126 126 128 147 147 149 139 139 141 134 134 136 115 115 117 143 143 145 129 129 131 131 131 133 123 123 125 126 126 128 131 131 133 120 120 122 136 136 138 143 143 145 129 129 131 142 142 144 
140 140 142 126 126 128 132 132 134 118 118 120 123 123 125 117 117 119 117 117 119 131 131 133 140 140 142 139 139 141 131 131 133 148 148 150 121 121 123 128 128 130 127 127 129 125 125 127 123 123 125 114 114 116 132 132 134 125 125 127 123 123 125 136 136 138 136 136 138 129 129 131 118 118 120 119 119 121 109 109 111 116 116 118 122 122 124 118 118 120 120 120 122 116 116 118 139 139 141 126 126 128 109 109 111 139 139 141 140 140 142 141 141 143 120 120 122 123 123 125 144 144 146 117 117 119 119 119 121 117 117 119 125 125 127 141 141 143 128 128 130 111 111 113 112 112 114 136 136 138 134 134 136 134 134 136 118 118 120 121 121 123 132 132 134 116 116 118 118 118 120 125 125 127 116 116 118 117 117 119 114 114 116 116 116 118 122 122 124 131 131 133 126 126 128 140 140 142 138 138 140 115 115 117 117 117 119 121 121 123 135 135 137 139 139 141 110 110 112 116 116 118 134 134 136 145 145 147 111 111 113 137 137 139 131 131 133 144 144 146 116 116 118 121 121 123 126 126 128 129 129 131 116 116 118 113 113 115 123 123 125 114 114 116 126 126 128 133 133 135 130 130 132 123 123 125 121 121 123 122 122 124 116 116 118 125 125 127 118 118 120 132 132 134 137 137 139 118 118 120 130 130 132 137 137 139 131 131 133 137 137 139 142 142 144 115 115 117 131 131 133 116 116 118 138 138 140 122 122 124 116 116 118 131 131 133 140 140 142 125 125 127 142 142 144 125 125 127 128 128 130 114 114 116 117 117 119 141 141 143 118 118 120 125 125 127 124 124 126 132 132 134 142 142 144 124 124 126 128 128 130 122 122 124 136 136 138 139 139 141 119 119 121 122 122 124 145 145 147 133 133 135 132 132 134 141 141 143 115 115 117 109 109 111 139 139 141 129 129 131 115 115 117 132 132 134 137 137 139 123 123 125 112 112 114 115 115 117 117 117 119 115 115 117 137 137 139 122 122 124 137 137 139 139 139 141 143 143 145 127 127 129 139 139 141 125 125 127 122 122 124 132 132 134 142 142 144 119 119 121 113 113 115 133 133 135 145 145 147 145 145 147 128 128 130 137 137 139 121 121 123 129 129 131 120 120 122 114 114 116 123 123 125 131 131 133 118 118 120 139 139 141 140 140 142 136 136 138 135 135 137 127 127 129 120 120 122 117 117 119 118 118 120 140 140 142 138 138 140 135 135 137 120 120 122 121 121 123 134 134 136 119 119 121 115 115 117 130 130 132 115 115 117 117 117 119 124 124 126 120 120 122 121 121 123 130 130 132 124 124 126 122 122 124 117 117 119 113 113 115 138 138 140 127 127 129 123 123 125 141 141 143 132 132 134 125 125 127 128 128 130 139 139 141 118 118 120 134 134 136 135 135 137 121 121 123 122 122 124 116 116 118 116 116 118 123 123 125 123 123 125 121 121 123 142 142 144 143 143 145 120 120 122 123 123 125 120 120 122 115 115 117 137 137 139 130 130 132 140 140 142 126 126 128 115 115 117 130 130 132 118 118 120 133 133 135 146 146 148 143 143 145 125 125 127 121 121 123 114 114 116 143 143 145 127 127 129 144 144 146 118 118 120 120 120 122 132 132 134 128 128 130 126 126 128 133 133 135 134 134 136 140 140 142 134 134 136 122 122 124 122 122 124 127 127 129 121 121 123 140 140 142 134 134 136 118 118 120 
138 138 140 113 113 115 116 116 118 109 109 111 126 126 128 139 139 141 127 127 129 121 121 123 126 126 128 128 128 130 124 124 126 124 124 126 110 110 112 113 113 115 138 138 140 140 140 142 118 118 120 139 139 141 122 122 124 138 138 140 139 139 141 127 127 129 138 138 140 124 124 126 112 112 114 115 115 117 112 112 114 127 127 129 113 113 115 121 121 123 111 111 113 128 128 130 123 123 125 141 141 143 134 134 136 141 141 143 119 119 121 122 122 124 143 143 145 124 124 126 139 139 141 127 127 129 123 123 125 128 128 130 126 126 128 140 140 142 121 121 123 133 133 135 140 140 142 123 123 125 117 117 119 139 139 141 127 127 129 144 144 146 146 146 148 132 132 134 140 140 142 129 129 131 124 124 126 132 132 134 113 113 115 133 133 135 136 136 138 118 118 120 133 133 135 137 137 139 126 126 128 125 125 127 136 136 138 122 122 124 134 134 136 137 137 139 123 123 125 133 133 135 135 135 137 128 128 130 131 131 133 137 137 139 128 128 130 123 123 125 131 131 133 117 117 119 138 138 140 140 140 142 134 134 136 117 117 119 139 139 141 129 129 131 130 130 132 130 130 132 119 119 121 139 139 141 132 132 134 145 145 147 115 115 117 137 137 139 110 110 112 125 125 127 140 140 142 121 121 123 127 127 129 129 129 131 132 132 134 119 119 121 129 129 131 123 123 125 135 135 137 137 137 139 129 129 131 135 135 137 135 135 137 133 133 135 117 117 119 132 132 134 135 135 137 140 140 142 132 132 134 144 144 146 117 117 119 125 125 127 140 140 142 118 118 120 140 140 142 144 144 146 134 134 136 139 139 141 123 123 125 141 141 143 115 115 117 133 133 135 138 138 140 122 122 124 138 138 140 121 121 123 132 132 134 147 147 149 128 128 130 126 126 128 142 142 144 140 140 142 121 121 123 116 116 118 132 132 134 126 126 128 128 128 130 123 123 125 130 130 132 120 120 122 140 140 142 147 147 149 133 133 135 143 143 145 141 141 143 127 127 129 144 144 146 124 124 126 145 145 147 142 142 144 129 129 131 128 128 130 125 125 127 129 129 131 124 124 126 134 134 136 127 127 129 145 145 147 133 133 135 125 125 127 134 134 136 130 130 132 113 113 115 132 132 134 117 117 119 135 135 137 132 132 134 118 118 120 140 140 142 131 131 133 114 114 116 117 117 119 124 124 126 124 124 126 143 143 145 129 129 131 119 119 121 138 138 140 113 113 115 127 127 129 126 126 128 113 113 115 127 127 129 125 125 127 128 128 130 133 133 135 116 116 118 136 136 138 127 127 129 140 140 142 135 135 137 128 128 130 123 123 125 118 118 120 130 130 132 121 121 123 127 127 129 142 142 144 135 135 137 115 115 117 119 119 121 136 136 138 126 126 128 113 113 115 118 118 120 125 125 127 125 125 127 119 119 121 130 130 132 126 126 128 137 137 139 119 119 121 125 125 127 129 129 131 120 120 122 137 137 139 140 140 142 109 109 111 134 134 136 113 113 115 117 117 119 142 142 144 125 125 127 122 122 124 128 128 130 126 126 128 137 137 139 129 129 131 129 129 131 111 111 113 120 120 122 142 142 144 139 139 141 138 138 140 133 133 135 141 141 143 138 138 140 145 145 147 118 118 120 120 120 122 118 118 120 125 125 127 121 121 123 116 116 118 130 130 132 117 117 119 127 127 129 116 116 118 
123 123 125 123 123 125 118 118 120 136 136 138 136 136 138 138 138 140 146 146 148 126 126 128 139 139 141 145 145 147 135 135 137 125 125 127 128 128 130 123 123 125 135 135 137 148 148 150 111 111 113 116 116 118 118 118 120 134 134 136 136 136 138 124 124 126 148 148 150 133 133 135 139 139 141 132 132 134 118 118 120 115 115 117 118 118 120 120 120 122 140 140 142 115 115 117 144 144 146 139 139 141 118 118 120 127 127 129 130 130 132 109 109 111 113 113 115 125 125 127 132 132 134 114 114 116 126 126 128 142 142 144 115 115 117 141 141 143 128 128 130 127 127 129 139 139 141 126 126 128 134 134 136 138 138 140 140 140 142 121 121 123 134 134 136 124 124 126 127 127 129 138 138 140 143 143 145 125 125 127 134 134 136 133 133 135 115 115 117 141 141 143 117 117 119 136 136 138 138 138 140 118 118 120 132 132 134 115 115 117 132 132 134 122 122 124 130 130 132 138 138 140 139 139 141 124 124 126 142 142 144 131 131 133 140 140 142 118 118 120 121 121 123 142 142 144 147 147 149 116 116 118 112 112 114 115 115 117 127 127 129 135 135 137 133 133 135 118 118 120 126 126 128 124 124 126 111 111 113 140 140 142 123 123 125 129 129 131 139 139 141 146 146 148 130 130 132 138 138 140 137 137 139 128 128 130 121 121 123 141 141 143 136 136 138 137 137 139 136 136 138 128 128 130 131 131 133 131 131 133 117 117 119 120 120 122 142 142 144 129 129 131 126 126 128 123 123 125 109 109 111 122 122 124 111 111 113 145 145 147 129 129 131 126 126 128 126 126 128 147 147 149 144 144 146 121 121 123 128 128 130 139 139 141 123 123 125 132 132 134 140 140 142 120 120 122 141 141 143 124 124 126 139 139 141 120 120 122 137 137 139 135 135 137 120 120 122 141 141 143 145 145 147 117 117 119 119 119 121 140 140 142 121 121 123 122 122 124 130 130 132 132 132 134 123 123 125 134 134 136 131 131 133 124 124 126 124 124 126 129 129 131 125 125 127 113 113 115 135 135 137 111 111 113 125 125 127 136 136 138 131 131 133 119 119 121 139 139 141 126 126 128 119 119 121 142 142 144 123 123 125 125 125 127 123 123 125 148 148 150 121 121 123 134 134 136 116 116 118 114 114 116 117 117 119 128 128 130 112 112 114 122 122 124 111 111 113 111 111 113 117 117 119 124 124 126 122 122 124 115 115 117 130 130 132 139 139 141 115 115 117 116 116 118 121 121 123 134 134 136 141 141 143 124 124 126 136 136 138 111 111 113 138 138 140 139 139 141 137 137 139 140 140 142 118 118 120 125 125 127 136 136 138 142 142 144 123 123 125 132 132 134 141 141 143 124 124 126 140 140 142 127 127 129 117 117 119 119 119 121 128 128 130 144 144 146 129 129 131 124 124 126 146 146 148 142 142 144 120 120 122 124 124 126 130 130 132 117 117 119 137 137 139 129 129 131 139 139 141 113 113 115 133 133 135 112 112 114 123 123 125 121 121 123 135 135 137 122 122 124 124 124 126 141 141 143 132 132 134 143 143 145 118 118 120 117 117 119 120 120 122 146 146 148 118 118 120 127 127 129 142 142 144 138 138 140 121 121 123 132 132 134 145 145 147 132 132 134 123 123 125 138 138 140 122 122 124 122 122 124 117 117 119 116 116 118 119 119 121 135 135 137 136 136 138 121 121 123 
136 136 138 116 116 118 124 124 126 143 143 145 130 130 132 116 116 118 145 145 147 117 117 119 118 118 120 125 125 127 138 138 140 115 115 117 131 131 133 131 131 133 126 126 128 117 117 119 118 118 120 139 139 141 121 121 123 136 136 138 136 136 138 117 117 119 116 116 118 129 129 131 140 140 142 133 133 135 119 119 121 116 116 118 121 121 123 127 127 129 141 141 143 126 126 128 119 119 121 118 118 120 122 122 124 118 118 120 129 129 131 122 122 124 123 123 125 117 117 119 119 119 121 121 121 123 115 115 117 137 137 139 126 126 128 131 131 133 141 141 143 133 133 135 128 128 130 141 141 143 143 143 145 128 128 130 121 121 123 134 134 136 125 125 127 117 117 119 126 126 128 133 133 135 137 137 139 119 119 121 135 135 137 122 122 124 109 109 111 124 124 126 128 128 130 142 142 144 120 120 122 140 140 142 137 137 139 135 135 137 137 137 139 130 130 132 114 114 116 131 131 133 115 115 117 115 115 117 118 118 120 112 112 114 137 137 139 119 119 121 124 124 126 132 132 134 140 140 142 131 131 133 140 140 142 147 147 149 141 141 143 117 117 119 141 141 143 145 145 147 142 142 144 137 137 139 110 110 112 141 141 143 121 121 123 114 114 116 142 142 144 124 124 126 125 125 127 138 138 140 121 121 123 123 123 125 117 117 119 117 117 119 135 135 137 133 133 135 133 133 135 118 118 120 145 145 147 126 126 128 111 111 113 120 120 122 135 135 137 142 142 144 138 138 140 118 118 120 121 121 123 114 114 116 135 135 137 135 135 137 118 118 120 128 128 130 139 139 141 120 120 122 121 121 123 129 129 131 145 145 147 124 124 126 116 116 118 135 135 137 127 127 129 113 113 115 120 120 122 126 126 128 124 124 126 134 134 136 138 138 140 146 146 148 139 139 141 131 131 133 121 121 123 125 125 127 123 123 125 109 109 111 113 113 115 136 136 138 127 127 129 133 133 135 122 122 124 139 139 141 141 141 143 119 119 121 137 137 139 113 113 115 136 136 138 136 136 138 122 122 124 118 118 120 128 128 130 113 113 115 144 144 146 142 142 144 128 128 130 139 139 141 138 138 140 116 116 118 135 135 137 125 125 127 129 129 131 110 110 112 129 129 131 128 128 130 122 122 124 129 129 131 144 144 146 122 122 124 142 142 144 127 127 129 131 131 133 119 119 121 131 131 133 139 139 141 126 126 128 135 135 137 122 122 124 134 134 136 140 140 142 133 133 135 130 130 132 136 136 138 136 136 138 120 120 122 123 123 125 132 132 134 122 122 124 114 114 116 117 117 119 138 138 140 122 122 124 121 121 123 135 135 137 131 131 133 124 124 126 133 133 135 116 116 118 133 133 135 136 136 138 145 145 147 140 140 142 111 111 113 126 126 128 119 119 121 139 139 141 125 125 127 130 130 132 128 128 130 138 138 140 123 123 125 141 141 143 112 112 114 140 140 142 121 121 123 147 147 149 118 118 120 133 133 135 135 135 137 122 122 124 136 136 138 128 128 130 129 129 131 131 131 133 125 125 127 127 127 129 117 117 119 124 124 126 139 139 141 136 136 138 130 130 132 111 111 113 132 132 134 117 117 119 140 140 142 144 144 146 134 134 136 126 126 128 130 130 132 138 138 140 143 143 145 122 122 124 128 128 130 140 140 142 138 138 140 120 120 122 119 119 121 134 134 136 138 138 140 
123 123 125 111 111 113 139 139 141 122 122 124 137 137 139 141 141 143 127 127 129 135 135 137 122 122 124 120 120 122 122 122 124 139 139 141 145 145 147 109 109 111 118 118 120 121 121 123 138 138 140 144 144 146 126 126 128 121 121 123 125 125 127 126 126 128 130 130 132 132 132 134 116 116 118 136 136 138 145 145 147 126 126 128 140 140 142 126 126 128 111 111 113 145 145 147 133 133 135 134 134 136 119 119 121 120 120 122 132 132 134 126 126 128 139 139 141 131 131 133 135 135 137 120 120 122 130 130 132 123 123 125 139 139 141 133 133 135 117 117 119 123 123 125 126 126 128 133 133 135 127 127 129 133 133 135 146 146 148 115 115 117 133 133 135 131 131 133 130 130 132 126 126 128 115 115 117 116 116 118 117 117 119 140 140 142 141 141 143 142 142 144 129 129 131 118 118 120 142 142 144 127 127 129 118 118 120 127 127 129 109 109 111 123 123 125 137 137 139 115 115 117 111 111 113 131 131 133 121 121 123 144 144 146 133 133 135 131 131 133 138 138 140 128 128 130 138 138 140 140 140 142 132 132 134 122 122 124 135 135 137 116 116 118 116 116 118 121 121 123 136 136 138 137 137 139 135 135 137 130 130 132 133 133 135 132 132 134 128 128 130 136 136 138 115 115 117 112 112 114 139 139 141 126 126 128 135 135 137 133 133 135 123 123 125 116 116 118 135 135 137 116 116 118 113 113 115 133 133 135 143 143 145 127 127 129 139 139 141 127 127 129 127 127 129 145 145 147 123 123 125 130 130 132 142 142 144 121 121 123 113 113 115 141 141 143 136 136 138 123 123 125 132 132 134 124 124 126 124 124 126 123 123 125 146 146 148 138 138 140 120 120 122 137 137 139 125 125 127 131 131 133 123 123 125 129 129 131 136 136 138 134 134 136 131 131 133 137 137 139 141 141 143 128 128 130 143 143 145 118 118 120 133 133 135 136 136 138 110 110 112 128 128 130 126 126 128 137 137 139 111 111 113 131 131 133 122 122 124 132 132 134 124 124 126 144 144 146 119 119 121 134 134 136 137 137 139 112 112 114 137 137 139 127 127 129 125 125 127 120 120 122 132 132 134 137 137 139 137 137 139 117 117 119 119 119 121 113 113 115 126 126 128 132 132 134 116 116 118 136 136 138 135 135 137 144 144 146 114 114 116 119 119 121 121 121 123 134 134 136 127 127 129 135 135 137 112 112 114 138 138 140 139 139 141 113 113 115 129 129 131 121 121 123 123 123 125 128 128 130 133 133 135 121 121 123 130 130 132 123 123 125 130 130 132 141 141 143 125 125 127 137 137 139 121 121 123 111 111 113 125 125 127 136 136 138 126 126 128 115 115 117 129 129 131 116 116 118 132 132 134 134 134 136 132 132 134 131 131 133 143 143 145 135 135 137 113 113 115 134 134 136 119 119 121 135 135 137 141 141 143 115 115 117 118 118 120 140 140 142 131 131 133 129 129 131 111 111 113 121 121 123 132 132 134 139 139 141 142 142 144 143 143 145 117 117 119 141 141 143 136 136 138 136 136 138 124 124 126 128 128 130 123 123 125 134 134 136 117 117 119 109 109 111 141 141 143 120 120 122 117 117 119 143 143 145 138 138 140 145 145 147 136 136 138 128 128 130 136 136 138 125 125 127 134 134 136 119 119 121 136 136 138 144 144 146 122 122 124 126 126 128 135 135 137 129 129 131 
124 124 126 141 141 143 130 130 132 121 121 123 117 117 119 129 129 131 143 143 145 140 140 142 124 124 126 122 122 124 130 130 132 136 136 138 126 126 128 117 117 119 125 125 127 132 132 134 137 137 139 138 138 140 142 142 144 122 122 124 137 137 139 123 123 125 122 122 124 117 117 119 123 123 125 133 133 135 137 137 139 139 139 141 138 138 140 136 136 138 144 144 146 131 131 133 128 128 130 129 129 131 131 131 133 142 142 144 136 136 138 144 144 146 120 120 122 111 111 113 132 132 134 138 138 140 121 121 123 119 119 121 122 122 124 138 138 140 131 131 133 121 121 123 115 115 117 119 119 121 118 118 120 134 134 136 129 129 131 134 134 136 146 146 148 136 136 138 144 144 146 129 129 131 121 121 123 140 140 142 139 139 141 111 111 113 144 144 146 138 138 140 140 140 142 111 111 113 140 140 142 123 123 125 113 113 115 132 132 134 131 131 133 121 121 123 141 141 143 141 141 143 144 144 146 134 134 136 122 122 124 110 110 112 140 140 142 134 134 136 117 117 119 114 114 116 127 127 129 134 134 136 124 124 126 144 144 146 125 125 127 125 125 127 135 135 137 129 129 131 134 134 136 144 144 146 131 131 133 129 129 131 127 127 129 109 109 111 110 110 112 119 119 121 123 123 125 127 127 129 121 121 123 140 140 142 133 133 135 141 141 143 124 124 126 122 122 124 137 137 139 115 115 117 119 119 121 132 132 134 139 139 141 146 146 148 108 108 110 119 119 121 119 119 121 138 138 140 116 116 118 126 126 128 131 131 133 137 137 139 130 130 132 119 119 121 125 125 127 114 114 116 128 128 130 117 117 119 134 134 136 114 114 116 138 138 140 115 115 117 120 120 122 138 138 140 132 132 134 128 128 130 122 122 124 124 124 126 125 125 127 130 130 132 118 118 120 126 126 128 117 117 119 132 132 134 125 125 127 127 127 129 131 131 133 124 124 126 125 125 127 115 115 117 132 132 134 116 116 118 121 121 123 135 135 137 138 138 140 140 140 142 145 145 147 123 123 125 117 117 119 138 138 140 122 122 124 122 122 124 136 136 138 131 131 133 118 118 120 138 138 140 123 123 125 128 128 130 118 118 120 117 117 119 141 141 143 148 148 150 115 115 117 117 117 119 138 138 140 122 122 124 138 138 140 137 137 139 121 121 123 120 120 122 143 143 145 125 125 127 145 145 147 135 135 137 122 122 124 127 127 129 117 117 119 118 118 120 126 126 128 142 142 144 133 133 135 122 122 124 131 131 133 123 123 125 138 138 140 131 131 133 131 131 133 118 118 120 115 115 117 119 119 121 125 125 127 121 121 123 139 139 141 139 139 141 129 129 131 135 135 137 122 122 124 134 134 136 132 132 134 142 142 144 128 128 130 139 139 141 131 131 133 117 117 119 134 134 136 134 134 136 114 114 116 120 120 122 143 143 145 139 139 141 115 115 117 114 114 116 139 139 141 130 130 132 131 131 133 146 146 148 113 113 115 137 137 139 127 127 129 129 129 131 141 141 143 113 113 115 140 140 142 123 123 125 123 123 125 128 128 130 128 128 130 129 129 131 123 123 125 122 122 124 124 124 126 118 118 120 129 129 131 117 117 119 122 122 124 120 120 122 142 142 144 140 140 142 123 123 125 145 145 147 127 127 129 124 124 126 122 122 124 129 129 131 130 130 132 116 116 118 126 126 128 128 128 130 
130 130 132 130 130 132 112 112 114 140 140 142 113 113 115 141 141 143 135 135 137 136 136 138 127 127 129 111 111 113 123 123 125 118 118 120 115 115 117 117 117 119 144 144 146 134 134 136 140 140 142 133 133 135 140 140 142 128 128 130 144 144 146 145 145 147 121 121 123 132 132 134 119 119 121 116 116 118 122 122 124 122 122 124 136 136 138 140 140 142 136 136 138 133 133 135 116 116 118 138 138 140 132 132 134 128 128 130 130 130 132 141 141 143 125 125 127 117 117 119 139 139 141 123 123 125 132 132 134 139 139 141 140 140 142 119 119 121 136 136 138 121 121 123 129 129 131 140 140 142 138 138 140 131 131 133 120 120 122 123 123 125 132 132 134 131 131 133 124 124 126 122 122 124 112 112 114 117 117 119 124 124 126 133 133 135 133 133 135 138 138 140 139 139 141 129 129 131 122 122 124 121 121 123 125 125 127 111 111 113 129 129 131 128 128 130 131 131 133 112 112 114 132 132 134 125 125 127 118 118 120 137 137 139 137 137 139 131 131 133 144 144 146 136 136 138 125 125 127 137 137 139 122 122 124 143 143 145 124 124 126 122 122 124 117 117 119 145 145 147 126 126 128 125 125 127 120 120 122 119 119 121 120 120 122 145 145 147 137 137 139 130 130 132 109 109 111 130 130 132 139 139 141 124 124 126 122 122 124 137 137 139 133 133 135 112 112 114 130 130 132 136 136 138 130 130 132 124 124 126 135 135 137 109 109 111 124 124 126 136 136 138 125 125 127 141 141 143 133 133 135 133 133 135 140 140 142 120 120 122 111 111 113 128 128 130 116 116 118 133 133 135 146 146 148 133 133 135 127 127 129 138 138 140 132 132 134 142 142 144 120 120 122 142 142 144 129 129 131 121 121 123 121 121 123 127 127 129 117 117 119 139 139 141 119 119 121 119 119 121 122 122 124 123 123 125 124 124 126 119 119 121 122 122 124 118 118 120 128 128 130 123 123 125 120 120 122 139 139 141 135 135 137 128 128 130 137 137 139 129 129 131 133 133 135 133 133 135 117 117 119 114 114 116 130 130 132 127 127 129 142 142 144 137 137 139 122 122 124 116 116 118 114 114 116 124 124 126 133 133 135 145 145 147 143 143 145 143 143 145 137 137 139 129 129 131 129 129 131 124 124 126 123 123 125 123 123 125 119 119 121 138 138 140 127 127 129 137 137 139 114 114 116 137 137 139 121 121 123 141 141 143 136 136 138 127 127 129 140 140 142 127 127 129 128 128 130 127 127 129 128 128 130 118 118 120 138 138 140 141 141 143 133 133 135 143 143 145 144 144 146 142 142 144 117 117 119 138 138 140 123 123 125 118 118 120 139 139 141 120 120 122 139 139 141 136 136 138 126 126 128 136 136 138 130 130 132 119 119 121 133 133 135 128 128 130 144 144 146 130 130 132 121 121 123 136 136 138 130 130 132 139 139 141 129 129 131 139 139 141 132 132 134 132 132 134 142 142 144 128 128 130 136 136 138 126 126 128 139 139 141 131 131 133 123 123 125 129 129 131 118 118 120 145 145 147 123 123 125 141 141 143 121 121 123 144 144 146 125 125 127 122 122 124 121 121 123 120 120 122 130 130 132 132 132 134 141 141 143 119 119 121 139 139 141 129 129 131 121 121 123 139 139 141 121 121 123 137 137 139 132 132 134 123 123 125 135 135 137 123 123 125 119 119 121 116 116 118 
120 120 122 126 126 128 138 138 140 130 130 132 137 137 139 115 115 117 128 128 130 131 131 133 128 128 130 119 119 121 122 122 124 140 140 142 128 128 130 125 125 127 143 143 145 139 139 141 122 122 124 121 121 123 117 117 119 144 144 146 139 139 141 135 135 137 132 132 134 130 130 132 126 126 128 135 135 137 113 113 115 123 123 125 132 132 134 130 130 132 128 128 130 117 117 119 111 111 113 132 132 134 115 115 117 130 130 132 126 126 128 124 124 126 124 124 126 132 132 134 139 139 141 121 121 123 130 130 132 127 127 129 115 115 117 137 137 139 127 127 129 123 123 125 134 134 136 121 121 123 135 135 137 134 134 136 127 127 129 134 134 136 114 114 116 134 134 136 140 140 142 146 146 148 116 116 118 123 123 125 119 119 121 128 128 130 138 138 140 133 133 135 144 144 146 144 144 146 118 118 120 126 126 128 116 116 118 112 112 114 136 136 138 131 131 133 126 126 128 130 130 132 115 115 117 125 125 127 131 131 133 123 123 125 115 115 117 143 143 145 122 122 124 137 137 139 140 140 142 132 132 134 126 126 128 121 121 123 119 119 121 146 146 148 125 125 127 130 130 132 140 140 142 122 122 124 143 143 145 136 136 138 127 127 129 136 136 138 129 129 131 126 126 128 133 133 135 115 115 117 127 127 129 140 140 142 136 136 138 120 120 122 125 125 127 116 116 118 116 116 118 134 134 136 125 125 127 116 116 118 119 119 121 113 113 115 128 128 130 121 121 123 114 114 116 119 119 121 114 114 116 131 131 133 145 145 147 129 129 131 137 137 139 125 125 127 133 133 135 135 135 137 133 133 135 139 139 141 134 134 136 132 132 134 141 141 143 143 143 145 113 113 115 143 143 145 131 131 133 119 119 121 129 129 131 129 129 131 132 132 134 122 122 124 119 119 121 114 114 116 130 130 132 129 129 131 115 115 117 133 133 135 109 109 111 144 144 146 135 135 137 114 114 116 131 131 133 126 126 128 139 139 141 129 129 131 116 116 118 124 124 126 143 143 145 140 140 142 146 146 148 124 124 126 115 115 117 136 136 138 130 130 132 139 139 141 125 125 127 122 122 124 115 115 117 143 143 145 147 147 149 138 138 140 142 142 144 145 145 147 122 122 124 116 116 118 111 111 113 133 133 135 111 111 113 113 113 115 124 124 126 125 125 127 119 119 121 129 129 131 130 130 132 127 127 129 133 133 135 123 123 125 142 142 144 125 125 127 119 119 121 113 113 115 131 131 133 143 143 145 124 124 126 125 125 127 118 118 120 133 133 135 128 128 130 125 125 127 126 126 128 123 123 125 129 129 131 112 112 114 115 115 117 137 137 139 118 118 120 129 129 131 143 143 145 135 135 137 135 135 137 127 127 129 122 122 124 124 124 126 120 120 122 136 136 138 133 133 135 130 130 132 127 127 129 118 118 120 123 123 125 119 119 121 124 124 126 121 121 123 127 127 129 116 116 118 124 124 126 133 133 135 147 147 149 119 119 121 125 125 127 131 131 133 117 117 119 120 120 122 134 134 136 132 132 134 113 113 115 142 142 144 138 138 140 124 124 126 144 144 146 133 133 135 126 126 128 131 131 133 140 140 142 119 119 121 130 130 132 144 144 146 123 123 125 119 119 121 117 117 119 122 122 124 128 128 130 129 129 131 118 118 120 121 121 123 137 137 139 122 122 124 143 143 145 128 128 130 
139 139 141 129 129 131 117 117 119 134 134 136 123 123 125 119 119 121 135 135 137 133 133 135 125 125 127 121 121 123 134 134 136 145 145 147 137 137 139 134 134 136 124 124 126 142 142 144 128 128 130 118 118 120 128 128 130 141 141 143 140 140 142 119 119 121 131 131 133 137 137 139 115 115 117 124 124 126 117 117 119 134 134 136 119 119 121 126 126 128 119 119 121 116 116 118 142 142 144 132 132 134 136 136 138 128 128 130 117 117 119 133 133 135 128 128 130 142 142 144 117 117 119 146 146 148 128 128 130 124 124 126 126 126 128 115 115 117 143 143 145 143 143 145 113 113 115 122 122 124 120 120 122 132 132 134 128 128 130 136 136 138 115 115 117 126 126 128 111 111 113 140 140 142 140 140 142 147 147 149 116 116 118 141 141 143 135 135 137 123 123 125 113 113 115 120 120 122 123 123 125 119 119 121 123 123 125 131 131 133 122 122 124 142 142 144 119 119 121 128 128 130 135 135 137 138 138 140 132 132 134 141 141 143 114 114 116 136 136 138 138 138 140 129 129 131 145 145 147 119 119 121 134 134 136 112 112 114 131 131 133 126 126 128 138 138 140 120 120 122 141 141 143 133 133 135 130 130 132 134 134 136 128 128 130 131 131 133 127 127 129 122 122 124 113 113 115 127 127 129 126 126 128 121 121 123 120 120 122 137 137 139 140 140 142 129 129 131 112 112 114 137 137 139 118 118 120 134 134 136 130 130 132 120 120 122 133 133 135 139 139 141 113 113 115 138 138 140 131 131 133 145 145 147 114 114 116 129 129 131 131 131 133 128 128 130 117 117 119 137 137 139 139 139 141 141 141 143 133 133 135 128 128 130 134 134 136 122 122 124 130 130 132 131 131 133 115 115 117 146 146 148 124 124 126 133 133 135 130 130 132 138 138 140 138 138 140 138 138 140 134 134 136 114 114 116 113 113 115 119 119 121 130 130 132 141 141 143 134 134 136 129 129 131 122 122 124 132 132 134 130 130 132 132 132 134 140 140 142 135 135 137 128 128 130 117 117 119 115 115 117 137 137 139 115 115 117 141 141 143 130 130 132 126 126 128 140 140 142 113 113 115 113 113 115 130 130 132 110 110 112 117 117 119 121 121 123 127 127 129 130 130 132 129 129 131 133 133 135 140 140 142 113 113 115 140 140 142 143 143 145 128 128 130 118 118 120 144 144 146 131 131 133 130 130 132 142 142 144 142 142 144 121 121 123 116 116 118 126 126 128 139 139 141 128 128 130 145 145 147 124 124 126 128 128 130 141 141 143 132 132 134 112 112 114 116 116 118 124 124 126 124 124 126 117 117 119 119 119 121 117 117 119 142 142 144 117 117 119 113 113 115 122 122 124 140 140 142 139 139 141 123 123 125 118 118 120 137 137 139 137 137 139 133 133 135 121 121 123 112 112 114 134 134 136 124 124 126 131 131 133 130 130 132 138 138 140 129 129 131 111 111 113 123 123 125 121 121 123 117 117 119 141 141 143 116 116 118 140 140 142 138 138 140 115 115 117 114 114 116 126 126 128 142 142 144 132 132 134 123 123 125 112 112 114 125 125 127 135 135 137 133 133 135 118 118 120 132 132 134 141 141 143 136 136 138 114 114 116 125 125 127 122 122 124 140 140 142 122 122 124 117 117 119 120 120 122 138 138 140 131 131 133 123 123 125 121 121 123 130 130 132 141 141 143 135 135 137 
128 128 130 115 115 117 137 137 139 140 140 142 133 133 135 141 141 143 131 131 133 118 118 120 120 120 122 111 111 113 137 137 139 120 120 122 142 142 144 124 124 126 125 125 127 122 122 124 123 123 125 119 119 121 136 136 138 116 116 118 132 132 134 146 146 148 137 137 139 133 133 135 131 131 133 137 137 139 119 119 121 136 136 138 124 124 126 108 108 110 113 113 115 134 134 136 131 131 133 142 142 144 115 115 117 133 133 135 129 129 131 132 132 134 133 133 135 130 130 132 116 116 118 133 133 135 126 126 128 112 112 114 131 131 133 128 128 130 120 120 122 115 115 117 117 117 119 117 117 119 109 109 111 116 116 118 129 129 131 131 131 133 126 126 128 114 114 116 145 145 147 129 129 131 133 133 135 140 140 142 119 119 121 136 136 138 144 144 146 126 126 128 125 125 127 121 121 123 119 119 121 120 120 122 142 142 144 132 132 134 125 125 127 128 128 130 127 127 129 117 117 119 116 116 118 121 121 123 120 120 122 119 119 121 131 131 133 137 137 139 120 120 122 128 128 130 136 136 138 126 126 128 131 131 133 112 112 114 120 120 122 143 143 145 136 136 138 113 113 115 113 113 115 122 122 124 125 125 127 113 113 115 123 123 125 139 139 141 134 134 136 140 140 142 131 131 133 127 127 129 130 130 132 133 133 135 139 139 141 135 135 137 145 145 147 124 124 126 132 132 134 128 128 130 127 127 129 129 129 131 132 132 134 133 133 135 119 119 121 134 134 136 119 119 121 115 115 117 129 129 131 146 146 148 135 135 137 139 139 141 128 128 130 141 141 143 129 129 131 124 124 126 121 121 123 131 131 133 114 114 116 130 130 132 122 122 124 134 134 136 118 118 120 117 117 119 113 113 115 133 133 135 141 141 143 143 143 145 127 127 129 143 143 145 119 119 121 137 137 139 129 129 131 143 143 145 130 130 132 136 136 138 141 141 143 137 137 139 131 131 133 118 118 120 142 142 144 124 124 126 119 119 121 139 139 141 135 135 137 145 145 147 123 123 125 112 112 114 122 122 124 127 127 129 122 122 124 137 137 139 136 136 138 127 127 129 111 111 113 139 139 141 129 129 131 135 135 137 119 119 121 131 131 133 125 125 127 137 137 139 134 134 136 121 121 123 141 141 143 116 116 118 132 132 134 110 110 112 108 108 110 137 137 139 123 123 125 134 134 136 136 136 138 124 124 126 123 123 125 132 132 134 131 131 133 120 120 122 128 128 130 130 130 132 127 127 129 131 131 133 118 118 120 115 115 117 128 128 130 117 117 119 122 122 124 113 113 115 132 132 134 111 111 113 127 127 129 123 123 125 127 127 129 137 137 139 138 138 140 118 118 120 131 131 133 130 130 132 137 137 139 139 139 141 112 112 114 132 132 134 136 136 138 127 127 129 115 115 117 132 132 134 139 139 141 126 126 128 121 121 123 132 132 134 136 136 138 132 132 134 114 114 116 135 135 137 136 136 138 117 117 119 129 129 131 129 129 131 136 136 138 117 117 119 121 121 123 135 135 137 126 126 128 119 119 121 125 125 127 133 133 135 124 124 126 134 134 136 121 121 123 145 145 147 130 130 132 133 133 135 120 120 122 129 129 131 110 110 112 148 148 150 130 130 132 125 125 127 129 129 131 130 130 132 123 123 125 143 143 145 122 122 124 121 121 123 133 133 135 141 141 143 138 138 140 124 124 126 
137 137 139 123 123 125 129 129 131 129 129 131 121 121 123 119 119 121 133 133 135 129 129 131 112 112 114 140 140 142 127 127 129 117 117 119 126 126 128 132 132 134 139 139 141 123 123 125 138 138 140 114 114 116 127 127 129 136 136 138 135 135 137 137 137 139 120 120 122 145 145 147 124 124 126 129 129 131 132 132 134 126 126 128 140 140 142 136 136 138 110 110 112 131 131 133 121 121 123 140 140 142 135 135 137 136 136 138 116 116 118 138 138 140 122 122 124 141 141 143 123 123 125 119 119 121 126 126 128 128 128 130 115 115 117 109 109 111 132 132 134 129 129 131 134 134 136 132 132 134 130 130 132 138 138 140 114 114 116 132 132 134 119 119 121 134 134 136 119 119 121 141 141 143 138 138 140 138 138 140 123 123 125 137 137 139 117 117 119 130 130 132 119 119 121 121 121 123 139 139 141 139 139 141 122 122 124 136 136 138 138 138 140 124 124 126 130 130 132 142 142 144 129 129 131 126 126 128 133 133 135 120 120 122 115 115 117 133 133 135 134 134 136 141 141 143 128 128 130 116 116 118 140 140 142 137 137 139 127 127 129 127 127 129 124 124 126 126 126 128 132 132 134 125 125 127 122 122 124 120 120 122 127 127 129 137 137 139 137 137 139 131 131 133 123 123 125 108 108 110 129 129 131 138 138 140 120 120 122 132 132 134 135 135 137 146 146 148 127 127 129 117 117 119 135 135 137 131 131 133 122 122 124 123 123 125 144 144 146 113 113 115 128 128 130 126 126 128 108 108 110 131 131 133 130 130 132 141 141 143 139 139 141 134 134 136 135 135 137 113 113 115 138 138 140 130 130 132 138 138 140 126 126 128 146 146 148 121 121 123 135 135 137 121 121 123 122 122 124 140 140 142 120 120 122 141 141 143 116 116 118 116 116 118 137 137 139 129 129 131 125 125 127 124 124 126 120 120 122 128 128 130 143 143 145 112 112 114 123 123 125 137 137 139 129 129 131 137 137 139 126 126 128 115 115 117 122 122 124 122 122 124 127 127 129 116 116 118 124 124 126 136 136 138 136 136 138 119 119 121 141 141 143 142 142 144 143 143 145 120 120 122 141 141 143 120 120 122 144 144 146 140 140 142 141 141 143 133 133 135 122 122 124 117 117 119 139 139 141 117 117 119 145 145 147 128 128 130 123 123 125 110 110 112 133 133 135 132 132 134 127 127 129 137 137 139 116 116 118 120 120 122 122 122 124 130 130 132 117 117 119 132 132 134 124 124 126 129 129 131 133 133 135 125 125 127 141 141 143 144 144 146 135 135 137 133 133 135 138 138 140 120 120 122 136 136 138 125 125 127 141 141 143 118 118 120 131 131 133 133 133 135 121 121 123 131 131 133 133 133 135 123 123 125 140 140 142 146 146 148 125 125 127 116 116 118 142 142 144 120 120 122 124 124 126 124 124 126 134 134 136 128 128 130 137 137 139 140 140 142 109 109 111 127 127 129 117 117 119 113 113 115 146 146 148 128 128 130 118 118 120 118 118 120 133 133 135 128 128 130 123 123 125 129 129 131 116 116 118 129 129 131 129 129 131 125 125 127 142 142 144 129 129 131 137 137 139 117 117 119 126 126 128 133 133 135 132 132 134 136 136 138 127 127 129 117 117 119 116 116 118 120 120 122 110 110 112 144 144 146 135 135 137 141 141 143 145 145 147 139 139 141 141 141 143 132 132 134 
139 139 141 119 119 121 141 141 143 121 121 123 122 122 124 112 112 114 116 116 118 134 134 136 141 141 143 116 116 118 125 125 127 145 145 147 135 135 137 141 141 143 116 116 118 141 141 143 130 130 132 118 118 120 131 131 133 122 122 124 140 140 142 141 141 143 137 137 139 115 115 117 142 142 144 133 133 135 134 134 136 124 124 126 127 127 129 117 117 119 126 126 128 127 127 129 118 118 120 128 128 130 132 132 134 134 134 136 117 117 119 134 134 136 128 128 130 132 132 134 118 118 120 128 128 130 119 119 121 118 118 120 127 127 129 141 141 143 141 141 143 141 141 143 137 137 139 128 128 130 110 110 112 126 126 128 128 128 130 117 117 119 126 126 128 137 137 139 142 142 144 126 126 128 124 124 126 133 133 135 125 125 127 139 139 141 117 117 119 133 133 135 134 134 136 143 143 145 126 126 128 131 131 133 118 118 120 118 118 120 136 136 138 117 117 119 127 127 129 116 116 118 126 126 128 143 143 145 113 113 115 112 112 114 131 131 133 109 109 111 123 123 125 117 117 119 119 119 121 142 142 144 137 137 139 122 122 124 137 137 139 127 127 129 144 144 146 111 111 113 128 128 130 109 109 111 136 136 138 146 146 148 133 133 135 132 132 134 109 109 111 122 122 124 108 108 110 129 129 131 123 123 125 142 142 144 118 118 120 123 123 125 134 134 136 117 117 119 138 138 140 135 135 137 136 136 138 142 142 144 118 118 120 126 126 128 134 134 136 133 133 135 133 133 135 141 141 143 141 141 143 116 116 118 116 116 118 127 127 129 132 132 134 143 143 145 146 146 148 121 121 123 140 140 142 116 116 118 117 117 119 140 140 142 127 127 129 134 134 136 113 113 115 116 116 118 147 147 149 117 117 119 134 134 136 121 121 123 125 125 127 125 125 127 135 135 137 134 134 136 137 137 139 137 137 139 140 140 142 134 134 136 144 144 146 108 108 110 110 110 112 139 139 141 123 123 125 114 114 116 112 112 114 124 124 126 141 141 143 110 110 112 116 116 118 113 113 115 123 123 125 123 123 125 136 136 138 135 135 137 112 112 114 132 132 134 116 116 118 142 142 144 128 128 130 136 136 138 131 131 133 135 135 137 128 128 130 140 140 142 138 138 140 131 131 133 143 143 145 137 137 139 142 142 144 111 111 113 119 119 121 121 121 123 127 127 129 134 134 136 124 124 126 129 129 131 134 134 136 137 137 139 129 129 131 116 116 118 131 131 133 133 133 135 118 118 120 134 134 136 128 128 130 138 138 140 121 121 123 133 133 135 124 124 126 131 131 133 114 114 116 124 124 126 139 139 141 140 140 142 130 130 132 116 116 118 135 135 137 117 117 119 130 130 132 128 128 130 127 127 129 125 125 127 121 121 123 113 113 115 120 120 122 119 119 121 129 129 131 127 127 129 126 126 128 121 121 123 136 136 138 131 131 133 137 137 139 121 121 123 133 133 135 121 121 123 117 117 119 133 133 135 140 140 142 128 128 130 113 113 115 130 130 132 146 146 148 115 115 117 142 142 144 120 120 122 119 119 121 117 117 119 122 122 124 135 135 137 114 114 116 115 115 117 129 129 131 126 126 128 140 140 142 124 124 126 110 110 112 113 113 115 131 131 133 142 142 144 124 124 126 131 131 133 122 122 124 131 131 133 134 134 136 137 137 139 115 115 117 140 140 142 130 130 132 115 115 117 
129 129 131 144 144 146 122 122 124 135 135 137 127 127 129 121 121 123 128 128 130 120 120 122 121 121 123 140 140 142 118 118 120 114 114 116 122 122 124 135 135 137 116 116 118 145 145 147 125 125 127 115 115 117 118 118 120 131 131 133 137 137 139 127 127 129 118 118 120 120 120 122 144 144 146 140 140 142 121 121 123 136 136 138 130 130 132 140 140 142 138 138 140 116 116 118 129 129 131 127 127 129 136 136 138 145 145 147 120 120 122 136 136 138 140 140 142 128 128 130 140 140 142 133 133 135 117 117 119 140 140 142 137 137 139 137 137 139 138 138 140 114 114 116 141 141 143 131 131 133 128 128 130 143 143 145 130 130 132 138 138 140 143 143 145 128 128 130 144 144 146 138 138 140 123 123 125 142 142 144 127 127 129 121 121 123 140 140 142 116 116 118 130 130 132 142 142 144 118 118 120 127 127 129 130 130 132 136 136 138 124 124 126 125 125 127 131 131 133 120 120 122 121 121 123 138 138 140 119 119 121 116 116 118 134 134 136 118 118 120 137 137 139 126 126 128 122 122 124 136 136 138 121 121 123 125 125 127 143 143 145 139 139 141 136 136 138 114 114 116 138 138 140 133 133 135 119 119 121 129 129 131 125 125 127 146 146 148 113 113 115 127 127 129 111 111 113 135 135 137 123 123 125 129 129 131 117 117 119 141 141 143 139 139 141 139 139 141 118 118 120 135 135 137 118 118 120 143 143 145 132 132 134 118 118 120 115 115 117 123 123 125 138 138 140 122 122 124 146 146 148 139 139 141 118 118 120 142 142 144 124 124 126 115 115 117 134 134 136 138 138 140 122 122 124 133 133 135 128 128 130 130 130 132 123 123 125 118 118 120 135 135 137 120 120 122 145 145 147 144 144 146 116 116 118 140 140 142 119 119 121 113 113 115 138 138 140 121 121 123 133 133 135 140 140 142 121 121 123 130 130 132 128 128 130 128 128 130 143 143 145 121 121 123 132 132 134 115 115 117 111 111 113 138 138 140 141 141 143 132 132 134 136 136 138 133 133 135 139 139 141 133 133 135 139 139 141 125 125 127 138 138 140 124 124 126 138 138 140 117 117 119 128 128 130 128 128 130 135 135 137 115 115 117 141 141 143 124 124 126 119 119 121 141 141 143 120 120 122 138 138 140 121 121 123 125 125 127 120 120 122 130 130 132 119 119 121 139 139 141 132 132 134 114 114 116 145 145 147 137 137 139 131 131 133 135 135 137 130 130 132 134 134 136 125 125 127 130 130 132 136 136 138 139 139 141 143 143 145 114 114 116 137 137 139 120 120 122 116 116 118 126 126 128 117 117 119 121 121 123 135 135 137 131 131 133 142 142 144 132 132 134 120 120 122 116 116 118 137 137 139 139 139 141 138 138 140 143 143 145 134 134 136 128 128 130 147 147 149 134 134 136 124 124 126 136 136 138 113 113 115 110 110 112 112 112 114 118 118 120 143 143 145 123 123 125 134 134 136 116 116 118 117 117 119 142 142 144 117 117 119 136 136 138 121 121 123 131 131 133 133 133 135 122 122 124 123 123 125 123 123 125 140 140 142 130 130 132 142 142 144 131 131 133 118 118 120 121 121 123 134 134 136 144 144 146 136 136 138 115 115 117 136 136 138 136 136 138 115 115 117 125 125 127 124 124 126 123 123 125 133 133 135 140 140 142 121 121 123 127 127 129 129 129 131 137 137 139 
137 137 139 142 142 144 137 137 139 120 120 122 125 125 127 140 140 142 123 123 125 137 137 139 111 111 113 130 130 132 122 122 124 124 124 126 124 124 126 127 127 129 118 118 120 126 126 128 138 138 140 120 120 122 119 119 121 123 123 125 135 135 137 142 142 144 136 136 138 124 124 126 137 137 139 133 133 135 118 118 120 137 137 139 133 133 135 135 135 137 134 134 136 112 112 114 142 142 144 135 135 137 143 143 145 137 137 139 124 124 126 123 123 125 119 119 121 130 130 132 127 127 129 125 125 127 133 133 135 131 131 133 132 132 134 144 144 146 116 116 118 142 142 144 114 114 116 133 133 135 128 128 130 141 141 143 117 117 119 138 138 140 128 128 130 140 140 142 125 125 127 117 117 119 119 119 121 134 134 136 131 131 133 131 131 133 131 131 133 140 140 142 141 141 143 128 128 130 118 118 120 132 132 134 124 124 126 121 121 123 139 139 141 133 133 135 139 139 141 131 131 133 135 135 137 138 138 140 121 121 123 114 114 116 126 126 128 119 119 121 121 121 123 127 127 129 132 132 134 141 141 143 138 138 140 130 130 132 112 112 114 120 120 122 132 132 134 135 135 137 137 137 139 142 142 144 137 137 139 126 126 128 140 140 142 112 112 114 119 119 121 131 131 133 112 112 114 132 132 134 129 129 131 116 116 118 126 126 128 123 123 125 124 124 126 125 125 127 132 132 134 136 136 138 109 109 111 142 142 144 129 129 131 134 134 136 127 127 129 120 120 122 114 114 116 127 127 129 118 118 120 122 122 124 126 126 128 146 146 148 117 117 119 132 132 134 131 131 133 127 127 129 126 126 128 121 121 123 112 112 114 131 131 133 117 117 119 145 145 147 118 118 120 122 122 124 129 129 131 131 131 133 108 108 110 125 125 127 139 139 141 123 123 125 123 123 125 126 126 128 119 119 121 130 130 132 131 131 133 137 137 139 129 129 131 141 141 143 134 134 136 131 131 133 125 125 127 120 120 122 136 136 138 125 125 127 133 133 135 129 129 131 131 131 133 133 133 135 138 138 140 125 125 127 119 119 121 130 130 132 139 139 141 142 142 144 140 140 142 134 134 136 135 135 137 134 134 136 132 132 134 138 138 140 128 128 130 126 126 128 113 113 115 121 121 123 125 125 127 118 118 120 115 115 117 135 135 137 134 134 136 124 124 126 134 134 136 136 136 138 144 144 146 113 113 115 118 118 120 131 131 133 127 127 129 138 138 140 124 124 126 128 128 130 131 131 133 120 120 122 136 136 138 128 128 130 136 136 138 133 133 135 141 141 143 112 112 114 117 117 119 129 129 131 141 141 143 113 113 115 130 130 132 147 147 149 145 145 147 118 118 120 132 132 134 130 130 132 119 119 121 119 119 121 113 113 115 130 130 132 139 139 141 134 134 136 124 124 126 135 135 137 118 118 120 115 115 117 117 117 119 137 137 139 115 115 117 138 138 140 134 134 136 117 117 119 126 126 128 112 112 114 126 126 128 135 135 137 126 126 128 120 120 122 115 115 117 128 128 130 143 143 145 139 139 141 132 132 134 126 126 128 133 133 135 132 132 134 120 120 122 114 114 116 133 133 135 122 122 124 125 125 127 135 135 137 119 119 121 121 121 123 137 137 139 125 125 127 123 123 125 117 117 119 132 132 134 126 126 128 119 119 121 140 140 142 129 129 131 115 115 117 130 130 132 111 111 113 
143 143 145 116 116 118 115 115 117 125 125 127 135 135 137 121 121 123 137 137 139 129 129 131 119 119 121 144 144 146 121 121 123 118 118 120 137 137 139 130 130 132 131 131 133 112 112 114 115 115 117 138 138 140 134 134 136 124 124 126 140 140 142 111 111 113 137 137 139 141 141 143 144 144 146 144 144 146 116 116 118 125 125 127 136 136 138 122 122 124 121 121 123 140 140 142 126 126 128 140 140 142 133 133 135 130 130 132 124 124 126 138 138 140 116 116 118 137 137 139 124 124 126 138 138 140 115 115 117 130 130 132 144 144 146 124 124 126 132 132 134 134 134 136 123 123 125 130 130 132 131 131 133 120 120 122 134 134 136 134 134 136 133 133 135 143 143 145 137 137 139 141 141 143 142 142 144 139 139 141 138 138 140 124 124 126 116 116 118 116 116 118 120 120 122 119 119 121 134 134 136 136 136 138 129 129 131 136 136 138 124 124 126 127 127 129 145 145 147 117 117 119 135 135 137 126 126 128 134 134 136 132 132 134 146 146 148 119 119 121 132 132 134 139 139 141 142 142 144 136 136 138 142 142 144 138 138 140 130 130 132 137 137 139 119 119 121 108 108 110 124 124 126 116 116 118 123 123 125 137 137 139 120 120 122 135 135 137 111 111 113 136 136 138 125 125 127 131 131 133 120 120 122 130 130 132 135 135 137 138 138 140 133 133 135 121 121 123 146 146 148 123 123 125 127 127 129 116 116 118 120 120 122 120 120 122 135 135 137 131 131 133 125 125 127 118 118 120 116 116 118 122 122 124 133 133 135 120 120 122 129 129 131 128 128 130 141 141 143 117 117 119 134 134 136 136 136 138 109 109 111 130 130 132 132 132 134 130 130 132 140 140 142 129 129 131 125 125 127 135 135 137 144 144 146 119 119 121 130 130 132 114 114 116 134 134 136 132 132 134 129 129 131 142 142 144 137 137 139 139 139 141 131 131 133 114 114 116 133 133 135 134 134 136 119 119 121 131 131 133 145 145 147 143 143 145 114 114 116 118 118 120 131 131 133 127 127 129 118 118 120 126 126 128 125 125 127 137 137 139 132 132 134 121 121 123 134 134 136 140 140 142 138 138 140 131 131 133 144 144 146 136 136 138 129 129 131 123 123 125 120 120 122 130 130 132 136 136 138 123 123 125 113 113 115 128 128 130 119 119 121 139 139 141 143 143 145 125 125 127 132 132 134 127 127 129 124 124 126 113 113 115 112 112 114 131 131 133 132 132 134 123 123 125 130 130 132 124 124 126 124 124 126 124 124 126 115 115 117 119 119 121 134 134 136 136 136 138 113 113 115 119 119 121 146 146 148 119 119 121 140 140 142 109 109 111 130 130 132 134 134 136 117 117 119 113 113 115 120 120 122 129 129 131 139 139 141 121 121 123 134 134 136 118 118 120 120 120 122 126 126 128 144 144 146 132 132 134 115 115 117 121 121 123 130 130 132 124 124 126 131 131 133 115 115 117 138 138 140 124 124 126 113 113 115 139 139 141 121 121 123 133 133 135 121 121 123 129 129 131 113 113 115 140 140 142 142 142 144 143 143 145 133 133 135 133 133 135 111 111 113 121 121 123 141 141 143 133 133 135 137 137 139 118 118 120 123 123 125 130 130 132 128 128 130 141 141 143 115 115 117 135 135 137 130 130 132 129 129 131 121 121 123 128 128 130 120 120 122 123 123 125 123 123 125 131 131 133 
113 113 115 137 137 139 139 139 141 138 138 140 131 131 133 143 143 145 131 131 133 127 127 129 133 133 135 139 139 141 119 119 121 116 116 118 138 138 140 115 115 117 142 142 144 134 134 136 143 143 145 132 132 134 133 133 135 136 136 138 126 126 128 136 136 138 141 141 143 128 128 130 125 125 127 114 114 116 138 138 140 117 117 119 126 126 128 136 136 138 140 140 142 117 117 119 115 115 117 119 119 121 145 145 147 133 133 135 125 125 127 126 126 128 141 141 143 127 127 129 142 142 144 126 126 128 137 137 139 115 115 117 135 135 137 134 134 136 143 143 145 124 124 126 142 142 144 118 118 120 133 133 135 143 143 145 124 124 126 142 142 144 120 120 122 120 120 122 125 125 127 124 124 126 118 118 120 135 135 137 135 135 137 114 114 116 134 134 136 135 135 137 117 117 119 127 127 129 131 131 133 143 143 145 132 132 134 139 139 141 137 137 139 114 114 116 114 114 116 113 113 115 114 114 116 129 129 131 111 111 113 126 126 128 132 132 134 128 128 130 112 112 114 125 125 127 126 126 128 128 128 130 139 139 141 121 121 123 136 136 138 135 135 137 118 118 120 119 119 121 139 139 141 123 123 125 115 115 117 120 120 122 117 117 119 146 146 148 141 141 143 108 108 110 135 135 137 133 133 135 136 136 138 127 127 129 129 129 131 126 126 128 116 116 118 123 123 125 128 128 130 130 130 132 123 123 125 139 139 141 131 131 133 142 142 144 137 137 139 122 122 124 133 133 135 126 126 128 140 140 142 119 119 121 146 146 148 115 115 117 144 144 146 135 135 137 142 142 144 129 129 131 124 124 126 137 137 139 125 125 127 128 128 130 109 109 111 127 127 129 128 128 130 146 146 148 142 142 144 146 146 148 127 127 129 141 141 143 123 123 125 143 143 145 129 129 131 116 116 118 120 120 122 134 134 136 141 141 143 117 117 119 131 131 133 119 119 121 117 117 119 147 147 149 126 126 128 144 144 146 115 115 117 121 121 123 136 136 138 121 121 123 133 133 135 142 142 144 115 115 117 135 135 137 127 127 129 142 142 144 129 129 131 109 109 111 122 122 124 122 122 124 125 125 127 125 125 127 129 129 131 121 121 123 134 134 136 140 140 142 118 118 120 131 131 133 121 121 123 129 129 131 118 118 120 133 133 135 147 147 149 118 118 120 128 128 130 130 130 132 128 128 130 119 119 121 131 131 133 124 124 126 118 118 120 145 145 147 115 115 117 140 140 142 119 119 121 120 120 122 116 116 118 132 132 134 128 128 130 119 119 121 143 143 145 139 139 141 121 121 123 116 116 118 126 126 128 135 135 137 113 113 115 134 134 136 134 134 136 134 134 136 142 142 144 125 125 127 140 140 142 130 130 132 139 139 141 116 116 118 123 123 125 127 127 129 114 114 116 141 141 143 109 109 111 145 145 147 126 126 128 135 135 137 109 109 111 142 142 144 114 114 116 115 115 117 133 133 135 137 137 139 127 127 129 124 124 126 131 131 133 137 137 139 140 140 142 117 117 119 116 116 118 146 146 148 142 142 144 131 131 133 137 137 139 126 126 128 141 141 143 128 128 130 136 136 138 148 148 150 123 123 125 128 128 130 120 120 122 133 133 135 129 129 131 139 139 141 134 134 136 129 129 131 118 118 120 131 131 133 115 115 117 116 116 118 137 137 139 137 137 139 124 124 126 132 132 134 
145 145 147 134 134 136 132 132 134 120 120 122 138 138 140 126 126 128 135 135 137 123 123 125 121 121 123 119 119 121 117 117 119 116 116 118 131 131 133 142 142 144 122 122 124 123 123 125 129 129 131 120 120 122 132 132 134 137 137 139 117 117 119 119 119 121 121 121 123 139 139 141 131 131 133 129 129 131 136 136 138 130 130 132 126 126 128 124 124 126 130 130 132 130 130 132 116 116 118 130 130 132 133 133 135 126 126 128 133 133 135 123 123 125 121 121 123 136 136 138 123 123 125 123 123 125 125 125 127 129 129 131 135 135 137 136 136 138 141 141 143 135 135 137 142 142 144 140 140 142 140 140 142 119 119 121 130 130 132 114 114 116 121 121 123 139 139 141 113 113 115 132 132 134 119 119 121 120 120 122 112 112 114 120 120 122 129 129 131 143 143 145 134 134 136 117 117 119 134 134 136 121 121 123 132 132 134 141 141 143 134 134 136 139 139 141 131 131 133 126 126 128 144 144 146 120 120 122 139 139 141 125 125 127 126 126 128 119 119 121 124 124 126 133 133 135 133 133 135 127 127 129 136 136 138 129 129 131 131 131 133 117 117 119 124 124 126 124 124 126 137 137 139 122 122 124 121 121 123 115 115 117 129 129 131 140 140 142 120 120 122 115 115 117 116 116 118 137 137 139 135 135 137 120 120 122 121 121 123 126 126 128 113 113 115 118 118 120 120 120 122 113 113 115 130 130 132 138 138 140 138 138 140 124 124 126 127 127 129 115 115 117 134 134 136 123 123 125 108 108 110 123 123 125 131 131 133 120 120 122 116 116 118 143 143 145 120 120 122 130 130 132 142 142 144 133 133 135 136 136 138 138 138 140 134 134 136 125 125 127 120 120 122 134 134 136 125 125 127 123 123 125 145 145 147 128 128 130 137 137 139 128 128 130 130 130 132 116 116 118 141 141 143 115 115 117 120 120 122 123 123 125 141 141 143 122 122 124 144 144 146 127 127 129 134 134 136 135 135 137 136 136 138 133 133 135 127 127 129 112 112 114 135 135 137 140 140 142 124 124 126 137 137 139 140 140 142 140 140 142 132 132 134 145 145 147 117 117 119 144 144 146 146 146 148 138 138 140 109 109 111 140 140 142 137 137 139 133 133 135 128 128 130 110 110 112 117 117 119 129 129 131 121 121 123 135 135 137 146 146 148 148 148 150 128 128 130 130 130 132 138 138 140 117 117 119 110 110 112 130 130 132 118 118 120 118 118 120 143 143 145 140 140 142 126 126 128 117 117 119 128 128 130 124 124 126 138 138 140 138 138 140 136 136 138 140 140 142 143 143 145 126 126 128 120 120 122 139 139 141 122 122 124 117 117 119 137 137 139 128 128 130 118 118 120 125 125 127 147 147 149 123 123 125 145 145 147 133 133 135 117 117 119 140 140 142 134 134 136 128 128 130 113 113 115 140 140 142 137 137 139 113 113 115 116 116 118 115 115 117 120 120 122 127 127 129 141 141 143 130 130 132 133 133 135 130 130 132 113 113 115 119 119 121 146 146 148 124 124 126 127 127 129 112 112 114 139 139 141 130 130 132 146 146 148 128 128 130 121 121 123 120 120 122 123 123 125 133 133 135 117 117 119 125 125 127 115 115 117 116 116 118 122 122 124 140 140 142 129 129 131 144 144 146 129 129 131 113 113 115 121 121 123 136 136 138 117 117 119 120 120 122 126 126 128 144 144 146 
112 112 114 135 135 137 122 122 124 111 111 113 123 123 125 141 141 143 137 137 139 117 117 119 135 135 137 111 111 113 125 125 127 126 126 128 143 143 145 143 143 145 123 123 125 130 130 132 122 122 124 114 114 116 142 142 144 117 117 119 136 136 138 122 122 124 123 123 125 122 122 124 137 137 139 139 139 141 131 131 133 139 139 141 117 117 119 140 140 142 131 131 133 139 139 141 140 140 142 142 142 144 132 132 134 145 145 147 117 117 119 129 129 131 138 138 140 113 113 115 143 143 145 124 124 126 126 126 128 127 127 129 119 119 121 122 122 124 147 147 149 124 124 126 131 131 133 120 120 122 122 122 124 132 132 134 146 146 148 124 124 126 117 117 119 136 136 138 121 121 123 117 117 119 122 122 124 143 143 145 136 136 138 113 113 115 143 143 145 127 127 129 115 115 117 137 137 139 118 118 120 141 141 143 136 136 138 136 136 138 133 133 135 116 116 118 127 127 129 138 138 140 127 127 129 141 141 143 132 132 134 129 129 131 128 128 130 142 142 144 130 130 132 123 123 125 134 134 136 136 136 138 146 146 148 147 147 149 119 119 121 132 132 134 140 140 142 141 141 143 118 118 120 132 132 134 139 139 141 121 121 123 117 117 119 130 130 132 127 127 129 130 130 132 135 135 137 139 139 141 142 142 144 145 145 147 130 130 132 132 132 134 133 133 135 114 114 116 122 122 124 132 132 134 137 137 139 136 136 138 135 135 137 130 130 132 133 133 135 144 144 146 126 126 128 138 138 140 125 125 127 128 128 130 129 129 131 114 114 116 130 130 132 125 125 127 131 131 133 121 121 123 123 123 125 119 119 121 125 125 127 141 141 143 119 119 121 142 142 144 134 134 136 142 142 144 129 129 131 139 139 141 141 141 143 120 120 122 116 116 118 125 125 127 131 131 133 145 145 147 126 126 128 124 124 126 139 139 141 140 140 142 125 125 127 131 131 133 119 119 121 123 123 125 124 124 126 134 134 136 133 133 135 138 138 140 118 118 120 108 108 110 143 143 145 121 121 123 109 109 111 129 129 131 127 127 129 122 122 124 124 124 126 119 119 121 115 115 117 120 120 122 129 129 131 125 125 127 119 119 121 133 133 135 136 136 138 118 118 120 145 145 147 116 116 118 127 127 129 134 134 136 136 136 138 129 129 131 111 111 113 111 111 113 130 130 132 142 142 144 119 119 121 120 120 122 111 111 113 137 137 139 132 132 134 117 117 119 122 122 124 131 131 133 132 132 134 133 133 135 126 126 128 130 130 132 118 118 120 142 142 144 137 137 139 127 127 129 115 115 117 129 129 131 144 144 146 129 129 131 111 111 113 115 115 117 137 137 139 143 143 145 125 125 127 140 140 142 116 116 118 122 122 124 137 137 139 117 117 119 127 127 129 134 134 136 136 136 138 135 135 137 134 134 136 113 113 115 126 126 128 132 132 134 113 113 115 139 139 141 130 130 132 140 140 142 131 131 133 118 118 120 135 135 137 136 136 138 127 127 129 139 139 141 130 130 132 116 116 118 117 117 119 124 124 126 115 115 117 113 113 115 120 120 122 134 134 136 131 131 133 139 139 141 135 135 137 138 138 140 132 132 134 136 136 138 125 125 127 125 125 127 126 126 128 145 145 147 135 135 137 139 139 141 125 125 127 129 129 131 116 116 118 118 118 120 134 134 136 144 144 146 129 129 131 132 132 134 
126 126 128 111 111 113 128 128 130 137 137 139 124 124 126 123 123 125 133 133 135 122 122 124 137 137 139 128 128 130 125 125 127 126 126 128 129 129 131 126 126 128 124 124 126 139 139 141 121 121 123 116 116 118 119 119 121 138 138 140 136 136 138 128 128 130 134 134 136 133 133 135 146 146 148 135 135 137 131 131 133 125 125 127 129 129 131 132 132 134 140 140 142 147 147 149 129 129 131 118 118 120 112 112 114 118 118 120 124 124 126 130 130 132 116 116 118 123 123 125 138 138 140 126 126 128 125 125 127 134 134 136 115 115 117 115 115 117 139 139 141 139 139 141 133 133 135 116 116 118 123 123 125 144 144 146 125 125 127 133 133 135 125 125 127 121 121 123 127 127 129 119 119 121 142 142 144 114 114 116 120 120 122 131 131 133 119 119 121 132 132 134 136 136 138 118 118 120 123 123 125 114 114 116 117 117 119 121 121 123 122 122 124 133 133 135 143 143 145 115 115 117 116 116 118 139 139 141 135 135 137 118 118 120 140 140 142 114 114 116 122 122 124 112 112 114 141 141 143 118 118 120 118 118 120 117 117 119 115 115 117 137 137 139 134 134 136 111 111 113 123 123 125 145 145 147 138 138 140 145 145 147 138 138 140 115 115 117 137 137 139 131 131 133 136 136 138 126 126 128 129 129 131 118 118 120 110 110 112 115 115 117 142 142 144 124 124 126 115 115 117 133 133 135 126 126 128 134 134 136 117 117 119 122 122 124 122 122 124 115 115 117 120 120 122 133 133 135 115 115 117 127 127 129 135 135 137 142 142 144 129 129 131 120 120 122 116 116 118 135 135 137 133 133 135 118 118 120 120 120 122 143 143 145 126 126 128 144 144 146 133 133 135 143 143 145 123 123 125 126 126 128 144 144 146 114 114 116 122 122 124 132 132 134 122 122 124 115 115 117 135 135 137 130 130 132 120 120 122 135 135 137 136 136 138 137 137 139 127 127 129 137 137 139 147 147 149 134 134 136 121 121 123 116 116 118 145 145 147 136 136 138 121 121 123 136 136 138 110 110 112 127 127 129 126 126 128 133 133 135 140 140 142 121 121 123 130 130 132 134 134 136 127 127 129 140 140 142 127 127 129 120 120 122 115 115 117 143 143 145 128 128 130 129 129 131 133 133 135 143 143 145 123 123 125 114 114 116 116 116 118 130 130 132 133 133 135 134 134 136 123 123 125 121 121 123 124 124 126 118 118 120 137 137 139 121 121 123 136 136 138 140 140 142 131 131 133 114 114 116 125 125 127 120 120 122 113 113 115 136 136 138 134 134 136 138 138 140 139 139 141 125 125 127 130 130 132 123 123 125 123 123 125 130 130 132 116 116 118 135 135 137 143 143 145 134 134 136 113 113 115 117 117 119 140 140 142 128 128 130 140 140 142 130 130 132 131 131 133 144 144 146 143 143 145 113 113 115 135 135 137 129 129 131 125 125 127 120 120 122 121 121 123 130 130 132 125 125 127 121 121 123 117 117 119 130 130 132 124 124 126 125 125 127 143 143 145 125 125 127 135 135 137 133 133 135 146 146 148 119 119 121 134 134 136 141 141 143 134 134 136 125 125 127 117 117 119 114 114 116 141 141 143 131 131 133 122 122 124 146 146 148 119 119 121 122 122 124 123 123 125 139 139 141 124 124 126 136 136 138 112 112 114 139 139 141 147 147 149 136 136 138 148 148 150 133 133 135 
121 121 123 129 129 131 134 134 136 128 128 130 118 118 120 134 134 136 125 125 127 119 119 121 111 111 113 131 131 133 121 121 123 122 122 124 127 127 129 120 120 122 130 130 132 135 135 137 125 125 127 141 141 143 111 111 113 142 142 144 138 138 140 133 133 135 140 140 142 120 120 122 139 139 141 123 123 125 123 123 125 121 121 123 133 133 135 141 141 143 120 120 122 122 122 124 125 125 127 127 127 129 139 139 141 119 119 121 120 120 122 122 122 124 138 138 140 141 141 143 112 112 114 139 139 141 114 114 116 119 119 121 137 137 139 129 129 131 115 115 117 140 140 142 118 118 120 137 137 139 128 128 130 139 139 141 132 132 134 126 126 128 134 134 136 125 125 127 143 143 145 131 131 133 135 135 137 137 137 139 138 138 140 130 130 132 125 125 127 126 126 128 129 129 131 113 113 115 122 122 124 128 128 130 128 128 130 123 123 125 135 135 137 117 117 119 114 114 116 113 113 115 115 115 117 120 120 122 118 118 120 121 121 123 143 143 145 130 130 132 141 141 143 125 125 127 119 119 121 130 130 132 127 127 129 132 132 134 147 147 149 145 145 147 143 143 145 136 136 138 112 112 114 124 124 126 119 119 121 132 132 134 126 126 128 137 137 139 125 125 127 146 146 148 138 138 140 125 125 127 131 131 133 134 134 136 122 122 124 128 128 130 119 119 121 137 137 139 119 119 121 131 131 133 116 116 118 135 135 137 135 135 137 138 138 140 131 131 133 119 119 121 126 126 128 137 137 139 123 123 125 108 108 110 129 129 131 132 132 134 123 123 125 131 131 133 116 116 118 141 141 143 136 136 138 116 116 118 148 148 150 113 113 115 133 133 135 119 119 121 122 122 124 119 119 121 132 132 134 123 123 125 124 124 126 144 144 146 132 132 134 136 136 138 134 134 136 116 116 118 125 125 127 140 140 142 128 128 130 142 142 144 127 127 129 134 134 136 137 137 139 126 126 128 132 132 134 132 132 134 115 115 117 147 147 149 123 123 125 124 124 126 135 135 137 131 131 133 144 144 146 130 130 132 121 121 123 137 137 139 119 119 121 116 116 118 113 113 115 131 131 133 133 133 135 117 117 119 138 138 140 124 124 126 133 133 135 121 121 123 122 122 124 135 135 137 135 135 137 127 127 129 146 146 148 127 127 129 118 118 120 114 114 116 129 129 131 124 124 126 136 136 138 146 146 148 125 125 127 125 125 127 116 116 118 144 144 146 128 128 130 130 130 132 127 127 129 140 140 142 127 127 129 128 128 130 134 134 136 143 143 145 138 138 140 132 132 134 116 116 118 142 142 144 119 119 121 120 120 122 138 138 140 131 131 133 121 121 123 123 123 125 114 114 116 123 123 125 126 126 128 117 117 119 131 131 133 134 134 136 131 131 133 134 134 136 122 122 124 132 132 134 140 140 142 120 120 122 125 125 127 124 124 126 125 125 127 143 143 145 121 121 123 111 111 113 120 120 122 111 111 113 143 143 145 114 114 116 118 118 120 139 139 141 144 144 146 139 139 141 141 141 143 130 130 132 124 124 126 130 130 132 136 136 138 120 120 122 139 139 141 125 125 127 123 123 125 126 126 128 133 133 135 135 135 137 127 127 129 137 137 139 131 131 133 137 137 139 138 138 140 139 139 141 123 123 125 140 140 142 124 124 126 142 142 144 116 116 118 143 143 145 125 125 127 123 123 125 
130 130 132 137 137 139 115 115 117 131 131 133 111 111 113 146 146 148 116 116 118 131 131 133 134 134 136 129 129 131 116 116 118 142 142 144 125 125 127 143 143 145 129 129 131 115 115 117 120 120 122 118 118 120 121 121 123 133 133 135 136 136 138 130 130 132 143 143 145 136 136 138 128 128 130 118 118 120 127 127 129 129 129 131 128 128 130 139 139 141 128 128 130 140 140 142 142 142 144 140 140 142 138 138 140 114 114 116 127 127 129 140 140 142 115 115 117 127 127 129 123 123 125 120 120 122 138 138 140 116 116 118 111 111 113 146 146 148 117 117 119 138 138 140 117 117 119 139 139 141 138 138 140 120 120 122 129 129 131 111 111 113 126 126 128 118 118 120 142 142 144 121 121 123 136 136 138 140 140 142 120 120 122 121 121 123 131 131 133 129 129 131 133 133 135 118 118 120 144 144 146 144 144 146 114 114 116 135 135 137 122 122 124 133 133 135 114 114 116 127 127 129 126 126 128 128 128 130 110 110 112 116 116 118 125 125 127 122 122 124 122 122 124 141 141 143 121 121 123 116 116 118 125 125 127 111 111 113 142 142 144 136 136 138 133 133 135 118 118 120 126 126 128 137 137 139 132 132 134 138 138 140 113 113 115 124 124 126 136 136 138 138 138 140 122 122 124 116 116 118 128 128 130 127 127 129 139 139 141 123 123 125 126 126 128 122 122 124 120 120 122 139 139 141 121 121 123 134 134 136 123 123 125 120 120 122 124 124 126 138 138 140 114 114 116 112 112 114 123 123 125 111 111 113 114 114 116 128 128 130 122 122 124 128 128 130 121 121 123 128 128 130 123 123 125 120 120 122 131 131 133 146 146 148 114 114 116 130 130 132 115 115 117 134 134 136 130 130 132 120 120 122 131 131 133 114 114 116 134 134 136 122 122 124 130 130 132 136 136 138 123 123 125 140 140 142 119 119 121 124 124 126 111 111 113 135 135 137 140 140 142 125 125 127 128 128 130 129 129 131 117 117 119 121 121 123 115 115 117 124 124 126 128 128 130 144 144 146 139 139 141 114 114 116 122 122 124 121 121 123 122 122 124 135 135 137 121 121 123 139 139 141 128 128 130 132 132 134 116 116 118 132 132 134 132 132 134 116 116 118 128 128 130 122 122 124 116 116 118 124 124 126 121 121 123 117 117 119 142 142 144 118 118 120 141 141 143 118 118 120 145 145 147 120 120 122 125 125 127 118 118 120 129 129 131 115 115 117 117 117 119 136 136 138 109 109 111 126 126 128 132 132 134 125 125 127 111 111 113 134 134 136 128 128 130 115 115 117 119 119 121 121 121 123 127 127 129 131 131 133 116 116 118 127 127 129 121 121 123 146 146 148 136 136 138 139 139 141 127 127 129 125 125 127 121 121 123 123 123 125 137 137 139 144 144 146 119 119 121 125 125 127 122 122 124 129 129 131 127 127 129 117 117 119 141 141 143 114 114 116 125 125 127 133 133 135 142 142 144 137 137 139 131 131 133 129 129 131 129 129 131 126 126 128 132 132 134 125 125 127 114 114 116 121 121 123 117 117 119 126 126 128 134 134 136 118 118 120 122 122 124 138 138 140 145 145 147 115 115 117 113 113 115 122 122 124 127 127 129 128 128 130 144 144 146 113 113 115 143 143 145 130 130 132 133 133 135 140 140 142 116 116 118 114 114 116 124 124 126 135 135 137 123 123 125 138 138 140 
126 126 128 119 119 121 118 118 120 139 139 141 113 113 115 144 144 146 141 141 143 122 122 124 110 110 112 128 128 130 121 121 123 139 139 141 139 139 141 136 136 138 134 134 136 130 130 132 111 111 113 145 145 147 139 139 141 116 116 118 138 138 140 117 117 119 121 121 123 114 114 116 109 109 111 129 129 131 126 126 128 119 119 121 113 113 115 133 133 135 132 132 134 129 129 131 140 140 142 111 111 113 132 132 134 133 133 135 115 115 117 128 128 130 145 145 147 122 122 124 134 134 136 145 145 147 147 147 149 134 134 136 130 130 132 137 137 139 138 138 140 110 110 112 125 125 127 125 125 127 118 118 120 133 133 135 123 123 125 119 119 121 138 138 140 122 122 124 119 119 121 139 139 141 117 117 119 130 130 132 147 147 149 119 119 121 119 119 121 122 122 124 136 136 138 119 119 121 121 121 123 116 116 118 137 137 139 125 125 127 117 117 119 124 124 126 121 121 123 128 128 130 139 139 141 142 142 144 134 134 136 148 148 150 138 138 140 136 136 138 137 137 139 132 132 134 122 122 124 122 122 124 111 111 113 128 128 130 137 137 139 128 128 130 111 111 113 129 129 131 135 135 137 128 128 130 112 112 114 120 120 122 135 135 137 135 135 137 134 134 136 130 130 132 128 128 130 124 124 126 127 127 129 131 131 133 118 118 120 128 128 130 141 141 143 122 122 124 126 126 128 112 112 114 112 112 114 135 135 137 124 124 126 121 121 123 126 126 128 126 126 128 125 125 127 133 133 135 134 134 136 128 128 130 118 118 120 111 111 113 113 113 115 115 115 117 139 139 141 142 142 144 132 132 134 121 121 123 122 122 124 132 132 134 137 137 139 144 144 146 145 145 147 119 119 121 130 130 132 121 121 123 136 136 138 108 108 110 131 131 133 129 129 131 140 140 142 138 138 140 117 117 119 117 117 119 119 119 121 125 125 127 130 130 132 125 125 127 126 126 128 141 141 143 122 122 124 119 119 121 129 129 131 131 131 133 114 114 116 121 121 123 138 138 140 139 139 141 133 133 135 130 130 132 108 108 110 121 121 123 141 141 143 135 135 137 116 116 118 135 135 137 136 136 138 137 137 139 142 142 144 140 140 142 127 127 129 119 119 121 136 136 138 119 119 121 124 124 126 137 137 139 138 138 140 125 125 127 139 139 141 119 119 121 120 120 122 120 120 122 110 110 112 125 125 127 112 112 114 142 142 144 134 134 136 133 133 135 134 134 136 111 111 113 127 127 129 137 137 139 123 123 125 139 139 141 134 134 136 139 139 141 124 124 126 114 114 116 129 129 131 117 117 119 110 110 112 131 131 133 115 115 117 126 126 128 128 128 130 139 139 141 124 124 126 125 125 127 132 132 134 131 131 133 115 115 117 119 119 121 124 124 126 125 125 127 114 114 116 140 140 142 138 138 140 126 126 128 134 134 136 129 129 131 135 135 137 112 112 114 134 134 136 129 129 131 144 144 146 123 123 125 128 128 130 131 131 133 132 132 134 118 118 120 122 122 124 126 126 128 119 119 121 137 137 139 130 130 132 128 128 130 137 137 139 121 121 123 120 120 122 129 129 131 134 134 136 133 133 135 118 118 120 138 138 140 139 139 141 129 129 131 132 132 134 116 116 118 131 131 133 134 134 136 140 140 142 137 137 139 145 145 147 141 141 143 145 145 147 119 119 121 121 121 123 130 130 132 
139 139 141 138 138 140 112 112 114 143 143 145 132 132 134 138 138 140 140 140 142 124 124 126 143 143 145 140 140 142 133 133 135 110 110 112 124 124 126 124 124 126 113 113 115 148 148 150 142 142 144 124 124 126 124 124 126 114 114 116 123 123 125 136 136 138 130 130 132 120 120 122 121 121 123 133 133 135 122 122 124 120 120 122 142 142 144 128 128 130 136 136 138 140 140 142 122 122 124 116 116 118 131 131 133 138 138 140 136 136 138 124 124 126 138 138 140 144 144 146 128 128 130 117 117 119 131 131 133 129 129 131 138 138 140 131 131 133 147 147 149 136 136 138 138 138 140 140 140 142 135 135 137 145 145 147 129 129 131 133 133 135 125 125 127 129 129 131 130 130 132 132 132 134 140 140 142 120 120 122 127 127 129 122 122 124 125 125 127 141 141 143 123 123 125 137 137 139 111 111 113 129 129 131 136 136 138 135 135 137 130 130 132 121 121 123 120 120 122 129 129 131 136 136 138 133 133 135 129 129 131 143 143 145 140 140 142 146 146 148 120 120 122 127 127 129 135 135 137 129 129 131 124 124 126 120 120 122 116 116 118 134 134 136 128 128 130 122 122 124 135 135 137 116 116 118 124 124 126 122 122 124 114 114 116 136 136 138 128 128 130 129 129 131 113 113 115 124 124 126 126 126 128 121 121 123 136 136 138 128 128 130 112 112 114 128 128 130 113 113 115 130 130 132 113 113 115 114 114 116 142 142 144 130 130 132 113 113 115 117 117 119 126 126 128 138 138 140 142 142 144 119 119 121 142 142 144 123 123 125 112 112 114 126 126 128 121 121 123 139 139 141 126 126 128 115 115 117 145 145 147 134 134 136 138 138 140 132 132 134 121 121 123 125 125 127 122 122 124 128 128 130 125 125 127 145 145 147 143 143 145 139 139 141 138 138 140 136 136 138 116 116 118 123 123 125 122 122 124 131 131 133 135 135 137 117 117 119 145 145 147 125 125 127 131 131 133 123 123 125 136 136 138 136 136 138 107 107 109 123 123 125 134 134 136 135 135 137 131 131 133 128 128 130 130 130 132 131 131 133 141 141 143 131 131 133 130 130 132 128 128 130 141 141 143 128 128 130 124 124 126 136 136 138 128 128 130 135 135 137 130 130 132 140 140 142 132 132 134 133 133 135 133 133 135 144 144 146 130 130 132 135 135 137 124 124 126 138 138 140 131 131 133 121 121 123 116 116 118 125 125 127 133 133 135 125 125 127 115 115 117 129 129 131 117 117 119 135 135 137 135 135 137 143 143 145 141 141 143 127 127 129 118 118 120 117 117 119 120 120 122 140 140 142 134 134 136 133 133 135 133 133 135 136 136 138 125 125 127 121 121 123 147 147 149 121 121 123 121 121 123 136 136 138 129 129 131 134 134 136 135 135 137 138 138 140 127 127 129 136 136 138 145 145 147 130 130 132 117 117 119 123 123 125 114 114 116 123 123 125 135 135 137 122 122 124 142 142 144 123 123 125 119 119 121 135 135 137 116 116 118 114 114 116 125 125 127 119 119 121 124 124 126 124 124 126 135 135 137 131 131 133 115 115 117 126 126 128 146 146 148 127 127 129 114 114 116 119 119 121 118 118 120 115 115 117 125 125 127 111 111 113 117 117 119 118 118 120 143 143 145 140 140 142 145 145 147 121 121 123 129 129 131 120 120 122 128 128 130 119 119 121 117 117 119 125 125 127 
118 118 120 113 113 115 114 114 116 129 129 131 120 120 122 137 137 139 124 124 126 112 112 114 142 142 144 141 141 143 129 129 131 139 139 141 120 120 122 141 141 143 110 110 112 122 122 124 139 139 141 119 119 121 133 133 135 147 147 149 137 137 139 107 107 109 138 138 140 148 148 150 136 136 138 137 137 139 126 126 128 136 136 138 112 112 114 145 145 147 114 114 116 130 130 132 121 121 123 132 132 134 133 133 135 121 121 123 144 144 146 143 143 145 126 126 128 137 137 139 132 132 134 144 144 146 137 137 139 135 135 137 130 130 132 121 121 123 145 145 147 131 131 133 148 148 150 113 113 115 123 123 125 135 135 137 116 116 118 134 134 136 132 132 134 134 134 136 122 122 124 112 112 114 128 128 130 130 130 132 119 119 121 116 116 118 128 128 130 123 123 125 138 138 140 143 143 145 140 140 142 110 110 112 123 123 125 117 117 119 137 137 139 143 143 145 136 136 138 126 126 128 120 120 122 122 122 124 117 117 119 115 115 117 136 136 138 133 133 135 130 130 132 137 137 139 128 128 130 135 135 137 120 120 122 130 130 132 117 117 119 133 133 135 115 115 117 116 116 118 117 117 119 118 118 120 130 130 132 125 125 127 131 131 133 139 139 141 120 120 122 130 130 132 125 125 127 139 139 141 124 124 126 127 127 129 120 120 122 135 135 137 147 147 149 137 137 139 118 118 120 135 135 137 115 115 117 144 144 146 148 148 150 122 122 124 136 136 138 133 133 135 130 130 132 125 125 127 127 127 129 139 139 141 115 115 117 138 138 140 138 138 140 129 129 131 125 125 127 139 139 141 121 121 123 118 118 120 133 133 135 144 144 146 127 127 129 132 132 134 123 123 125 127 127 129 118 118 120 120 120 122 124 124 126 142 142 144 129 129 131 116 116 118 120 120 122 133 133 135 134 134 136 121 121 123 124 124 126 131 131 133 134 134 136 129 129 131 116 116 118 133 133 135 134 134 136 127 127 129 134 134 136 123 123 125 137 137 139 134 134 136 125 125 127 118 118 120 130 130 132 126 126 128 128 128 130 126 126 128 120 120 122 136 136 138 135 135 137 119 119 121 145 145 147 136 136 138 116 116 118 122 122 124 109 109 111 119 119 121 120 120 122 122 122 124 132 132 134 122 122 124 124 124 126 118 118 120 129 129 131 143 143 145 128 128 130 131 131 133 129 129 131 139 139 141 113 113 115 140 140 142 138 138 140 123 123 125 136 136 138 131 131 133 126 126 128 128 128 130 144 144 146 133 133 135 124 124 126 139 139 141 137 137 139 128 128 130 136 136 138 121 121 123 141 141 143 116 116 118 116 116 118 118 118 120 141 141 143 125 125 127 124 124 126 133 133 135 139 139 141 112 112 114 113 113 115 121 121 123 143 143 145 124 124 126 138 138 140 125 125 127 132 132 134 119 119 121 128 128 130 142 142 144 133 133 135 136 136 138 132 132 134 117 117 119 120 120 122 136 136 138 126 126 128 134 134 136 141 141 143 129 129 131 144 144 146 129 129 131 119 119 121 127 127 129 140 140 142 129 129 131 119 119 121 124 124 126 122 122 124 143 143 145 114 114 116 121 121 123 135 135 137 138 138 140 138 138 140 133 133 135 134 134 136 128 128 130 117 117 119 122 122 124 137 137 139 128 128 130 128 128 130 131 131 133 110 110 112 112 112 114 132 132 134 144 144 146 
126 126 128 123 123 125 140 140 142 141 141 143 112 112 114 132 132 134 107 107 109 118 118 120 139 139 141 121 121 123 128 128 130 119 119 121 140 140 142 123 123 125 136 136 138 123 123 125 124 124 126 132 132 134 131 131 133 143 143 145 120 120 122 139 139 141 126 126 128 133 133 135 133 133 135 131 131 133 134 134 136 114 114 116 133 133 135 117 117 119 111 111 113 144 144 146 120 120 122 124 124 126 132 132 134 138 138 140 126 126 128 135 135 137 134 134 136 116 116 118 137 137 139 120 120 122 110 110 112 116 116 118 142 142 144 133 133 135 123 123 125 140 140 142 124 124 126 135 135 137 136 136 138 126 126 128 114 114 116 135 135 137 113 113 115 122 122 124 124 124 126 123 123 125 117 117 119 126 126 128 127 127 129 119 119 121 130 130 132 139 139 141 118 118 120 129 129 131 140 140 142 125 125 127 118 118 120 128 128 130 129 129 131 115 115 117 124 124 126 122 122 124 130 130 132 126 126 128 147 147 149 139 139 141 128 128 130 134 134 136 117 117 119 139 139 141 120 120 122 125 125 127 123 123 125 124 124 126 134 134 136 118 118 120 119 119 121 116 116 118 130 130 132 122 122 124 131 131 133 132 132 134 132 132 134 132 132 134 115 115 117 113 113 115 126 126 128 142 142 144 115 115 117 119 119 121 130 130 132 130 130 132 130 130 132 148 148 150 136 136 138 117 117 119 124 124 126 144 144 146 119 119 121 115 115 117 131 131 133 126 126 128 127 127 129 120 120 122 120 120 122 135 135 137 128 128 130 143 143 145 143 143 145 117 117 119 137 137 139 119 119 121 127 127 129 136 136 138 128 128 130 133 133 135 113 113 115 141 141 143 128 128 130 113 113 115 119 119 121 109 109 111 136 136 138 137 137 139 124 124 126 127 127 129 137 137 139 135 135 137 125 125 127 125 125 127 121 121 123 117 117 119 121 121 123 132 132 134 134 134 136 137 137 139 121 121 123 148 148 150 123 123 125 122 122 124 137 137 139 126 126 128 119 119 121 124 124 126 129 129 131 112 112 114 115 115 117 128 128 130 121 121 123 122 122 124 147 147 149 144 144 146 142 142 144 123 123 125 129 129 131 143 143 145 141 141 143 128 128 130 122 122 124 123 123 125 122 122 124 117 117 119 141 141 143 111 111 113 119 119 121 135 135 137 142 142 144 133 133 135 124 124 126 131 131 133 120 120 122 138 138 140 127 127 129 136 136 138 121 121 123 137 137 139 123 123 125 138 138 140 118 118 120 118 118 120 129 129 131 122 122 124 144 144 146 118 118 120 131 131 133 123 123 125 117 117 119 123 123 125 134 134 136 140 140 142 122 122 124 123 123 125 128 128 130 122 122 124 138 138 140 110 110 112 131 131 133 131 131 133 138 138 140 115 115 117 117 117 119 125 125 127 109 109 111 117 117 119 118 118 120 129 129 131 132 132 134 136 136 138 126 126 128 133 133 135 142 142 144 134 134 136 119 119 121 111 111 113 132 132 134 141 141 143 126 126 128 132 132 134 138 138 140 137 137 139 131 131 133 122 122 124 120 120 122 118 118 120 141 141 143 135 135 137 127 127 129 137 137 139 114 114 116 124 124 126 124 124 126 132 132 134 124 124 126 108 108 110 134 134 136 116 116 118 132 132 134 119 119 121 119 119 121 132 132 134 134 134 136 117 117 119 119 119 121 115 115 117 
132 132 134 140 140 142 148 148 150 134 134 136 124 124 126 139 139 141 136 136 138 138 138 140 142 142 144 121 121 123 145 145 147 132 132 134 109 109 111 124 124 126 132 132 134 138 138 140 117 117 119 146 146 148 127 127 129 107 107 109 130 130 132 139 139 141 131 131 133 141 141 143 116 116 118 123 123 125 123 123 125 119 119 121 120 120 122 147 147 149 132 132 134 126 126 128 139 139 141 135 135 137 115 115 117 136 136 138 137 137 139 112 112 114 129 129 131 116 116 118 131 131 133 138 138 140 136 136 138 112 112 114 131 131 133 116 116 118 143 143 145 147 147 149 132 132 134 118 118 120 132 132 134 134 134 136 136 136 138 133 133 135 128 128 130 128 128 130 119 119 121 132 132 134 134 134 136 136 136 138 132 132 134 136 136 138 132 132 134 133 133 135 122 122 124 118 118 120 121 121 123 122 122 124 128 128 130 119 119 121 138 138 140 128 128 130 116 116 118 137 137 139 139 139 141 121 121 123 112 112 114 126 126 128 138 138 140 140 140 142 138 138 140 108 108 110 120 120 122 129 129 131 131 131 133 143 143 145 138 138 140 130 130 132 115 115 117 124 124 126 132 132 134 128 128 130 133 133 135 124 124 126 145 145 147 109 109 111 125 125 127 145 145 147 135 135 137 132 132 134 116 116 118 131 131 133 120 120 122 117 117 119 126 126 128 108 108 110 125 125 127 123 123 125 141 141 143 116 116 118 136 136 138 122 122 124 125 125 127 127 127 129 107 107 109 126 126 128 121 121 123 124 124 126 141 141 143 122 122 124 125 125 127 136 136 138 130 130 132 129 129 131 133 133 135 130 130 132 129 129 131 119 119 121 143 143 145 117 117 119 128 128 130 130 130 132 139 139 141 134 134 136 127 127 129 142 142 144 122 122 124 124 124 126 116 116 118 144 144 146 146 146 148 134 134 136 124 124 126 114 114 116 136 136 138 119 119 121 127 127 129 114 114 116 119 119 121 143 143 145 119 119 121 114 114 116 139 139 141 135 135 137 124 124 126 119 119 121 110 110 112 127 127 129 119 119 121 130 130 132 139 139 141 144 144 146 115 115 117 147 147 149 114 114 116 128 128 130 107 107 109 118 118 120 146 146 148 121 121 123 134 134 136 134 134 136 129 129 131 140 140 142 134 134 136 114 114 116 128 128 130 129 129 131 126 126 128 116 116 118 125 125 127 120 120 122 123 123 125 136 136 138 113 113 115 119 119 121 133 133 135 132 132 134 120 120 122 147 147 149 143 143 145 132 132 134 129 129 131 141 141 143 129 129 131 135 135 137 127 127 129 138 138 140 117 117 119 123 123 125 126 126 128 130 130 132 141 141 143 132 132 134 114 114 116 123 123 125 120 120 122 116 116 118 114 114 116 127 127 129 135 135 137 119 119 121 119 119 121 135 135 137 127 127 129 137 137 139 133 133 135 140 140 142 139 139 141 148 148 150 124 124 126 140 140 142 138 138 140 125 125 127 118 118 120 126 126 128 137 137 139 141 141 143 112 112 114 135 135 137 122 122 124 125 125 127 129 129 131 142 142 144 146 146 148 116 116 118 120 120 122 114 114 116 141 141 143 113 113 115 125 125 127 135 135 137 126 126 128 119 119 121 145 145 147 123 123 125 135 135 137 125 125 127 143 143 145 137 137 139 135 135 137 129 129 131 116 116 118 147 147 149 122 122 124 133 133 135 
140 140 142 132 132 134 119 119 121 124 124 126 128 128 130 123 123 125 110 110 112 139 139 141 119 119 121 116 116 118 142 142 144 119 119 121 142 142 144 138 138 140 140 140 142 124 124 126 133 133 135 117 117 119 115 115 117 131 131 133 112 112 114 118 118 120 138 138 140 129 129 131 114 114 116 135 135 137 118 118 120 127 127 129 119 119 121 134 134 136 135 135 137 131 131 133 118 118 120 136 136 138 128 128 130 139 139 141 146 146 148 110 110 112 120 120 122 145 145 147 135 135 137 120 120 122 137 137 139 141 141 143 141 141 143 120 120 122 139 139 141 112 112 114 144 144 146 125 125 127 138 138 140 144 144 146 114 114 116 131 131 133 126 126 128 122 122 124 135 135 137 129 129 131 135 135 137 120 120 122 147 147 149 117 117 119 115 115 117 110 110 112 110 110 112 127 127 129 121 121 123 128 128 130 132 132 134 127 127 129 141 141 143 117 117 119 130 130 132 126 126 128 118 118 120 134 134 136 141 141 143 125 125 127 119 119 121 124 124 126 140 140 142 135 135 137 122 122 124 126 126 128 130 130 132 114 114 116 123 123 125 124 124 126 137 137 139 125 125 127 138 138 140 108 108 110 138 138 140 138 138 140 115 115 117 146 146 148 135 135 137 133 133 135 131 131 133 128 128 130 124 124 126 122 122 124 146 146 148 140 140 142 135 135 137 119 119 121 140 140 142 125 125 127 122 122 124 135 135 137 118 118 120 138 138 140 132 132 134 119 119 121 113 113 115 131 131 133 128 128 130 125 125 127 134 134 136 118 118 120 131 131 133 108 108 110 119 119 121 125 125 127 138 138 140 128 128 130 135 135 137 130 130 132 135 135 137 132 132 134 134 134 136 131 131 133 135 135 137 125 125 127 130 130 132 116 116 118 120 120 122 138 138 140 130 130 132 135 135 137 129 129 131 120 120 122 141 141 143 120 120 122 137 137 139 116 116 118 111 111 113 139 139 141 133 133 135 127 127 129 117 117 119 129 129 131 123 123 125 143 143 145 121 121 123 133 133 135 138 138 140 128 128 130 146 146 148 125 125 127 133 133 135 146 146 148 117 117 119 129 129 131 137 137 139 122 122 124 123 123 125 113 113 115 114 114 116 131 131 133 126 126 128 118 118 120 108 108 110 121 121 123 127 127 129 131 131 133 128 128 130 124 124 126 116 116 118 119 119 121 126 126 128 132 132 134 141 141 143 125 125 127 119 119 121 114 114 116 119 119 121 132 132 134 127 127 129 128 128 130 123 123 125 118 118 120 128 128 130 133 133 135 119 119 121 120 120 122 128 128 130 114 114 116 127 127 129 139 139 141 124 124 126 132 132 134 121 121 123 115 115 117 133 133 135 123 123 125 111 111 113 110 110 112 145 145 147 134 134 136 111 111 113 118 118 120 118 118 120 120 120 122 128 128 130 117 117 119 117 117 119 131 131 133 130 130 132 133 133 135 126 126 128 136 136 138 124 124 126 133 133 135 116 116 118 125 125 127 130 130 132 122 122 124 142 142 144 133 133 135 111 111 113 129 129 131 115 115 117 122 122 124 144 144 146 118 118 120 135 135 137 132 132 134 128 128 130 133 133 135 120 120 122 112 112 114 140 140 142 148 148 150 113 113 115 119 119 121 122 122 124 139 139 141 141 141 143 134 134 136 128 128 130 134 134 136 118 118 120 120 120 122 142 142 144 125 125 127 
146 146 148 116 116 118 125 125 127 123 123 125 125 125 127 140 140 142 121 121 123 114 114 116 128 128 130 141 141 143 124 124 126 118 118 120 142 142 144 138 138 140 122 122 124 140 140 142 129 129 131 123 123 125 122 122 124 135 135 137 141 141 143 148 148 150 115 115 117 137 137 139 110 110 112 137 137 139 115 115 117 131 131 133 138 138 140 139 139 141 130 130 132 137 137 139 143 143 145 135 135 137 108 108 110 136 136 138 121 121 123 119 119 121 136 136 138 131 131 133 130 130 132 138 138 140 118 118 120 136 136 138 139 139 141 122 122 124 122 122 124 122 122 124 146 146 148 116 116 118 121 121 123 127 127 129 130 130 132 131 131 133 131 131 133 130 130 132 132 132 134 122 122 124 124 124 126 113 113 115 134 134 136 114 114 116 108 108 110 125 125 127 132 132 134 139 139 141 108 108 110 130 130 132 137 137 139 120 120 122 127 127 129 141 141 143 127 127 129 135 135 137 135 135 137 123 123 125 139 139 141 124 124 126 133 133 135 128 128 130 139 139 141 111 111 113 144 144 146 141 141 143 147 147 149 131 131 133 131 131 133 118 118 120 130 130 132 119 119 121 139 139 141 136 136 138 135 135 137 119 119 121 124 124 126 131 131 133 135 135 137 120 120 122 118 118 120 128 128 130 141 141 143 142 142 144 131 131 133 144 144 146 122 122 124 118 118 120 118 118 120 115 115 117 122 122 124 144 144 146 131 131 133 134 134 136 118 118 120 119 119 121 132 132 134 133 133 135 119 119 121 124 124 126 116 116 118 141 141 143 119 119 121 128 128 130 121 121 123 124 124 126 127 127 129 145 145 147 135 135 137 129 129 131 130 130 132 131 131 133 113 113 115 125 125 127 129 129 131 131 131 133 139 139 141 137 137 139 131 131 133 141 141 143 118 118 120 121 121 123 126 126 128 134 134 136 117 117 119 124 124 126 135 135 137 118 118 120 117 117 119 122 122 124 129 129 131 135 135 137 115 115 117 128 128 130 145 145 147 131 131 133 147 147 149 121 121 123 118 118 120 119 119 121 114 114 116 136 136 138 120 120 122 112 112 114 127 127 129 116 116 118 128 128 130 117 117 119 138 138 140 126 126 128 128 128 130 136 136 138 131 131 133 140 140 142 119 119 121 118 118 120 139 139 141 140 140 142 143 143 145 122 122 124 122 122 124 127 127 129 113 113 115 127 127 129 114 114 116 121 121 123 126 126 128 135 135 137 121 121 123 143 143 145 128 128 130 130 130 132 115 115 117 140 140 142 130 130 132 130 130 132 118 118 120 133 133 135 140 140 142 130 130 132 126 126 128 117 117 119 137 137 139 129 129 131 125 125 127 114 114 116 134 134 136 117 117 119 130 130 132 131 131 133 133 133 135 133 133 135 140 140 142 142 142 144 115 115 117 118 118 120 145 145 147 125 125 127 134 134 136 134 134 136 139 139 141 114 114 116 143 143 145 127 127 129 137 137 139 115 115 117 126 126 128 117 117 119 128 128 130 138 138 140 136 136 138 126 126 128 120 120 122 135 135 137 122 122 124 139 139 141 129 129 131 136 136 138 115 115 117 141 141 143 109 109 111 129 129 131 141 141 143 129 129 131 143 143 145 132 132 134 122 122 124 119 119 121 122 122 124 116 116 118 129 129 131 128 128 130 132 132 134 118 118 120 134 134 136 118 118 120 138 138 140 126 126 128 
113 113 115 110 110 112 142 142 144 115 115 117 136 136 138 131 131 133 117 117 119 128 128 130 138 138 140 123 123 125 135 135 137 112 112 114 131 131 133 118 118 120 140 140 142 133 133 135 133 133 135 143 143 145 134 134 136 117 117 119 130 130 132 111 111 113 137 137 139 133 133 135 127 127 129 114 114 116 138 138 140 135 135 137 126 126 128 117 117 119 134 134 136 118 118 120 125 125 127 128 128 130 138 138 140 139 139 141 127 127 129 121 121 123 118 118 120 114 114 116 117 117 119 117 117 119 126 126 128 117 117 119 119 119 121 138 138 140 116 116 118 130 130 132 132 132 134 127 127 129 145 145 147 132 132 134 137 137 139 118 118 120 143 143 145 118 118 120 129 129 131 130 130 132 114 114 116 133 133 135 139 139 141 139 139 141 129 129 131 128 128 130 135 135 137 132 132 134 118 118 120 122 122 124 124 124 126 126 126 128 144 144 146 118 118 120 124 124 126 145 145 147 136 136 138 137 137 139 136 136 138 127 127 129 122 122 124 135 135 137 140 140 142 129 129 131 124 124 126 145 145 147 139 139 141 116 116 118 149 149 151 133 133 135 139 139 141 125 125 127 135 135 137 136 136 138 109 109 111 133 133 135 142 142 144 139 139 141 120 120 122 117 117 119 125 125 127 124 124 126 136 136 138 116 116 118 130 130 132 126 126 128 116 116 118 112 112 114 144 144 146 139 139 141 129 129 131 116 116 118 110 110 112 117 117 119 125 125 127 128 128 130 132 132 134 131 131 133 131 131 133 132 132 134 130 130 132 126 126 128 114 114 116 122 122 124 140 140 142 130 130 132 115 115 117 123 123 125 124 124 126 142 142 144 136 136 138 139 139 141 118 118 120 112 112 114 135 135 137 145 145 147 113 113 115 133 133 135 125 125 127 111 111 113 131 131 133 118 118 120 117 117 119 136 136 138 118 118 120 144 144 146 109 109 111 135 135 137 145 145 147 147 147 149 117 117 119 119 119 121 111 111 113 117 117 119 116 116 118 133 133 135 118 118 120 121 121 123 128 128 130 113 113 115 116 116 118 128 128 130 133 133 135 145 145 147 121 121 123 123 123 125 144 144 146 142 142 144 133 133 135 119 119 121 136 136 138 135 135 137 127 127 129 126 126 128 139 139 141 136 136 138 136 136 138 120 120 122 145 145 147 131 131 133 134 134 136 144 144 146 129 129 131 129 129 131 132 132 134 111 111 113 120 120 122 115 115 117 130 130 132 116 116 118 138 138 140 119 119 121 128 128 130 112 112 114 146 146 148 116 116 118 133 133 135 131 131 133 135 135 137 114 114 116 123 123 125 126 126 128 137 137 139 130 130 132 123 123 125 119 119 121 131 131 133 114 114 116 128 128 130 115 115 117 142 142 144 124 124 126 140 140 142 124 124 126 114 114 116 143 143 145 129 129 131 139 139 141 124 124 126 132 132 134 126 126 128 141 141 143 146 146 148 126 126 128 114 114 116 134 134 136 136 136 138 119 119 121 112 112 114 122 122 124 131 131 133 132 132 134 118 118 120 140 140 142 126 126 128 121 121 123 122 122 124 131 131 133 122 122 124 129 129 131 134 134 136 132 132 134 121 121 123 120 120 122 132 132 134 136 136 138 141 141 143 114 114 116 114 114 116 118 118 120 122 122 124 137 137 139 136 136 138 144 144 146 120 120 122 122 122 124 132 132 134 145 145 147 
133 133 135 127 127 129 126 126 128 126 126 128 127 127 129 143 143 145 114 114 116 129 129 131 124 124 126 142 142 144 134 134 136 128 128 130 137 137 139 128 128 130 129 129 131 129 129 131 117 117 119 127 127 129 131 131 133 129 129 131 122 122 124 125 125 127 119 119 121 122 122 124 117 117 119 132 132 134 138 138 140 143 143 145 118 118 120 136 136 138 126 126 128 127 127 129 137 137 139 123 123 125 136 136 138 147 147 149 142 142 144 126 126 128 121 121 123 143 143 145 132 132 134 144 144 146 124 124 126 126 126 128 119 119 121 144 144 146 137 137 139 133 133 135 120 120 122 127 127 129 109 109 111 122 122 124 139 139 141 122 122 124 114 114 116 141 141 143 138 138 140 110 110 112 137 137 139 117 117 119 133 133 135 145 145 147 117 117 119 125 125 127 128 128 130 129 129 131 138 138 140 114 114 116 129 129 131 120 120 122 144 144 146 120 120 122 119 119 121 130 130 132 144 144 146 118 118 120 115 115 117 130 130 132 119 119 121 135 135 137 145 145 147 131 131 133 140 140 142 126 126 128 136 136 138 140 140 142 134 134 136 146 146 148 124 124 126 114 114 116 116 116 118 126 126 128 123 123 125 123 123 125 120 120 122 129 129 131 129 129 131 112 112 114 129 129 131 144 144 146 128 128 130 128 128 130 141 141 143 121 121 123 118 118 120 113 113 115 113 113 115 134 134 136 136 136 138 138 138 140 119 119 121 120 120 122 126 126 128 144 144 146 125 125 127 118 118 120 117 117 119 122 122 124 119 119 121 147 147 149 132 132 134 115 115 117 122 122 124 120 120 122 122 122 124 146 146 148 121 121 123 120 120 122 124 124 126 122 122 124 123 123 125 115 115 117 132 132 134 120 120 122 125 125 127 133 133 135 121 121 123 136 136 138 140 140 142 121 121 123 116 116 118 110 110 112 116 116 118 113 113 115 113 113 115 111 111 113 120 120 122 139 139 141 126 126 128 134 134 136 132 132 134 121 121 123 142 142 144 111 111 113 132 132 134 121 121 123 127 127 129 126 126 128 123 123 125 139 139 141 131 131 133 122 122 124 124 124 126 112 112 114 137 137 139 110 110 112 143 143 145 142 142 144 121 121 123 142 142 144 118 118 120 116 116 118 115 115 117 137 137 139 126 126 128 125 125 127 135 135 137 126 126 128 126 126 128 140 140 142 123 123 125 119 119 121 135 135 137 142 142 144 138 138 140 117 117 119 129 129 131 113 113 115 130 130 132 114 114 116 132 132 134 124 124 126 130 130 132 138 138 140 143 143 145 141 141 143 144 144 146 114 114 116 118 118 120 122 122 124 114 114 116 141 141 143 130 130 132 131 131 133 136 136 138 131 131 133 136 136 138 138 138 140 122 122 124 132 132 134 133 133 135 132 132 134 131 131 133 117 117 119 145 145 147 114 114 116 133 133 135 148 148 150 136 136 138 142 142 144 142 142 144 124 124 126 123 123 125 132 132 134 137 137 139 121 121 123 139 139 141 122 122 124 128 128 130 121 121 123 129 129 131 120 120 122 130 130 132 128 128 130 124 124 126 117 117 119 115 115 117 119 119 121 127 127 129 128 128 130 122 122 124 111 111 113 124 124 126 123 123 125 121 121 123 125 125 127 119 119 121 132 132 134 133 133 135 132 132 134 120 120 122 118 118 120 128 128 130 137 137 139 137 137 139 133 133 135 
126 126 128 140 140 142 143 143 145 134 134 136 135 135 137 118 118 120 123 123 125 117 117 119 146 146 148 132 132 134 142 142 144 143 143 145 127 127 129 115 115 117 128 128 130 118 118 120 113 113 115 136 136 138 135 135 137 130 130 132 122 122 124 141 141 143 119 119 121 127 127 129 141 141 143 120 120 122 140 140 142 113 113 115 137 137 139 129 129 131 133 133 135 116 116 118 123 123 125 139 139 141 139 139 141 123 123 125 132 132 134 139 139 141 118 118 120 126 126 128 128 128 130 137 137 139 123 123 125 143 143 145 136 136 138 127 127 129 140 140 142 136 136 138 136 136 138 135 135 137 127 127 129 114 114 116 123 123 125 130 130 132 125 125 127 138 138 140 114 114 116 126 126 128 121 121 123 114 114 116 126 126 128 141 141 143 120 120 122 144 144 146 141 141 143 131 131 133 115 115 117 144 144 146 122 122 124 133 133 135 129 129 131 142 142 144 126 126 128 144 144 146 123 123 125 137 137 139 129 129 131 146 146 148 146 146 148 127 127 129 117 117 119 137 137 139 123 123 125 135 135 137 130 130 132 127 127 129 131 131 133 135 135 137 131 131 133 142 142 144 119 119 121 143 143 145 131 131 133 139 139 141 129 129 131 138 138 140 139 139 141 123 123 125 116 116 118 115 115 117 125 125 127 143 143 145 127 127 129 120 120 122 137 137 139 139 139 141 118 118 120 140 140 142 119 119 121 144 144 146 143 143 145 123 123 125 130 130 132 135 135 137 140 140 142 121 121 123 126 126 128 127 127 129 120 120 122 119 119 121 122 122 124 141 141 143 136 136 138 119 119 121 119 119 121 140 140 142 129 129 131 127 127 129 122 122 124 118 118 120 144 144 146 136 136 138 132 132 134 128 128 130 126 126 128 108 108 110 132 132 134 118 118 120 139 139 141 128 128 130 120 120 122 133 133 135 126 126 128 123 123 125 142 142 144 108 108 110 137 137 139 133 133 135 148 148 150 125 125 127 118 118 120 143 143 145 137 137 139 120 120 122 112 112 114 141 141 143 124 124 126 123 123 125 118 118 120 122 122 124 130 130 132 122 122 124 123 123 125 115 115 117 128 128 130 130 130 132 112 112 114 123 123 125 144 144 146 146 146 148 140 140 142 138 138 140 135 135 137 138 138 140 133 133 135 115 115 117 141 141 143 142 142 144 142 142 144 122 122 124 143 143 145 145 145 147 140 140 142 130 130 132 125 125 127 140 140 142 141 141 143 127 127 129 135 135 137 140 140 142 132 132 134 141 141 143 127 127 129 116 116 118 136 136 138 135 135 137 113 113 115 146 146 148 143 143 145 139 139 141 144 144 146 138 138 140 128 128 130 127 127 129 111 111 113 121 121 123 143 143 145 146 146 148 140 140 142 124 124 126 130 130 132 117 117 119 141 141 143 132 132 134 144 144 146 117 117 119 130 130 132 117 117 119 134 134 136 139 139 141 120 120 122 116 116 118 137 137 139 133 133 135 137 137 139 126 126 128 135 135 137 132 132 134 137 137 139 136 136 138 118 118 120 133 133 135 114 114 116 122 122 124 131 131 133 140 140 142 124 124 126 142 142 144 140 140 142 113 113 115 136 136 138 123 123 125 124 124 126 137 137 139 140 140 142 131 131 133 116 116 118 109 109 111 120 120 122 128 128 130 129 129 131 122 122 124 122 122 124 142 142 144 128 128 130 145 145 147 
124 124 126 124 124 126 140 140 142 140 140 142 144 144 146 124 124 126 126 126 128 147 147 149 124 124 126 119 119 121 113 113 115 131 131 133 117 117 119 122 122 124 126 126 128 113 113 115 139 139 141 124 124 126 147 147 149 132 132 134 127 127 129 131 131 133 130 130 132 134 134 136 127 127 129 117 117 119 121 121 123 145 145 147 138 138 140 119 119 121 121 121 123 137 137 139 117 117 119 134 134 136 116 116 118 131 131 133 109 109 111 126 126 128 140 140 142 125 125 127 137 137 139 120 120 122 128 128 130 122 122 124 118 118 120 133 133 135 141 141 143 117 117 119 123 123 125 122 122 124 108 108 110 144 144 146 123 123 125 140 140 142 128 128 130 132 132 134 124 124 126 118 118 120 113 113 115 126 126 128 133 133 135 123 123 125 129 129 131 138 138 140 130 130 132 130 130 132 141 141 143 109 109 111 140 140 142 113 113 115 119 119 121 120 120 122 117 117 119 142 142 144 114 114 116 128 128 130 122 122 124 126 126 128 127 127 129 126 126 128 138 138 140 107 107 109 117 117 119 140 140 142 118 118 120 132 132 134 109 109 111 140 140 142 146 146 148 110 110 112 129 129 131 128 128 130 138 138 140 122 122 124 145 145 147 134 134 136 135 135 137 128 128 130 139 139 141 125 125 127 111 111 113 112 112 114 141 141 143 140 140 142 147 147 149 134 134 136 130 130 132 139 139 141 118 118 120 135 135 137 138 138 140 138 138 140 130 130 132 137 137 139 131 131 133 120 120 122 118 118 120 135 135 137 121 121 123 130 130 132 121 121 123 115 115 117 127 127 129 140 140 142 122 122 124 129 129 131 117 117 119 118 118 120 135 135 137 123 123 125 121 121 123 132 132 134 129 129 131 134 134 136 136 136 138 139 139 141 139 139 141 124 124 126 116 116 118 119 119 121 121 121 123 127 127 129 121 121 123 127 127 129 122 122 124 121 121 123 125 125 127 119 119 121 117 117 119 139 139 141 142 142 144 127 127 129 144 144 146 145 145 147 126 126 128 123 123 125 117 117 119 141 141 143 123 123 125 131 131 133 132 132 134 123 123 125 133 133 135 144 144 146 118 118 120 122 122 124 139 139 141 144 144 146 113 113 115 141 141 143 134 134 136 114 114 116 141 141 143 140 140 142 141 141 143 136 136 138 145 145 147 120 120 122 126 126 128 137 137 139 140 140 142 130 130 132 129 129 131 122 122 124 129 129 131 114 114 116 132 132 134 140 140 142 128 128 130 119 119 121 127 127 129 132 132 134 130 130 132 124 124 126 136 136 138 116 116 118 130 130 132 124 124 126 117 117 119 130 130 132 119 119 121 130 130 132 138 138 140 123 123 125 128 128 130 123 123 125 129 129 131 134 134 136 128 128 130 110 110 112 118 118 120 139 139 141 143 143 145 124 124 126 126 126 128 128 128 130 131 131 133 137 137 139 124 124 126 133 133 135 119 119 121 127 127 129 139 139 141 136 136 138 121 121 123 130 130 132 130 130 132 136 136 138 138 138 140 129 129 131 120 120 122 111 111 113 140 140 142 140 140 142 130 130 132 130 130 132 138 138 140 115 115 117 124 124 126 120 120 122 138 138 140 139 139 141 134 134 136 108 108 110 127 127 129 119 119 121 127 127 129 119 119 121 111 111 113 140 140 142 134 134 136 133 133 135 143 143 145 136 136 138 121 121 123 115 115 117 
124 124 126 119 119 121 133 133 135 122 122 124 136 136 138 117 117 119 118 118 120 136 136 138 147 147 149 114 114 116 134 134 136 138 138 140 139 139 141 142 142 144 142 142 144 120 120 122 140 140 142 119 119 121 126 126 128 116 116 118 131 131 133 124 124 126 127 127 129 139 139 141 136 136 138 118 118 120 116 116 118 140 140 142 122 122 124 121 121 123 126 126 128 139 139 141 113 113 115 132 132 134 139 139 141 125 125 127 129 129 131 126 126 128 134 134 136 118 118 120 120 120 122 144 144 146 117 117 119 137 137 139 133 133 135 126 126 128 110 110 112 141 141 143 139 139 141 130 130 132 132 132 134 127 127 129 118 118 120 128 128 130 124 124 126 145 145 147 132 132 134 135 135 137 147 147 149 118 118 120 125 125 127 134 134 136 124 124 126 133 133 135 108 108 110 120 120 122 134 134 136 117 117 119 123 123 125 121 121 123 120 120 122 130 130 132 145 145 147 123 123 125 127 127 129 125 125 127 117 117 119 132 132 134 114 114 116 139 139 141 129 129 131 116 116 118 129 129 131 116 116 118 113 113 115 118 118 120 126 126 128 121 121 123 127 127 129 123 123 125 133 133 135 133 133 135 127 127 129 124 124 126 123 123 125 137 137 139 118 118 120 130 130 132 134 134 136 132 132 134 118 118 120 123 123 125 127 127 129 122 122 124 148 148 150 120 120 122 133 133 135 140 140 142 117 117 119 119 119 121 136 136 138 114 114 116 138 138 140 121 121 123 134 134 136 133 133 135 136 136 138 147 147 149 125 125 127 124 124 126 114 114 116 132 132 134 114 114 116 118 118 120 139 139 141 131 131 133 114 114 116 136 136 138 138 138 140 112 112 114 123 123 125 133 133 135 118 118 120 114 114 116 121 121 123 137 137 139 124 124 126 131 131 133 122 122 124 127 127 129 115 115 117 133 133 135 137 137 139 145 145 147 141 141 143 139 139 141 113 113 115 114 114 116 121 121 123 122 122 124 130 130 132 124 124 126 138 138 140 120 120 122 125 125 127 117 117 119 132 132 134 143 143 145 135 135 137 137 137 139 145 145 147 146 146 148 128 128 130 107 107 109 130 130 132 121 121 123 133 133 135 134 134 136 123 123 125 122 122 124 140 140 142 126 126 128 127 127 129 139 139 141 123 123 125 125 125 127 143 143 145 139 139 141 130 130 132 111 111 113 125 125 127 137 137 139 133 133 135 119 119 121 122 122 124 143 143 145 137 137 139 134 134 136 121 121 123 128 128 130 128 128 130 126 126 128 118 118 120 114 114 116 121 121 123 134 134 136 137 137 139 118 118 120 119 119 121 134 134 136 133 133 135 147 147 149 126 126 128 133 133 135 108 108 110 120 120 122 138 138 140 133 133 135 117 117 119 132 132 134 111 111 113 126 126 128 113 113 115 115 115 117 119 119 121 121 121 123 117 117 119 135 135 137 137 137 139 115 115 117 123 123 125 137 137 139 141 141 143 136 136 138 137 137 139 116 116 118 115 115 117 134 134 136 112 112 114 127 127 129 135 135 137 141 141 143 120 120 122 116 116 118 113 113 115 122 122 124 134 134 136 139 139 141 133 133 135 132 132 134 133 133 135 133 133 135 118 118 120 123 123 125 123 123 125 148 148 150 122 122 124 133 133 135 127 127 129 111 111 113 133 133 135 131 131 133 126 126 128 130 130 132 127 127 129 121 121 123 
128 128 130 135 135 137 127 127 129 135 135 137 128 128 130 131 131 133 132 132 134 109 109 111 121 121 123 115 115 117 115 115 117 123 123 125 112 112 114 129 129 131 132 132 134 124 124 126 134 134 136 131 131 133 134 134 136 127 127 129 110 110 112 137 137 139 118 118 120 125 125 127 127 127 129 127 127 129 120 120 122 122 122 124 141 141 143 128 128 130 140 140 142 118 118 120 146 146 148 113 113 115 139 139 141 135 135 137 118 118 120 122 122 124 122 122 124 134 134 136 138 138 140 134 134 136 127 127 129 131 131 133 144 144 146 141 141 143 116 116 118 132 132 134 138 138 140 128 128 130 130 130 132 147 147 149 131 131 133 118 118 120 121 121 123 117 117 119 147 147 149 119 119 121 117 117 119 112 112 114 124 124 126 112 112 114 143 143 145 137 137 139 116 116 118 112 112 114 116 116 118 132 132 134 115 115 117 120 120 122 126 126 128 113 113 115 145 145 147 141 141 143 135 135 137 133 133 135 129 129 131 132 132 134 114 114 116 116 116 118 121 121 123 115 115 117 118 118 120 132 132 134 116 116 118 136 136 138 137 137 139 144 144 146 148 148 150 140 140 142 121 121 123 128 128 130 114 114 116 124 124 126 144 144 146 131 131 133 135 135 137 123 123 125 132 132 134 133 133 135 119 119 121 121 121 123 142 142 144 127 127 129 124 124 126 117 117 119 141 141 143 139 139 141 115 115 117 146 146 148 135 135 137 125 125 127 129 129 131 141 141 143 113 113 115 127 127 129 137 137 139 114 114 116 125 125 127 138 138 140 114 114 116 117 117 119 118 118 120 137 137 139 114 114 116 130 130 132 140 140 142 127 127 129 136 136 138 120 120 122 131 131 133 135 135 137 125 125 127 126 126 128 118 118 120 122 122 124 129 129 131 130 130 132 132 132 134 128 128 130 133 133 135 123 123 125 127 127 129 144 144 146 114 114 116 131 131 133 119 119 121 131 131 133 125 125 127 128 128 130 124 124 126 125 125 127 140 140 142 140 140 142 122 122 124 117 117 119 122 122 124 139 139 141 122 122 124 134 134 136 120 120 122 112 112 114 124 124 126 139 139 141 135 135 137 131 131 133 121 121 123 144 144 146 129 129 131 114 114 116 122 122 124 141 141 143 114 114 116 126 126 128 132 132 134 141 141 143 131 131 133 120 120 122 131 131 133 115 115 117 116 116 118 136 136 138 136 136 138 114 114 116 124 124 126 130 130 132 123 123 125 127 127 129 144 144 146 149 149 151 126 126 128 128 128 130 117 117 119 134 134 136 148 148 150 131 131 133 135 135 137 128 128 130 139 139 141 127 127 129 130 130 132 133 133 135 134 134 136 130 130 132 139 139 141 133 133 135 146 146 148 124 124 126 139 139 141 142 142 144 142 142 144 127 127 129 131 131 133 135 135 137 136 136 138 120 120 122 119 119 121 140 140 142 145 145 147 135 135 137 124 124 126 138 138 140 144 144 146 135 135 137 130 130 132 132 132 134 136 136 138 122 122 124 121 121 123 143 143 145 144 144 146 125 125 127 146 146 148 115 115 117 114 114 116 138 138 140 112 112 114 122 122 124 128 128 130 112 112 114 142 142 144 133 133 135 123 123 125 126 126 128 121 121 123 127 127 129 112 112 114 140 140 142 146 146 148 125 125 127 129 129 131 120 120 122 121 121 123 137 137 139 143 143 145 133 133 135 
130 130 132 113 113 115 142 142 144 135 135 137 130 130 132 127 127 129 140 140 142 130 130 132 123 123 125 127 127 129 130 130 132 121 121 123 130 130 132 122 122 124 116 116 118 136 136 138 129 129 131 120 120 122 135 135 137 118 118 120 136 136 138 126 126 128 113 113 115 135 135 137 111 111 113 114 114 116 126 126 128 128 128 130 123 123 125 119 119 121 134 134 136 125 125 127 135 135 137 137 137 139 141 141 143 127 127 129 116 116 118 125 125 127 126 126 128 140 140 142 130 130 132 135 135 137 127 127 129 138 138 140 133 133 135 140 140 142 144 144 146 134 134 136 116 116 118 133 133 135 139 139 141 133 133 135 136 136 138 134 134 136 140 140 142 127 127 129 140 140 142 115 115 117 137 137 139 113 113 115 116 116 118 134 134 136 123 123 125 142 142 144 114 114 116 109 109 111 119 119 121 136 136 138 122 122 124 114 114 116 112 112 114 138 138 140 133 133 135 119 119 121 115 115 117 128 128 130 109 109 111 116 116 118 120 120 122 119 119 121 119 119 121 146 146 148 134 134 136 123 123 125 115 115 117 137 137 139 130 130 132 132 132 134 136 136 138 142 142 144 112 112 114 139 139 141 123 123 125 125 125 127 124 124 126 118 118 120 143 143 145 136 136 138 134 134 136 133 133 135 119 119 121 126 126 128 117 117 119 128 128 130 137 137 139 126 126 128 136 136 138 148 148 150 116 116 118 111 111 113 130 130 132 122 122 124 118 118 120 134 134 136 137 137 139 115 115 117 138 138 140 127 127 129 138 138 140 143 143 145 148 148 150 142 142 144 134 134 136 145 145 147 139 139 141 127 127 129 122 122 124 119 119 121 143 143 145 133 133 135 145 145 147 126 126 128 132 132 134 121 121 123 134 134 136 123 123 125 124 124 126 134 134 136 135 135 137 115 115 117 113 113 115 129 129 131 141 141 143 114 114 116 140 140 142 143 143 145 128 128 130 114 114 116 137 137 139 127 127 129 129 129 131 127 127 129 125 125 127 121 121 123 143 143 145 119 119 121 122 122 124 120 120 122 128 128 130 146 146 148 123 123 125 138 138 140 109 109 111 110 110 112 126 126 128 133 133 135 120 120 122 107 107 109 132 132 134 135 135 137 129 129 131 145 145 147 135 135 137 138 138 140 139 139 141 136 136 138 137 137 139 130 130 132 119 119 121 127 127 129 126 126 128 136 136 138 136 136 138 138 138 140 133 133 135 146 146 148 142 142 144 142 142 144 137 137 139 115 115 117 138 138 140 120 120 122 138 138 140 116 116 118 131 131 133 117 117 119 118 118 120 131 131 133 127 127 129 135 135 137 129 129 131 117 117 119 113 113 115 135 135 137 125 125 127 108 108 110 134 134 136 133 133 135 121 121 123 113 113 115 126 126 128 125 125 127 131 131 133 137 137 139 137 137 139 144 144 146 143 143 145 123 123 125 128 128 130 133 133 135 120 120 122 118 118 120 119 119 121 124 124 126 118 118 120 136 136 138 134 134 136 118 118 120 113 113 115 114 114 116 116 116 118 127 127 129 130 130 132 142 142 144 143 143 145 140 140 142 145 145 147 128 128 130 147 147 149 112 112 114 138 138 140 140 140 142 137 137 139 127 127 129 129 129 131 135 135 137 145 145 147 142 142 144 112 112 114 128 128 130 132 132 134 136 136 138 135 135 137 136 136 138 147 147 149 128 128 130 
116 116 118 130 130 132 121 121 123 127 127 129 125 125 127 125 125 127 128 128 130 121 121 123 137 137 139 136 136 138 111 111 113 119 119 121 129 129 131 118 118 120 141 141 143 139 139 141 124 124 126 117 117 119 134 134 136 121 121 123 143 143 145 138 138 140 121 121 123 133 133 135 112 112 114 139 139 141 143 143 145 146 146 148 122 122 124 130 130 132 120 120 122 133 133 135 130 130 132 142 142 144 129 129 131 131 131 133 131 131 133 123 123 125 118 118 120 132 132 134 134 134 136 117 117 119 114 114 116 110 110 112 117 117 119 118 118 120 124 124 126 129 129 131 111 111 113 124 124 126 124 124 126 133 133 135 136 136 138 125 125 127 149 149 151 142 142 144 138 138 140 125 125 127 135 135 137 121 121 123 112 112 114 136 136 138 115 115 117 136 136 138 113 113 115 134 134 136 140 140 142 148 148 150 127 127 129 139 139 141 121 121 123 145 145 147 119 119 121 124 124 126 134 134 136 115 115 117 119 119 121 126 126 128 129 129 131 111 111 113 111 111 113 113 113 115 127 127 129 108 108 110 115 115 117 124 124 126 110 110 112 128 128 130 121 121 123 135 135 137 133 133 135 125 125 127 127 127 129 138 138 140 122 122 124 134 134 136 117 117 119 130 130 132 144 144 146 110 110 112 137 137 139 127 127 129 124 124 126 144 144 146 131 131 133 142 142 144 120 120 122 125 125 127 129 129 131 114 114 116 129 129 131 126 126 128 131 131 133 130 130 132 129 129 131 138 138 140 121 121 123 116 116 118 133 133 135 138 138 140 110 110 112 129 129 131 130 130 132 127 127 129 130 130 132 122 122 124 142 142 144 136 136 138 118 118 120 121 121 123 121 121 123 131 131 133 134 134 136 117 117 119 124 124 126 136 136 138 133 133 135 131 131 133 138 138 140 129 129 131 137 137 139 126 126 128 120 120 122 122 122 124 142 142 144 143 143 145 117 117 119 118 118 120 123 123 125 149 149 151 118 118 120 133 133 135 121 121 123 139 139 141 111 111 113 141 141 143 132 132 134 124 124 126 136 136 138 130 130 132 122 122 124 136 136 138 137 137 139 144 144 146 124 124 126 137 137 139 148 148 150 127 127 129 116 116 118 143 143 145 120 120 122 140 140 142 121 121 123 108 108 110 120 120 122 127 127 129 138 138 140 136 136 138 139 139 141 134 134 136 120 120 122 136 136 138 119 119 121 137 137 139 122 122 124 130 130 132 119 119 121 126 126 128 122 122 124 141 141 143 118 118 120 123 123 125 128 128 130 129 129 131 121 121 123 117 117 119 135 135 137 122 122 124 133 133 135 110 110 112 132 132 134 132 132 134 114 114 116 109 109 111 125 125 127 116 116 118 136 136 138 139 139 141 116 116 118 119 119 121 126 126 128 134 134 136 130 130 132 138 138 140 142 142 144 121 121 123 138 138 140 126 126 128 119 119 121 121 121 123 145 145 147 122 122 124 130 130 132 137 137 139 113 113 115 132 132 134 136 136 138 131 131 133 112 112 114 131 131 133 142 142 144 136 136 138 144 144 146 133 133 135 120 120 122 134 134 136 115 115 117 132 132 134 124 124 126 126 126 128 123 123 125 136 136 138 115 115 117 138 138 140 144 144 146 134 134 136 108 108 110 136 136 138 115 115 117 138 138 140 125 125 127 120 120 122 126 126 128 140 140 142 140 140 142 137 137 139 
129 129 131 127 127 129 138 138 140 116 116 118 118 118 120 119 119 121 145 145 147 143 143 145 121 121 123 131 131 133 138 138 140 135 135 137 125 125 127 115 115 117 118 118 120 138 138 140 144 144 146 144 144 146 134 134 136 127 127 129 109 109 111 133 133 135 137 137 139 123 123 125 109 109 111 110 110 112 119 119 121 144 144 146 143 143 145 139 139 141 129 129 131 134 134 136 130 130 132 113 113 115 125 125 127 142 142 144 137 137 139 121 121 123 135 135 137 143 143 145 128 128 130 139 139 141 132 132 134 110 110 112 139 139 141 120 120 122 120 120 122 119 119 121 141 141 143 127 127 129 125 125 127 142 142 144 137 137 139 133 133 135 137 137 139 131 131 133 145 145 147 138 138 140 124 124 126 140 140 142 141 141 143 139 139 141 131 131 133 114 114 116 124 124 126 141 141 143 119 119 121 135 135 137 112 112 114 120 120 122 112 112 114 139 139 141 121 121 123 131 131 133 135 135 137 121 121 123 140 140 142 127 127 129 119 119 121 135 135 137 109 109 111 115 115 117 126 126 128 117 117 119 127 127 129 124 124 126 136 136 138 142 142 144 119 119 121 117 117 119 119 119 121 126 126 128 116 116 118 129 129 131 136 136 138 144 144 146 126 126 128 144 144 146 124 124 126 137 137 139 121 121 123 128 128 130 128 128 130 141 141 143 124 124 126 116 116 118 120 120 122 116 116 118 128 128 130 112 112 114 130 130 132 121 121 123 126 126 128 121 121 123 123 123 125 120 120 122 141 141 143 126 126 128 124 124 126 118 118 120 135 135 137 133 133 135 119 119 121 139 139 141 127 127 129 115 115 117 108 108 110 139 139 141 136 136 138 136 136 138 140 140 142 120 120 122 132 132 134 142 142 144 122 122 124 122 122 124 133 133 135 135 135 137 119 119 121 114 114 116 124 124 126 137 137 139 140 140 142 134 134 136 135 135 137 146 146 148 120 120 122 141 141 143 142 142 144 131 131 133 119 119 121 144 144 146 136 136 138 147 147 149 137 137 139 139 139 141 117 117 119 119 119 121 121 121 123 110 110 112 143 143 145 122 122 124 119 119 121 111 111 113 146 146 148 126 126 128 125 125 127 119 119 121 126 126 128 116 116 118 132 132 134 121 121 123 123 123 125 112 112 114 121 121 123 138 138 140 147 147 149 119 119 121 124 124 126 130 130 132 114 114 116 138 138 140 142 142 144 123 123 125 121 121 123 117 117 119 138 138 140 108 108 110 119 119 121 129 129 131 137 137 139 129 129 131 120 120 122 127 127 129 120 120 122 115 115 117 134 134 136 125 125 127 117 117 119 140 140 142 133 133 135 117 117 119 135 135 137 122 122 124 133 133 135 121 121 123 138 138 140 133 133 135 124 124 126 116 116 118 140 140 142 125 125 127 121 121 123 137 137 139 122 122 124 144 144 146 115 115 117 121 121 123 130 130 132 139 139 141 115 115 117 131 131 133 133 133 135 121 121 123 139 139 141 125 125 127 139 139 141 140 140 142 137 137 139 137 137 139 115 115 117 118 118 120 130 130 132 130 130 132 114 114 116 112 112 114 134 134 136 112 112 114 123 123 125 127 127 129 132 132 134 131 131 133 124 124 126 133 133 135 126 126 128 110 110 112 126 126 128 138 138 140 123 123 125 114 114 116 140 140 142 114 114 116 142 142 144 120 120 122 118 118 120 130 130 132 
121 121 123 118 118 120 135 135 137 119 119 121 134 134 136 123 123 125 118 118 120 138 138 140 124 124 126 125 125 127 141 141 143 123 123 125 134 134 136 123 123 125 114 114 116 126 126 128 127 127 129 140 140 142 122 122 124 136 136 138 142 142 144 144 144 146 124 124 126 122 122 124 131 131 133 140 140 142 116 116 118 121 121 123 138 138 140 141 141 143 123 123 125 136 136 138 113 113 115 129 129 131 122 122 124 112 112 114 125 125 127 129 129 131 132 132 134 127 127 129 113 113 115 134 134 136 128 128 130 113 113 115 125 125 127 146 146 148 121 121 123 126 126 128 132 132 134 124 124 126 132 132 134 121 121 123 131 131 133 143 143 145 140 140 142 141 141 143 133 133 135 129 129 131 111 111 113 115 115 117 120 120 122 134 134 136 142 142 144 118 118 120 139 139 141 137 137 139 112 112 114 109 109 111 119 119 121 115 115 117 117 117 119 132 132 134 118 118 120 141 141 143 129 129 131 140 140 142 139 139 141 137 137 139 128 128 130 147 147 149 136 136 138 143 143 145 118 118 120 122 122 124 122 122 124 116 116 118 123 123 125 133 133 135 147 147 149 129 129 131 139 139 141 125 125 127 132 132 134 128 128 130 137 137 139 114 114 116 128 128 130 119 119 121 137 137 139 131 131 133 136 136 138 143 143 145 130 130 132 142 142 144 148 148 150 124 124 126 115 115 117 107 107 109 125 125 127 144 144 146 134 134 136 132 132 134 110 110 112 139 139 141 117 117 119 117 117 119 127 127 129 135 135 137 125 125 127 122 122 124 126 126 128 135 135 137 124 124 126 126 126 128 136 136 138 124 124 126 123 123 125 140 140 142 113 113 115 121 121 123 130 130 132 137 137 139 130 130 132 136 136 138 131 131 133 135 135 137 139 139 141 146 146 148 115 115 117 124 124 126 111 111 113 130 130 132 142 142 144 129 129 131 125 125 127 142 142 144 133 133 135 138 138 140 116 116 118 134 134 136 125 125 127 140 140 142 130 130 132 135 135 137 125 125 127 126 126 128 119 119 121 131 131 133 124 124 126 129 129 131 126 126 128 127 127 129 140 140 142 115 115 117 136 136 138 119 119 121 109 109 111 134 134 136 120 120 122 132 132 134 136 136 138 145 145 147 116 116 118 135 135 137 124 124 126 126 126 128 113 113 115 123 123 125 136 136 138 118 118 120 130 130 132 116 116 118 137 137 139 133 133 135 134 134 136 123 123 125 121 121 123 122 122 124 130 130 132 132 132 134 139 139 141 144 144 146 122 122 124 138 138 140 126 126 128 134 134 136 136 136 138 123 123 125 128 128 130 126 126 128 119 119 121 123 123 125 141 141 143 144 144 146 124 124 126 120 120 122 122 122 124 130 130 132 143 143 145 117 117 119 130 130 132 134 134 136 130 130 132 140 140 142 128 128 130 125 125 127 147 147 149 119 119 121 132 132 134 127 127 129 120 120 122 120 120 122 126 126 128 117 117 119 120 120 122 137 137 139 143 143 145 115 115 117 117 117 119 141 141 143 136 136 138 124 124 126 119 119 121 127 127 129 124 124 126 121 121 123 130 130 132 141 141 143 124 124 126 146 146 148 119 119 121 143 143 145 112 112 114 122 122 124 141 141 143 118 118 120 121 121 123 138 138 140 117 117 119 132 132 134 110 110 112 121 121 123 128 128 130 118 118 120 115 115 117 108 108 110 
129 129 131 131 131 133 135 135 137 138 138 140 120 120 122 123 123 125 142 142 144 142 142 144 136 136 138 128 128 130 147 147 149 120 120 122 144 144 146 121 121 123 125 125 127 113 113 115 145 145 147 125 125 127 109 109 111 139 139 141 135 135 137 115 115 117 108 108 110 123 123 125 134 134 136 130 130 132 121 121 123 132 132 134 123 123 125 124 124 126 108 108 110 136 136 138 131 131 133 109 109 111 120 120 122 116 116 118 127 127 129 143 143 145 123 123 125 128 128 130 129 129 131 130 130 132 131 131 133 146 146 148 129 129 131 136 136 138 121 121 123 136 136 138 141 141 143 120 120 122 112 112 114 117 117 119 127 127 129 120 120 122 115 115 117 132 132 134 110 110 112 110 110 112 117 117 119 129 129 131 119 119 121 132 132 134 140 140 142 129 129 131 131 131 133 119 119 121 138 138 140 116 116 118 136 136 138 135 135 137 141 141 143 129 129 131 133 133 135 137 137 139 115 115 117 132 132 134 137 137 139 127 127 129 143 143 145 144 144 146 108 108 110 121 121 123 125 125 127 121 121 123 111 111 113 133 133 135 134 134 136 135 135 137 146 146 148 128 128 130 139 139 141 135 135 137 123 123 125 142 142 144 131 131 133 130 130 132 124 124 126 135 135 137 126 126 128 143 143 145 146 146 148 136 136 138 124 124 126 121 121 123 137 137 139 141 141 143 120 120 122 135 135 137 117 117 119 111 111 113 115 115 117 124 124 126 126 126 128 128 128 130 123 123 125 122 122 124 137 137 139 136 136 138 127 127 129 133 133 135 125 125 127 138 138 140 133 133 135 118 118 120 129 129 131 138 138 140 127 127 129 119 119 121 140 140 142 133 133 135 121 121 123 132 132 134 135 135 137 127 127 129 139 139 141 136 136 138 119 119 121 115 115 117 144 144 146 138 138 140 120 120 122 128 128 130 132 132 134 126 126 128 135 135 137 125 125 127 118 118 120 111 111 113 130 130 132 119 119 121 122 122 124 130 130 132 146 146 148 133 133 135 120 120 122 120 120 122 111 111 113 114 114 116 130 130 132 130 130 132 112 112 114 138 138 140 122 122 124 124 124 126 127 127 129 132 132 134 143 143 145 126 126 128 116 116 118 128 128 130 114 114 116 116 116 118 144 144 146 141 141 143 124 124 126 130 130 132 132 132 134 138 138 140 127 127 129 135 135 137 129 129 131 129 129 131 142 142 144 123 123 125 136 136 138 128 128 130 130 130 132 111 111 113 118 118 120 132 132 134 116 116 118 127 127 129 119 119 121 127 127 129 142 142 144 131 131 133 124 124 126 138 138 140 115 115 117 132 132 134 131 131 133 130 130 132 118 118 120 133 133 135 122 122 124 130 130 132 135 135 137 134 134 136 126 126 128 139 139 141 124 124 126 125 125 127 134 134 136 138 138 140 118 118 120 127 127 129 116 116 118 125 125 127 118 118 120 125 125 127 131 131 133 144 144 146 116 116 118 127 127 129 128 128 130 135 135 137 132 132 134 121 121 123 126 126 128 126 126 128 114 114 116 136 136 138 113 113 115 132 132 134 121 121 123 117 117 119 124 124 126 121 121 123 127 127 129 122 122 124 140 140 142 119 119 121 143 143 145 135 135 137 127 127 129 128 128 130 120 120 122 127 127 129 125 125 127 110 110 112 144 144 146 113 113 115 142 142 144 120 120 122 129 129 131 115 115 117 
115 115 117 128 128 130 135 135 137 137 137 139 140 140 142 124 124 126 128 128 130 144 144 146 112 112 114 124 124 126 115 115 117 123 123 125 144 144 146 123 123 125 119 119 121 137 137 139 129 129 131 109 109 111 126 126 128 117 117 119 138 138 140 107 107 109 145 145 147 114 114 116 124 124 126 130 130 132 124 124 126 119 119 121 145 145 147 144 144 146 120 120 122 123 123 125 129 129 131 123 123 125 142 142 144 136 136 138 118 118 120 129 129 131 139 139 141 136 136 138 143 143 145 132 132 134 140 140 142 132 132 134 116 116 118 130 130 132 139 139 141 124 124 126 113 113 115 133 133 135 114 114 116 110 110 112 127 127 129 115 115 117 122 122 124 124 124 126 123 123 125 133 133 135 121 121 123 140 140 142 136 136 138 126 126 128 112 112 114 134 134 136 115 115 117 144 144 146 114 114 116 146 146 148 139 139 141 145 145 147 140 140 142 144 144 146 123 123 125 144 144 146 127 127 129 142 142 144 132 132 134 119 119 121 136 136 138 124 124 126 144 144 146 120 120 122 113 113 115 130 130 132 125 125 127 139 139 141 123 123 125 111 111 113 137 137 139 117 117 119 120 120 122 127 127 129 124 124 126 125 125 127 114 114 116 127 127 129 125 125 127 136 136 138 148 148 150 132 132 134 130 130 132 123 123 125 135 135 137 115 115 117 131 131 133 119 119 121 114 114 116 114 114 116 130 130 132 131 131 133 132 132 134 124 124 126 129 129 131 127 127 129 126 126 128 133 133 135 121 121 123 119 119 121 138 138 140 143 143 145 116 116 118 130 130 132 137 137 139 135 135 137 124 124 126 135 135 137 130 130 132 120 120 122 132 132 134 143 143 145 133 133 135 142 142 144 115 115 117 142 142 144 124 124 126 114 114 116 124 124 126 131 131 133 115 115 117 114 114 116 139 139 141 119 119 121 127 127 129 126 126 128 117 117 119 129 129 131 140 140 142 127 127 129 145 145 147 134 134 136 132 132 134 120 120 122 110 110 112 115 115 117 126 126 128 136 136 138 113 113 115 121 121 123 119 119 121 120 120 122 125 125 127 129 129 131 130 130 132 129 129 131 124 124 126 122 122 124 140 140 142 112 112 114 121 121 123 143 143 145 112 112 114 135 135 137 131 131 133 134 134 136 109 109 111 139 139 141 112 112 114 131 131 133 121 121 123 118 118 120 116 116 118 140 140 142 116 116 118 138 138 140 148 148 150 126 126 128 109 109 111 135 135 137 138 138 140 131 131 133 146 146 148 125 125 127 131 131 133 128 128 130 131 131 133 117 117 119 119 119 121 123 123 125 117 117 119 113 113 115 117 117 119 114 114 116 134 134 136 125 125 127 134 134 136 128 128 130 138 138 140 119 119 121 137 137 139 129 129 131 137 137 139 127 127 129 127 127 129 116 116 118 140 140 142 124 124 126 124 124 126 120 120 122 117 117 119 121 121 123 139 139 141 138 138 140 141 141 143 115 115 117 138 138 140 117 117 119 117 117 119 131 131 133 138 138 140 120 120 122 133 133 135 115 115 117 125 125 127 120 120 122 143 143 145 122 122 124 128 128 130 120 120 122 122 122 124 134 134 136 134 134 136 138 138 140 133 133 135 124 124 126 129 129 131 137 137 139 118 118 120 125 125 127 132 132 134 113 113 115 140 140 142 111 111 113 129 129 131 119 119 121 141 141 143 118 118 120 
113 113 115 115 115 117 135 135 137 127 127 129 129 129 131 147 147 149 108 108 110 128 128 130 138 138 140 129 129 131 140 140 142 131 131 133 141 141 143 135 135 137 141 141 143 138 138 140 125 125 127 119 119 121 127 127 129 127 127 129 131 131 133 114 114 116 146 146 148 128 128 130 123 123 125 123 123 125 115 115 117 119 119 121 141 141 143 141 141 143 127 127 129 132 132 134 124 124 126 120 120 122 114 114 116 124 124 126 136 136 138 131 131 133 118 118 120 134 134 136 125 125 127 115 115 117 114 114 116 131 131 133 135 135 137 118 118 120 130 130 132 118 118 120 138 138 140 114 114 116 118 118 120 115 115 117 136 136 138 144 144 146 135 135 137 141 141 143 111 111 113 110 110 112 136 136 138 130 130 132 129 129 131 123 123 125 128 128 130 137 137 139 135 135 137 140 140 142 118 118 120 132 132 134 118 118 120 126 126 128 114 114 116 136 136 138 110 110 112 137 137 139 145 145 147 130 130 132 121 121 123 127 127 129 130 130 132 110 110 112 127 127 129 128 128 130 135 135 137 127 127 129 129 129 131 127 127 129 142 142 144 126 126 128 116 116 118 136 136 138 119 119 121 126 126 128 122 122 124 119 119 121 131 131 133 142 142 144 126 126 128 139 139 141 119 119 121 120 120 122 133 133 135 119 119 121 121 121 123 135 135 137 130 130 132 115 115 117 144 144 146 120 120 122 137 137 139 126 126 128 138 138 140 129 129 131 130 130 132 139 139 141 138 138 140 140 140 142 131 131 133 122 122 124 120 120 122 139 139 141 139 139 141 125 125 127 146 146 148 122 122 124 136 136 138 141 141 143 145 145 147 119 119 121 119 119 121 113 113 115 130 130 132 127 127 129 134 134 136 139 139 141 134 134 136 147 147 149 129 129 131 117 117 119 117 117 119 130 130 132 116 116 118 132 132 134 132 132 134 134 134 136 118 118 120 115 115 117 139 139 141 134 134 136 130 130 132 140 140 142 121 121 123 119 119 121 139 139 141 137 137 139 134 134 136 133 133 135 123 123 125 137 137 139 114 114 116 118 118 120 135 135 137 119 119 121 131 131 133 124 124 126 122 122 124 123 123 125 131 131 133 113 113 115 133 133 135 126 126 128 134 134 136 119 119 121 126 126 128 116 116 118 139 139 141 118 118 120 120 120 122 136 136 138 146 146 148 117 117 119 128 128 130 133 133 135 139 139 141 117 117 119 134 134 136 141 141 143 131 131 133 127 127 129 130 130 132 112 112 114 117 117 119 134 134 136 122 122 124 126 126 128 133 133 135 128 128 130 125 125 127 132 132 134 135 135 137 109 109 111 116 116 118 140 140 142 137 137 139 122 122 124 134 134 136 127 127 129 120 120 122 134 134 136 125 125 127 129 129 131 109 109 111 137 137 139 114 114 116 146 146 148 126 126 128 119 119 121 114 114 116 123 123 125 122 122 124 125 125 127 121 121 123 119 119 121 137 137 139 125 125 127 138 138 140 129 129 131 142 142 144 119 119 121 115 115 117 134 134 136 134 134 136 140 140 142 137 137 139 126 126 128 130 130 132 112 112 114 130 130 132 136 136 138 128 128 130 130 130 132 132 132 134 128 128 130 115 115 117 139 139 141 143 143 145 140 140 142 120 120 122 125 125 127 123 123 125 137 137 139 117 117 119 127 127 129 116 116 118 126 126 128 134 134 136 130 130 132 
122 122 124 136 136 138 116 116 118 108 108 110 117 117 119 123 123 125 141 141 143 128 128 130 132 132 134 126 126 128 127 127 129 112 112 114 138 138 140 133 133 135 139 139 141 126 126 128 140 140 142 139 139 141 121 121 123 131 131 133 144 144 146 128 128 130 125 125 127 122 122 124 128 128 130 137 137 139 122 122 124 128 128 130 139 139 141 126 126 128 130 130 132 139 139 141 118 118 120 117 117 119 136 136 138 118 118 120 129 129 131 143 143 145 115 115 117 123 123 125 115 115 117 122 122 124 126 126 128 132 132 134 140 140 142 133 133 135 125 125 127 125 125 127 148 148 150 138 138 140 133 133 135 135 135 137 140 140 142 130 130 132 123 123 125 110 110 112 142 142 144 120 120 122 125 125 127 126 126 128 123 123 125 128 128 130 115 115 117 124 124 126 124 124 126 120 120 122 145 145 147 118 118 120 138 138 140 131 131 133 115 115 117 140 140 142 130 130 132 129 129 131 130 130 132 137 137 139 136 136 138 140 140 142 139 139 141 121 121 123 122 122 124 123 123 125 122 122 124 143 143 145 133 133 135 130 130 132 118 118 120 116 116 118 124 124 126 125 125 127 106 106 108 131 131 133 130 130 132 138 138 140 136 136 138 138 138 140 137 137 139 134 134 136 130 130 132 124 124 126 114 114 116 140 140 142 124 124 126 118 118 120 119 119 121 135 135 137 134 134 136 141 141 143 128 128 130 137 137 139 137 137 139 118 118 120 125 125 127 129 129 131 137 137 139 119 119 121 125 125 127 121 121 123 140 140 142 116 116 118 128 128 130 127 127 129 141 141 143 131 131 133 127 127 129 123 123 125 118 118 120 130 130 132 128 128 130 141 141 143 108 108 110 123 123 125 128 128 130 119 119 121 144 144 146 123 123 125 127 127 129 140 140 142 120 120 122 114 114 116 122 122 124 114 114 116 138 138 140 128 128 130 124 124 126 138 138 140 129 129 131 121 121 123 127 127 129 113 113 115 136 136 138 121 121 123 133 133 135 137 137 139 114 114 116 115 115 117 116 116 118 135 135 137 129 129 131 113 113 115 113 113 115 120 120 122 123 123 125 137 137 139 127 127 129 110 110 112 134 134 136 138 138 140 124 124 126 124 124 126 108 108 110 108 108 110 128 128 130 119 119 121 138 138 140 122 122 124 110 110 112 124 124 126 137 137 139 119 119 121 142 142 144 118 118 120 116 116 118 126 126 128 146 146 148 133 133 135 138 138 140 116 116 118 118 118 120 137 137 139 122 122 124 133 133 135 117 117 119 142 142 144 127 127 129 143 143 145 111 111 113 128 128 130 129 129 131 137 137 139 130 130 132 119 119 121 115 115 117 132 132 134 123 123 125 129 129 131 115 115 117 114 114 116 134 134 136 147 147 149 123 123 125 119 119 121 126 126 128 142 142 144 135 135 137 142 142 144 142 142 144 137 137 139 112 112 114 127 127 129 124 124 126 119 119 121 125 125 127 121 121 123 126 126 128 142 142 144 134 134 136 113 113 115 138 138 140 116 116 118 133 133 135 114 114 116 114 114 116 132 132 134 136 136 138 141 141 143 131 131 133 140 140 142 126 126 128 136 136 138 119 119 121 135 135 137 121 121 123 129 129 131 110 110 112 136 136 138 132 132 134 133 133 135 140 140 142 133 133 135 122 122 124 129 129 131 118 118 120 131 131 133 128 128 130 131 131 133 
119 119 121 136 136 138 125 125 127 117 117 119 136 136 138 121 121 123 140 140 142 133 133 135 127 127 129 133 133 135 118 118 120 132 132 134 145 145 147 116 116 118 145 145 147 135 135 137 121 121 123 139 139 141 141 141 143 134 134 136 127 127 129 121 121 123 123 123 125 145 145 147 127 127 129 118 118 120 134 134 136 132 132 134 112 112 114 114 114 116 133 133 135 142 142 144 123 123 125 114 114 116 108 108 110 128 128 130 134 134 136 133 133 135 123 123 125 139 139 141 136 136 138 133 133 135 133 133 135 129 129 131 118 118 120 128 128 130 129 129 131 138 138 140 141 141 143 123 123 125 141 141 143 123 123 125 144 144 146 122 122 124 120 120 122 139 139 141 127 127 129 137 137 139 140 140 142 116 116 118 124 124 126 123 123 125 136 136 138 126 126 128 116 116 118 126 126 128 130 130 132 125 125 127 127 127 129 134 134 136 132 132 134 133 133 135 134 134 136 145 145 147 136 136 138 132 132 134 122 122 124 135 135 137 136 136 138 118 118 120 141 141 143 132 132 134 137 137 139 126 126 128 140 140 142 131 131 133 126 126 128 122 122 124 109 109 111 135 135 137 130 130 132 120 120 122 135 135 137 121 121 123 119 119 121 138 138 140 116 116 118 110 110 112 143 143 145 136 136 138 129 129 131 125 125 127 117 117 119 119 119 121 146 146 148 121 121 123 133 133 135 114 114 116 137 137 139 120 120 122 125 125 127 136 136 138 113 113 115 122 122 124 127 127 129 128 128 130 126 126 128 120 120 122 126 126 128 146 146 148 121 121 123 130 130 132 124 124 126 145 145 147 121 121 123 132 132 134 122 122 124 133 133 135 132 132 134 120 120 122 112 112 114 139 139 141 124 124 126 123 123 125 134 134 136 140 140 142 128 128 130 129 129 131 142 142 144 141 141 143 122 122 124 108 108 110 141 141 143 139 139 141 131 131 133 137 137 139 135 135 137 120 120 122 129 129 131 119 119 121 141 141 143 141 141 143 123 123 125 127 127 129 132 132 134 133 133 135 123 123 125 120 120 122 134 134 136 124 124 126 115 115 117 131 131 133 135 135 137 145 145 147 127 127 129 130 130 132 148 148 150 122 122 124 128 128 130 117 117 119 128 128 130 141 141 143 120 120 122 116 116 118 135 135 137 121 121 123 142 142 144 148 148 150 136 136 138 147 147 149 120 120 122 120 120 122 143 143 145 125 125 127 112 112 114 113 113 115 128 128 130 148 148 150 136 136 138 117 117 119 127 127 129 144 144 146 135 135 137 127 127 129 131 131 133 130 130 132 121 121 123 128 128 130 119 119 121 130 130 132 139 139 141 122 122 124 128 128 130 122 122 124 142 142 144 119 119 121 135 135 137 125 125 127 133 133 135 127 127 129 118 118 120 126 126 128 121 121 123 137 137 139 118 118 120 139 139 141 131 131 133 144 144 146 135 135 137 115 115 117 128 128 130 122 122 124 115 115 117 136 136 138 127 127 129 129 129 131 137 137 139 113 113 115 127 127 129 120 120 122 121 121 123 130 130 132 131 131 133 126 126 128 144 144 146 129 129 131 117 117 119 116 116 118 134 134 136 135 135 137 119 119 121 121 121 123 124 124 126 116 116 118 128 128 130 137 137 139 132 132 134 112 112 114 143 143 145 110 110 112 139 139 141 141 141 143 116 116 118 135 135 137 135 135 137 128 128 130 
112 112 114 128 128 130 126 126 128 130 130 132 127 127 129 140 140 142 128 128 130 130 130 132 124 124 126 134 134 136 137 137 139 134 134 136 120 120 122 121 121 123 140 140 142 137 137 139 135 135 137 125 125 127 142 142 144 129 129 131 123 123 125 117 117 119 122 122 124 133 133 135 133 133 135 121 121 123 131 131 133 121 121 123 124 124 126 119 119 121 122 122 124 140 140 142 142 142 144 127 127 129 117 117 119 135 135 137 135 135 137 117 117 119 130 130 132 138 138 140 137 137 139 142 142 144 113 113 115 131 131 133 132 132 134 120 120 122 135 135 137 146 146 148 119 119 121 140 140 142 140 140 142 136 136 138 123 123 125 134 134 136 115 115 117 130 130 132 147 147 149 130 130 132 114 114 116 114 114 116 137 137 139 138 138 140 137 137 139 119 119 121 125 125 127 116 116 118 125 125 127 114 114 116 137 137 139 118 118 120 112 112 114 132 132 134 141 141 143 117 117 119 114 114 116 109 109 111 116 116 118 132 132 134 118 118 120 109 109 111 115 115 117 131 131 133 133 133 135 118 118 120 126 126 128 117 117 119 135 135 137 110 110 112 126 126 128 127 127 129 131 131 133 147 147 149 108 108 110 133 133 135 119 119 121 133 133 135 120 120 122 137 137 139 128 128 130 128 128 130 126 126 128 128 128 130 127 127 129 128 128 130 121 121 123 110 110 112 134 134 136 144 144 146 134 134 136 122 122 124 107 107 109 129 129 131 119 119 121 120 120 122 123 123 125 122 122 124 131 131 133 128 128 130 120 120 122 113 113 115 123 123 125 128 128 130 126 126 128 122 122 124 108 108 110 123 123 125 130 130 132 118 118 120 122 122 124 132 132 134 138 138 140 136 136 138 114 114 116 134 134 136 127 127 129 123 123 125 123 123 125 120 120 122 128 128 130 131 131 133 116 116 118 143 143 145 128 128 130 117 117 119 133 133 135 126 126 128 126 126 128 141 141 143 147 147 149 136 136 138 127 127 129 112 112 114 110 110 112 121 121 123 135 135 137 146 146 148 139 139 141 122 122 124 115 115 117 115 115 117 134 134 136 136 136 138 131 131 133 119 119 121 120 120 122 128 128 130 139 139 141 134 134 136 135 135 137 112 112 114 111 111 113 142 142 144 124 124 126 142 142 144 143 143 145 137 137 139 116 116 118 121 121 123 139 139 141 148 148 150 112 112 114 121 121 123 141 141 143 123 123 125 120 120 122 114 114 116 130 130 132 115 115 117 126 126 128 136 136 138 127 127 129 115 115 117 138 138 140 125 125 127 131 131 133 126 126 128 142 142 144 139 139 141 142 142 144 117 117 119 135 135 137 121 121 123 139 139 141 137 137 139 128 128 130 119 119 121 131 131 133 139 139 141 128 128 130 136 136 138 129 129 131 128 128 130 141 141 143 142 142 144 131 131 133 115 115 117 126 126 128 136 136 138 129 129 131 129 129 131 136 136 138 135 135 137 147 147 149 112 112 114 112 112 114 124 124 126 128 128 130 111 111 113 122 122 124 129 129 131 132 132 134 131 131 133 117 117 119 133 133 135 140 140 142 130 130 132 137 137 139 136 136 138 136 136 138 120 120 122 120 120 122 144 144 146 117 117 119 120 120 122 127 127 129 120 120 122 119 119 121 135 135 137 134 134 136 144 144 146 117 117 119 129 129 131 138 138 140 136 136 138 130 130 132 123 123 125 
122 122 124 122 122 124 122 122 124 120 120 122 147 147 149 122 122 124 123 123 125 130 130 132 131 131 133 125 125 127 128 128 130 123 123 125 120 120 122 128 128 130 125 125 127 127 127 129 130 130 132 119 119 121 142 142 144 124 124 126 122 122 124 131 131 133 128 128 130 122 122 124 127 127 129 130 130 132 134 134 136 129 129 131 126 126 128 128 128 130 137 137 139 124 124 126 131 131 133 119 119 121 119 119 121 132 132 134 138 138 140 116 116 118 122 122 124 127 127 129 119 119 121 114 114 116 136 136 138 137 137 139 117 117 119 113 113 115 129 129 131 123 123 125 146 146 148 126 126 128 139 139 141 124 124 126 116 116 118 124 124 126 127 127 129 140 140 142 116 116 118 122 122 124 121 121 123 115 115 117 136 136 138 137 137 139 120 120 122 117 117 119 133 133 135 137 137 139 140 140 142 132 132 134 142 142 144 114 114 116 120 120 122 137 137 139 133 133 135 120 120 122 132 132 134 134 134 136 133 133 135 123 123 125 129 129 131 125 125 127 115 115 117 123 123 125 116 116 118 125 125 127 122 122 124 146 146 148 134 134 136 133 133 135 134 134 136 130 130 132 133 133 135 119 119 121 140 140 142 117 117 119 144 144 146 129 129 131 116 116 118 131 131 133 140 140 142 122 122 124 126 126 128 131 131 133 143 143 145 130 130 132 111 111 113 120 120 122 122 122 124 139 139 141 138 138 140 130 130 132 145 145 147 139 139 141 110 110 112 128 128 130 116 116 118 127 127 129 141 141 143 137 137 139 131 131 133 115 115 117 141 141 143 139 139 141 121 121 123 122 122 124 119 119 121 134 134 136 110 110 112 144 144 146 125 125 127 124 124 126 125 125 127 135 135 137 117 117 119 112 112 114 126 126 128 136 136 138 147 147 149 137 137 139 121 121 123 137 137 139 131 131 133 124 124 126 135 135 137 131 131 133 116 116 118 142 142 144 117 117 119 132 132 134 139 139 141 129 129 131 140 140 142 125 125 127 119 119 121 120 120 122 130 130 132 121 121 123 137 137 139 131 131 133 110 110 112 146 146 148 123 123 125 119 119 121 129 129 131 131 131 133 145 145 147 119 119 121 117 117 119 117 117 119 119 119 121 123 123 125 131 131 133 133 133 135 115 115 117 125 125 127 126 126 128 119 119 121 134 134 136 133 133 135 116 116 118 120 120 122 122 122 124 124 124 126 140 140 142 113 113 115 138 138 140 126 126 128 129 129 131 112 112 114 129 129 131 121 121 123 128 128 130 114 114 116 115 115 117 146 146 148 122 122 124 133 133 135 138 138 140 118 118 120 117 117 119 130 130 132 137 137 139 131 131 133 125 125 127 141 141 143 143 143 145 144 144 146 117 117 119 127 127 129 118 118 120 136 136 138 116 116 118 122 122 124 110 110 112 141 141 143 124 124 126 119 119 121 127 127 129 114 114 116 117 117 119 111 111 113 134 134 136 143 143 145 129 129 131 132 132 134 128 128 130 128 128 130 133 133 135 110 110 112 139 139 141 139 139 141 126 126 128 123 123 125 140 140 142 111 111 113 136 136 138 131 131 133 111 111 113 134 134 136 113 113 115 145 145 147 121 121 123 134 134 136 124 124 126 127 127 129 144 144 146 127 127 129 136 136 138 108 108 110 118 118 120 130 130 132 145 145 147 123 123 125 133 133 135 116 116 118 130 130 132 108 108 110 
141 141 143 140 140 142 125 125 127 138 138 140 114 114 116 134 134 136 115 115 117 124 124 126 111 111 113 125 125 127 130 130 132 127 127 129 135 135 137 118 118 120 138 138 140 139 139 141 115 115 117 122 122 124 142 142 144 137 137 139 113 113 115 121 121 123 133 133 135 129 129 131 125 125 127 141 141 143 132 132 134 140 140 142 136 136 138 126 126 128 124 124 126 137 137 139 114 114 116 139 139 141 120 120 122 132 132 134 142 142 144 118 118 120 148 148 150 136 136 138 126 126 128 131 131 133 127 127 129 137 137 139 124 124 126 108 108 110 132 132 134 130 130 132 107 107 109 117 117 119 119 119 121 134 134 136 126 126 128 124 124 126 131 131 133 145 145 147 132 132 134 134 134 136 112 112 114 109 109 111 122 122 124 123 123 125 138 138 140 118 118 120 133 133 135 140 140 142 140 140 142 122 122 124 113 113 115 129 129 131 138 138 140 121 121 123 121 121 123 123 123 125 142 142 144 126 126 128 132 132 134 139 139 141 134 134 136 133 133 135 123 123 125 149 149 151 125 125 127 112 112 114 119 119 121 113 113 115 109 109 111 119 119 121 144 144 146 116 116 118 137 137 139 134 134 136 116 116 118 137 137 139 126 126 128 142 142 144 115 115 117 117 117 119 127 127 129 122 122 124 139 139 141 119 119 121 144 144 146 138 138 140 116 116 118 137 137 139 141 141 143 118 118 120 140 140 142 132 132 134 121 121 123 119 119 121 134 134 136 137 137 139 121 121 123 139 139 141 119 119 121 130 130 132 126 126 128 132 132 134 134 134 136 123 123 125 125 125 127 128 128 130 147 147 149 134 134 136 129 129 131 125 125 127 130 130 132 125 125 127 110 110 112 115 115 117 144 144 146 114 114 116 113 113 115 122 122 124 134 134 136 121 121 123 117 117 119 139 139 141 116 116 118 111 111 113 130 130 132 147 147 149 118 118 120 120 120 122 130 130 132 113 113 115 124 124 126 127 127 129 115 115 117 134 134 136 134 134 136 135 135 137 130 130 132 143 143 145 116 116 118 139 139 141 127 127 129 135 135 137 126 126 128 131 131 133 116 116 118 131 131 133 138 138 140 130 130 132 129 129 131 132 132 134 120 120 122 126 126 128 119 119 121 127 127 129 127 127 129 112 112 114 115 115 117 134 134 136 132 132 134 146 146 148 115 115 117 129 129 131 112 112 114 131 131 133 122 122 124 138 138 140 134 134 136 134 134 136 135 135 137 127 127 129 112 112 114 145 145 147 113 113 115 137 137 139 113 113 115 131 131 133 142 142 144 121 121 123 116 116 118 133 133 135 130 130 132 133 133 135 133 133 135 117 117 119 137 137 139 122 122 124 130 130 132 122 122 124 144 144 146 124 124 126 146 146 148 131 131 133 116 116 118 134 134 136 137 137 139 138 138 140 124 124 126 134 134 136 119 119 121 129 129 131 109 109 111 125 125 127 122 122 124 142 142 144 136 136 138 117 117 119 138 138 140 118 118 120 120 120 122 132 132 134 140 140 142 124 124 126 126 126 128 121 121 123 120 120 122 112 112 114 136 136 138 121 121 123 138 138 140 131 131 133 125 125 127 123 123 125 113 113 115 124 124 126 132 132 134 130 130 132 113 113 115 141 141 143 116 116 118 139 139 141 128 128 130 122 122 124 132 132 134 132 132 134 117 117 119 142 142 144 138 138 140 143 143 145 
128 128 130 116 116 118 131 131 133 132 132 134 124 124 126 125 125 127 109 109 111 120 120 122 120 120 122 130 130 132 139 139 141 134 134 136 135 135 137 124 124 126 130 130 132 132 132 134 118 118 120 120 120 122 133 133 135 129 129 131 120 120 122 124 124 126 123 123 125 118 118 120 117 117 119 125 125 127 125 125 127 118 118 120 125 125 127 113 113 115 118 118 120 142 142 144 135 135 137 124 124 126 114 114 116 137 137 139 135 135 137 116 116 118 133 133 135 137 137 139 121 121 123 139 139 141 122 122 124 143 143 145 131 131 133 121 121 123 139 139 141 127 127 129 146 146 148 136 136 138 122 122 124 124 124 126 129 129 131 127 127 129 120 120 122 136 136 138 129 129 131 142 142 144 130 130 132 119 119 121 134 134 136 121 121 123 131 131 133 115 115 117 111 111 113 120 120 122 133 133 135 140 140 142 138 138 140 122 122 124 127 127 129 128 128 130 132 132 134 114 114 116 125 125 127 134 134 136 129 129 131 140 140 142 109 109 111 127 127 129 111 111 113 120 120 122 120 120 122 123 123 125 130 130 132 134 134 136 122 122 124 133 133 135 121 121 123 125 125 127 138 138 140 138 138 140 122 122 124 121 121 123 140 140 142 130 130 132 140 140 142 128 128 130 112 112 114 126 126 128 142 142 144 130 130 132 144 144 146 117 117 119 141 141 143 124 124 126 115 115 117 123 123 125 137 137 139 113 113 115 137 137 139 142 142 144 113 113 115 111 111 113 146 146 148 131 131 133 133 133 135 118 118 120 114 114 116 123 123 125 135 135 137 137 137 139 143 143 145 132 132 134 110 110 112 112 112 114 137 137 139 116 116 118 122 122 124 138 138 140 134 134 136 131 131 133 114 114 116 132 132 134 135 135 137 112 112 114 122 122 124 120 120 122 131 131 133 112 112 114 123 123 125 121 121 123 129 129 131 124 124 126 131 131 133 138 138 140 114 114 116 138 138 140 143 143 145 135 135 137 138 138 140 138 138 140 129 129 131 131 131 133 111 111 113 126 126 128 139 139 141 134 134 136 135 135 137 134 134 136 132 132 134 116 116 118 124 124 126 139 139 141 114 114 116 128 128 130 142 142 144 130 130 132 118 118 120 132 132 134 136 136 138 115 115 117 128 128 130 128 128 130 149 149 151 136 136 138 128 128 130 131 131 133 133 133 135 141 141 143 136 136 138 138 138 140 121 121 123 140 140 142 129 129 131 136 136 138 111 111 113 123 123 125 137 137 139 132 132 134 142 142 144 128 128 130 137 137 139 109 109 111 130 130 132 139 139 141 142 142 144 125 125 127 136 136 138 122 122 124 132 132 134 123 123 125 120 120 122 130 130 132 149 149 151 129 129 131 139 139 141 132 132 134 109 109 111 126 126 128 136 136 138 138 138 140 120 120 122 145 145 147 136 136 138 126 126 128 112 112 114 120 120 122 137 137 139 145 145 147 125 125 127 144 144 146 129 129 131 122 122 124 117 117 119 123 123 125 121 121 123 137 137 139 141 141 143 129 129 131 140 140 142 107 107 109 138 138 140 147 147 149 117 117 119 131 131 133 109 109 111 115 115 117 115 115 117 129 129 131 120 120 122 136 136 138 138 138 140 127 127 129 136 136 138 132 132 134 116 116 118 128 128 130 136 136 138 143 143 145 123 123 125 131 131 133 127 127 129 133 133 135 140 140 142 114 114 116 
126 126 128 126 126 128 119 119 121 113 113 115 133 133 135 125 125 127 123 123 125 137 137 139 132 132 134 120 120 122 112 112 114 133 133 135 147 147 149 120 120 122 137 137 139 115 115 117 122 122 124 137 137 139 118 118 120 146 146 148 123 123 125 141 141 143 138 138 140 119 119 121 128 128 130 117 117 119 137 137 139 133 133 135 133 133 135 118 118 120 125 125 127 113 113 115 117 117 119 113 113 115 142 142 144 143 143 145 133 133 135 128 128 130 123 123 125 116 116 118 114 114 116 146 146 148 133 133 135 137 137 139 118 118 120 137 137 139 121 121 123 125 125 127 117 117 119 124 124 126 116 116 118 134 134 136 122 122 124 117 117 119 122 122 124 117 117 119 126 126 128 130 130 132 134 134 136 139 139 141 135 135 137 129 129 131 126 126 128 139 139 141 133 133 135 114 114 116 119 119 121 133 133 135 117 117 119 141 141 143 109 109 111 121 121 123 120 120 122 129 129 131 137 137 139 111 111 113 112 112 114 118 118 120 138 138 140 127 127 129 135 135 137 128 128 130 118 118 120 139 139 141 127 127 129 120 120 122 113 113 115 113 113 115 123 123 125 137 137 139 136 136 138 127 127 129 135 135 137 125 125 127 124 124 126 132 132 134 139 139 141 121 121 123 125 125 127 134 134 136 125 125 127 145 145 147 119 119 121 120 120 122 129 129 131 131 131 133 130 130 132 141 141 143 130 130 132 123 123 125 117 117 119 120 120 122 118 118 120 125 125 127 128 128 130 135 135 137 113 113 115 127 127 129 124 124 126 129 129 131 135 135 137 116 116 118 120 120 122 114 114 116 131 131 133 143 143 145 115 115 117 126 126 128 125 125 127 131 131 133 131 131 133 144 144 146 130 130 132 117 117 119 127 127 129 140 140 142 140 140 142 134 134 136 118 118 120 144 144 146 125 125 127 122 122 124 116 116 118 132 132 134 122 122 124 129 129 131 124 124 126 128 128 130 118 118 120 130 130 132 129 129 131 139 139 141 126 126 128 113 113 115 109 109 111 121 121 123 130 130 132 138 138 140 136 136 138 127 127 129 123 123 125 120 120 122 136 136 138 136 136 138 128 128 130 114 114 116 138 138 140 117 117 119 130 130 132 131 131 133 127 127 129 142 142 144 115 115 117 127 127 129 135 135 137 116 116 118 132 132 134 134 134 136 132 132 134 130 130 132 123 123 125 142 142 144 131 131 133 131 131 133 112 112 114 122 122 124 143 143 145 144 144 146 117 117 119 139 139 141 143 143 145 137 137 139 137 137 139 120 120 122 110 110 112 118 118 120 136 136 138 128 128 130 136 136 138 124 124 126 124 124 126 137 137 139 138 138 140 123 123 125 141 141 143 141 141 143 136 136 138 118 118 120 139 139 141 137 137 139 137 137 139 126 126 128 119 119 121 141 141 143 120 120 122 116 116 118 132 132 134 111 111 113 128 128 130 113 113 115 119 119 121 122 122 124 131 131 133 131 131 133 132 132 134 114 114 116 135 135 137 119 119 121 132 132 134 119 119 121 115 115 117 117 117 119 134 134 136 141 141 143 130 130 132 130 130 132 142 142 144 133 133 135 135 135 137 127 127 129 127 127 129 132 132 134 132 132 134 131 131 133 119 119 121 138 138 140 110 110 112 131 131 133 130 130 132 136 136 138 141 141 143 120 120 122 111 111 113 111 111 113 112 112 114 129 129 131 
143 143 145 135 135 137 133 133 135 141 141 143 135 135 137 120 120 122 116 116 118 128 128 130 116 116 118 121 121 123 135 135 137 138 138 140 125 125 127 115 115 117 125 125 127 147 147 149 128 128 130 139 139 141 126 126 128 137 137 139 130 130 132 114 114 116 133 133 135 131 131 133 111 111 113 125 125 127 118 118 120 128 128 130 132 132 134 134 134 136 135 135 137 117 117 119 128 128 130 118 118 120 144 144 146 123 123 125 126 126 128 127 127 129 143 143 145 116 116 118 143 143 145 131 131 133 123 123 125 139 139 141 133 133 135 120 120 122 127 127 129 126 126 128 126 126 128 138 138 140 139 139 141 139 139 141 118 118 120 133 133 135 116 116 118 139 139 141 145 145 147 128 128 130 136 136 138 142 142 144 135 135 137 138 138 140 149 149 151 132 132 134 138 138 140 135 135 137 129 129 131 125 125 127 109 109 111 124 124 126 124 124 126 111 111 113 124 124 126 113 113 115 133 133 135 122 122 124 112 112 114 137 137 139 130 130 132 132 132 134 122 122 124 117 117 119 125 125 127 140 140 142 129 129 131 140 140 142 143 143 145 129 129 131 125 125 127 118 118 120 136 136 138 122 122 124 136 136 138 127 127 129 128 128 130 128 128 130 114 114 116 126 126 128 142 142 144 131 131 133 130 130 132 107 107 109 135 135 137 130 130 132 115 115 117 125 125 127 112 112 114 119 119 121 129 129 131 115 115 117 115 115 117 114 114 116 120 120 122 117 117 119 131 131 133 121 121 123 139 139 141 142 142 144 128 128 130 131 131 133 110 110 112 121 121 123 126 126 128 113 113 115 119 119 121 113 113 115 121 121 123 136 136 138 132 132 134 139 139 141 136 136 138 133 133 135 136 136 138 121 121 123 133 133 135 118 118 120 138 138 140 119 119 121 118 118 120 113 113 115 124 124 126 125 125 127 130 130 132 140 140 142 141 141 143 130 130 132 125 125 127 117 117 119 108 108 110 139 139 141 117 117 119 120 120 122 141 141 143 125 125 127 112 112 114 132 132 134 131 131 133 121 121 123 113 113 115 115 115 117 132 132 134 139 139 141 119 119 121 122 122 124 115 115 117 136 136 138 129 129 131 142 142 144 126 126 128 142 142 144 132 132 134 127 127 129 132 132 134 139 139 141 139 139 141 127 127 129 126 126 128 122 122 124 126 126 128 120 120 122 117 117 119 117 117 119 117 117 119 146 146 148 118 118 120 121 121 123 115 115 117 128 128 130 141 141 143 142 142 144 118 118 120 118 118 120 133 133 135 135 135 137 131 131 133 141 141 143 138 138 140 131 131 133 134 134 136 129 129 131 125 125 127 130 130 132 118 118 120 115 115 117 108 108 110 137 137 139 115 115 117 122 122 124 136 136 138 138 138 140 132 132 134 119 119 121 144 144 146 116 116 118 129 129 131 137 137 139 137 137 139 135 135 137 139 139 141 127 127 129 122 122 124 127 127 129 130 130 132 117 117 119 114 114 116 124 124 126 114 114 116 118 118 120 135 135 137 121 121 123 148 148 150 116 116 118 128 128 130 138 138 140 116 116 118 113 113 115 138 138 140 116 116 118 116 116 118 130 130 132 120 120 122 142 142 144 120 120 122 123 123 125 121 121 123 137 137 139 114 114 116 133 133 135 130 130 132 116 116 118 135 135 137 144 144 146 139 139 141 130 130 132 120 120 122 109 109 111 
136 136 138 117 117 119 143 143 145 130 130 132 123 123 125 117 117 119 125 125 127 125 125 127 122 122 124 136 136 138 115 115 117 124 124 126 132 132 134 124 124 126 139 139 141 120 120 122 131 131 133 127 127 129 114 114 116 121 121 123 132 132 134 118 118 120 136 136 138 130 130 132 133 133 135 139 139 141 120 120 122 134 134 136 144 144 146 135 135 137 122 122 124 122 122 124 126 126 128 145 145 147 144 144 146 126 126 128 127 127 129 118 118 120 142 142 144 138 138 140 118 118 120 134 134 136 122 122 124 122 122 124 140 140 142 142 142 144 145 145 147 141 141 143 129 129 131 134 134 136 136 136 138 121 121 123 110 110 112 112 112 114 126 126 128 136 136 138 130 130 132 142 142 144 109 109 111 140 140 142 110 110 112 139 139 141 137 137 139 137 137 139 115 115 117 134 134 136 132 132 134 120 120 122 130 130 132 121 121 123 135 135 137 123 123 125 127 127 129 144 144 146 120 120 122 110 110 112 129 129 131 111 111 113 138 138 140 130 130 132 116 116 118 125 125 127 131 131 133 126 126 128 130 130 132 144 144 146 141 141 143 129 129 131 135 135 137 124 124 126 136 136 138 141 141 143 134 134 136 110 110 112 135 135 137 131 131 133 144 144 146 126 126 128 119 119 121 111 111 113 117 117 119 146 146 148 116 116 118 125 125 127 123 123 125 142 142 144 132 132 134 141 141 143 124 124 126 141 141 143 124 124 126 131 131 133 119 119 121 124 124 126 134 134 136 131 131 133 135 135 137 112 112 114 122 122 124 116 116 118 136 136 138 119 119 121 116 116 118 132 132 134 143 143 145 138 138 140 139 139 141 124 124 126 131 131 133 139 139 141 118 118 120 133 133 135 119 119 121 128 128 130 109 109 111 123 123 125 112 112 114 131 131 133 131 131 133 127 127 129 130 130 132 113 113 115 117 117 119 130 130 132 137 137 139 135 135 137 141 141 143 122 122 124 112 112 114 119 119 121 137 137 139 141 141 143 127 127 129 136 136 138 120 120 122 135 135 137 130 130 132 119 119 121 118 118 120 142 142 144 127 127 129 140 140 142 122 122 124 120 120 122 121 121 123 131 131 133 129 129 131 120 120 122 136 136 138 125 125 127 118 118 120 118 118 120 128 128 130 127 127 129 120 120 122 131 131 133 141 141 143 133 133 135 117 117 119 126 126 128 112 112 114 131 131 133 147 147 149 147 147 149 125 125 127 116 116 118 136 136 138 132 132 134 137 137 139 139 139 141 139 139 141 133 133 135 133 133 135 127 127 129 133 133 135 133 133 135 142 142 144 109 109 111 132 132 134 141 141 143 127 127 129 116 116 118 112 112 114 128 128 130 119 119 121 132 132 134 120 120 122 130 130 132 121 121 123 129 129 131 116 116 118 120 120 122 127 127 129 115 115 117 136 136 138 113 113 115 113 113 115 111 111 113 148 148 150 120 120 122 140 140 142 115 115 117 124 124 126 107 107 109 129 129 131 142 142 144 123 123 125 131 131 133 129 129 131 125 125 127 118 118 120 127 127 129 140 140 142 130 130 132 139 139 141 133 133 135 137 137 139 122 122 124 111 111 113 122 122 124 133 133 135 129 129 131 116 116 118 123 123 125 138 138 140 132 132 134 115 115 117 144 144 146 142 142 144 131 131 133 146 146 148 141 141 143 123 123 125 132 132 134 122 122 124 132 132 134 
122 122 124 120 120 122 116 116 118 127 127 129 123 123 125 133 133 135 120 120 122 126 126 128 124 124 126 128 128 130 129 129 131 124 124 126 126 126 128 133 133 135 127 127 129 132 132 134 122 122 124 138 138 140 145 145 147 126 126 128 136 136 138 126 126 128 135 135 137 136 136 138 117 117 119 130 130 132 117 117 119 123 123 125 133 133 135 109 109 111 123 123 125 127 127 129 107 107 109 141 141 143 111 111 113 130 130 132 132 132 134 123 123 125 127 127 129 122 122 124 132 132 134 136 136 138 113 113 115 116 116 118 143 143 145 130 130 132 130 130 132 118 118 120 121 121 123 137 137 139 133 133 135 129 129 131 138 138 140 142 142 144 137 137 139 138 138 140 127 127 129 112 112 114 138 138 140 122 122 124 146 146 148 112 112 114 125 125 127 119 119 121 117 117 119 135 135 137 142 142 144 123 123 125 145 145 147 141 141 143 129 129 131 139 139 141 118 118 120 128 128 130 124 124 126 111 111 113 124 124 126 114 114 116 128 128 130 110 110 112 119 119 121 140 140 142 129 129 131 132 132 134 144 144 146 133 133 135 125 125 127 118 118 120 124 124 126 141 141 143 119 119 121 115 115 117 130 130 132 143 143 145 128 128 130 142 142 144 113 113 115 128 128 130 127 127 129 123 123 125 136 136 138 141 141 143 142 142 144 121 121 123 134 134 136 136 136 138 142 142 144 119 119 121 127 127 129 136 136 138 134 134 136 143 143 145 127 127 129 148 148 150 113 113 115 139 139 141 141 141 143 123 123 125 142 142 144 111 111 113 115 115 117 127 127 129 133 133 135 138 138 140 136 136 138 143 143 145 147 147 149 115 115 117 137 137 139 129 129 131 145 145 147 110 110 112 135 135 137 141 141 143 127 127 129 113 113 115 133 133 135 110 110 112 142 142 144 120 120 122 121 121 123 135 135 137 125 125 127 122 122 124 133 133 135 123 123 125 136 136 138 116 116 118 123 123 125 113 113 115 133 133 135 109 109 111 129 129 131 132 132 134 129 129 131 130 130 132 136 136 138 114 114 116 136 136 138 137 137 139 141 141 143 134 134 136 128 128 130 121 121 123 141 141 143 120 120 122 112 112 114 113 113 115 116 116 118 127 127 129 111 111 113 133 133 135 135 135 137 139 139 141 127 127 129 127 127 129 124 124 126 141 141 143 136 136 138 136 136 138 137 137 139 117 117 119 119 119 121 130 130 132 118 118 120 137 137 139 123 123 125 139 139 141 144 144 146 138 138 140 114 114 116 129 129 131 121 121 123 119 119 121 130 130 132 128 128 130 122 122 124 123 123 125 136 136 138 133 133 135 133 133 135 138 138 140 117 117 119 140 140 142 127 127 129 135 135 137 119 119 121 129 129 131 112 112 114 135 135 137 140 140 142 134 134 136 115 115 117 113 113 115 122 122 124 144 144 146 127 127 129 127 127 129 146 146 148 134 134 136 138 138 140 113 113 115 118 118 120 128 128 130 139 139 141 123 123 125 125 125 127 120 120 122 132 132 134 144 144 146 119 119 121 127 127 129 116 116 118 124 124 126 122 122 124 119 119 121 119 119 121 109 109 111 133 133 135 131 131 133 136 136 138 137 137 139 124 124 126 137 137 139 132 132 134 138 138 140 125 125 127 119 119 121 129 129 131 133 133 135 125 125 127 113 113 115 130 130 132 136 136 138 142 142 144 126 126 128 
134 134 136 130 130 132 136 136 138 135 135 137 135 135 137 138 138 140 133 133 135 144 144 146 116 116 118 140 140 142 124 124 126 121 121 123 120 120 122 129 129 131 135 135 137 120 120 122 133 133 135 117 117 119 135 135 137 124 124 126 124 124 126 125 125 127 125 125 127 133 133 135 122 122 124 120 120 122 124 124 126 118 118 120 142 142 144 111 111 113 123 123 125 145 145 147 124 124 126 137 137 139 125 125 127 130 130 132 127 127 129 138 138 140 108 108 110 112 112 114 125 125 127 117 117 119 134 134 136 134 134 136 116 116 118 142 142 144 108 108 110 116 116 118 140 140 142 111 111 113 117 117 119 108 108 110 132 132 134 130 130 132 110 110 112 121 121 123 123 123 125 126 126 128 126 126 128 144 144 146 144 144 146 127 127 129 130 130 132 139 139 141 121 121 123 126 126 128 132 132 134 127 127 129 131 131 133 128 128 130 116 116 118 127 127 129 138 138 140 141 141 143 114 114 116 119 119 121 122 122 124 126 126 128 129 129 131 141 141 143 145 145 147 140 140 142 139 139 141 138 138 140 126 126 128 120 120 122 130 130 132 121 121 123 121 121 123 128 128 130 130 130 132 120 120 122 124 124 126 139 139 141 134 134 136 130 130 132 118 118 120 132 132 134 119 119 121 120 120 122 135 135 137 114 114 116 133 133 135 117 117 119 127 127 129 126 126 128 136 136 138 120 120 122 116 116 118 147 147 149 108 108 110 140 140 142 131 131 133 134 134 136 122 122 124 121 121 123 117 117 119 116 116 118 135 135 137 117 117 119 119 119 121 135 135 137 140 140 142 143 143 145 125 125 127 142 142 144 126 126 128 117 117 119 127 127 129 145 145 147 118 118 120 135 135 137 130 130 132 116 116 118 127 127 129 121 121 123 126 126 128 143 143 145 122 122 124 117 117 119 120 120 122 110 110 112 134 134 136 128 128 130 116 116 118 136 136 138 145 145 147 126 126 128 120 120 122 127 127 129 127 127 129 129 129 131 117 117 119 111 111 113 123 123 125 123 123 125 140 140 142 120 120 122 117 117 119 117 117 119 134 134 136 143 143 145 135 135 137 128 128 130 132 132 134 125 125 127 141 141 143 122 122 124 128 128 130 144 144 146 129 129 131 122 122 124 129 129 131 112 112 114 111 111 113 129 129 131 134 134 136 140 140 142 139 139 141 121 121 123 129 129 131 137 137 139 138 138 140 137 137 139 141 141 143 127 127 129 142 142 144 142 142 144 118 118 120 134 134 136 143 143 145 129 129 131 129 129 131 132 132 134 116 116 118 120 120 122 132 132 134 124 124 126 119 119 121 129 129 131 129 129 131 125 125 127 128 128 130 131 131 133 133 133 135 118 118 120 127 127 129 116 116 118 134 134 136 135 135 137 126 126 128 119 119 121 118 118 120 130 130 132 131 131 133 146 146 148 115 115 117 136 136 138 137 137 139 118 118 120 117 117 119 118 118 120 134 134 136 119 119 121 130 130 132 117 117 119 127 127 129 126 126 128 127 127 129 142 142 144 137 137 139 127 127 129 132 132 134 123 123 125 131 131 133 132 132 134 136 136 138 139 139 141 118 118 120 137 137 139 126 126 128 136 136 138 130 130 132 127 127 129 112 112 114 128 128 130 122 122 124 127 127 129 117 117 119 118 118 120 139 139 141 110 110 112 115 115 117 127 127 129 123 123 125 136 136 138 
126 126 128 113 113 115 134 134 136 142 142 144 130 130 132 143 143 145 138 138 140 123 123 125 131 131 133 125 125 127 129 129 131 121 121 123 127 127 129 124 124 126 131 131 133 126 126 128 117 117 119 125 125 127 133 133 135 145 145 147 135 135 137 127 127 129 124 124 126 130 130 132 132 132 134 110 110 112 136 136 138 131 131 133 120 120 122 115 115 117 126 126 128 126 126 128 148 148 150 128 128 130 133 133 135 143 143 145 125 125 127 119 119 121 117 117 119 130 130 132 142 142 144 112 112 114 131 131 133 124 124 126 135 135 137 118 118 120 117 117 119 118 118 120 135 135 137 112 112 114 135 135 137 119 119 121 134 134 136 116 116 118 130 130 132 123 123 125 131 131 133 128 128 130 128 128 130 122 122 124 138 138 140 131 131 133 140 140 142 119 119 121 133 133 135 125 125 127 125 125 127 115 115 117 139 139 141 140 140 142 142 142 144 141 141 143 131 131 133 114 114 116 122 122 124 138 138 140 132 132 134 143 143 145 141 141 143 109 109 111 114 114 116 139 139 141 120 120 122 148 148 150 128 128 130 127 127 129 127 127 129 133 133 135 126 126 128 107 107 109 120 120 122 118 118 120 114 114 116 110 110 112 117 117 119 138 138 140 114 114 116 142 142 144 118 118 120 129 129 131 137 137 139 131 131 133 139 139 141 117 117 119 139 139 141 108 108 110 130 130 132 137 137 139 134 134 136 127 127 129 133 133 135 141 141 143 127 127 129 119 119 121 129 129 131 138 138 140 132 132 134 108 108 110 130 130 132 124 124 126 113 113 115 121 121 123 137 137 139 121 121 123 132 132 134 139 139 141 139 139 141 137 137 139 123 123 125 141 141 143 118 118 120 142 142 144 110 110 112 115 115 117 143 143 145 138 138 140 130 130 132 106 106 108 134 134 136 144 144 146 126 126 128 110 110 112 134 134 136 111 111 113 120 120 122 120 120 122 127 127 129 133 133 135 138 138 140 145 145 147 146 146 148 109 109 111 114 114 116 130 130 132 143 143 145 125 125 127 118 118 120 129 129 131 132 132 134 129 129 131 121 121 123 126 126 128 129 129 131 135 135 137 128 128 130 140 140 142 121 121 123 143 143 145 135 135 137 118 118 120 114 114 116 131 131 133 140 140 142 128 128 130 143 143 145 110 110 112 130 130 132 126 126 128 108 108 110 123 123 125 142 142 144 125 125 127 142 142 144 112 112 114 141 141 143 144 144 146 129 129 131 121 121 123 143 143 145 114 114 116 144 144 146 138 138 140 137 137 139 134 134 136 120 120 122 124 124 126 144 144 146 132 132 134 115 115 117 126 126 128 133 133 135 122 122 124 114 114 116 134 134 136 134 134 136 134 134 136 139 139 141 114 114 116 133 133 135 133 133 135 119 119 121 127 127 129 118 118 120 119 119 121 139 139 141 126 126 128 139 139 141 117 117 119 129 129 131 126 126 128 140 140 142 116 116 118 136 136 138 133 133 135 128 128 130 130 130 132 126 126 128 129 129 131 133 133 135 125 125 127 115 115 117 120 120 122 125 125 127 118 118 120 121 121 123 136 136 138 137 137 139 127 127 129 134 134 136 131 131 133 118 118 120 116 116 118 147 147 149 133 133 135 132 132 134 127 127 129 112 112 114 122 122 124 139 139 141 129 129 131 115 115 117 119 119 121 135 135 137 120 120 122 132 132 134 123 123 125 
121 121 123 116 116 118 132 132 134 119 119 121 132 132 134 119 119 121 136 136 138 123 123 125 141 141 143 114 114 116 129 129 131 126 126 128 130 130 132 141 141 143 115 115 117 116 116 118 126 126 128 124 124 126 137 137 139 114 114 116 126 126 128 124 124 126 115 115 117 116 116 118 147 147 149 118 118 120 136 136 138 124 124 126 120 120 122 118 118 120 115 115 117 137 137 139 130 130 132 112 112 114 138 138 140 139 139 141 119 119 121 117 117 119 120 120 122 124 124 126 146 146 148 121 121 123 132 132 134 137 137 139 137 137 139 125 125 127 106 106 108 133 133 135 134 134 136 131 131 133 114 114 116 127 127 129 115 115 117 120 120 122 142 142 144 127 127 129 134 134 136 110 110 112 125 125 127 134 134 136 113 113 115 137 137 139 124 124 126 120 120 122 126 126 128 115 115 117 125 125 127 117 117 119 122 122 124 136 136 138 128 128 130 120 120 122 130 130 132 145 145 147 140 140 142 118 118 120 130 130 132 122 122 124 130 130 132 114 114 116 120 120 122 136 136 138 137 137 139 123 123 125 122 122 124 149 149 151 123 123 125 125 125 127 122 122 124 119 119 121 125 125 127 130 130 132 135 135 137 137 137 139 132 132 134 122 122 124 117 117 119 139 139 141 117 117 119 120 120 122 139 139 141 128 128 130 127 127 129 140 140 142 121 121 123 134 134 136 115 115 117 138 138 140 132 132 134 132 132 134 131 131 133 136 136 138 133 133 135 138 138 140 137 137 139 110 110 112 137 137 139 134 134 136 108 108 110 128 128 130 137 137 139 135 135 137 116 116 118 134 134 136 112 112 114 124 124 126 131 131 133 124 124 126 116 116 118 120 120 122 146 146 148 139 139 141 140 140 142 114 114 116 122 122 124 140 140 142 116 116 118 143 143 145 141 141 143 119 119 121 141 141 143 132 132 134 148 148 150 121 121 123 119 119 121 137 137 139 142 142 144 117 117 119 129 129 131 116 116 118 128 128 130 129 129 131 144 144 146 123 123 125 123 123 125 142 142 144 120 120 122 146 146 148 126 126 128 136 136 138 120 120 122 128 128 130 143 143 145 138 138 140 126 126 128 132 132 134 134 134 136 128 128 130 129 129 131 131 131 133 130 130 132 142 142 144 145 145 147 134 134 136 123 123 125 121 121 123 124 124 126 114 114 116 123 123 125 127 127 129 119 119 121 144 144 146 111 111 113 120 120 122 121 121 123 143 143 145 136 136 138 145 145 147 109 109 111 131 131 133 139 139 141 137 137 139 122 122 124 112 112 114 113 113 115 128 128 130 114 114 116 134 134 136 121 121 123 136 136 138 114 114 116 144 144 146 135 135 137 125 125 127 115 115 117 135 135 137 139 139 141 118 118 120 132 132 134 131 131 133 136 136 138 124 124 126 117 117 119 124 124 126 144 144 146 132 132 134 139 139 141 128 128 130 108 108 110 127 127 129 131 131 133 117 117 119 126 126 128 126 126 128 123 123 125 136 136 138 128 128 130 145 145 147 127 127 129 128 128 130 133 133 135 114 114 116 119 119 121 117 117 119 138 138 140 137 137 139 129 129 131 126 126 128 114 114 116 137 137 139 120 120 122 132 132 134 123 123 125 136 136 138 137 137 139 124 124 126 135 135 137 123 123 125 135 135 137 115 115 117 132 132 134 133 133 135 129 129 131 128 128 130 135 135 137 130 130 132 
124 124 126 107 107 109 131 131 133 124 124 126 138 138 140 127 127 129 142 142 144 120 120 122 120 120 122 128 128 130 134 134 136 140 140 142 115 115 117 123 123 125 120 120 122 117 117 119 139 139 141 145 145 147 116 116 118 120 120 122 137 137 139 119 119 121 138 138 140 120 120 122 137 137 139 125 125 127 121 121 123 109 109 111 140 140 142 134 134 136 116 116 118 118 118 120 135 135 137 117 117 119 118 118 120 117 117 119 114 114 116 115 115 117 139 139 141 113 113 115 140 140 142 138 138 140 123 123 125 127 127 129 117 117 119 139 139 141 120 120 122 132 132 134 137 137 139 133 133 135 124 124 126 124 124 126 123 123 125 117 117 119 130 130 132 122 122 124 119 119 121 121 121 123 120 120 122 140 140 142 125 125 127 125 125 127 128 128 130 113 113 115 129 129 131 134 134 136 126 126 128 137 137 139 119 119 121 118 118 120 120 120 122 144 144 146 119 119 121 132 132 134 116 116 118 133 133 135 132 132 134 135 135 137 135 135 137 130 130 132 117 117 119 115 115 117 107 107 109 116 116 118 117 117 119 136 136 138 123 123 125 140 140 142 137 137 139 127 127 129 139 139 141 118 118 120 140 140 142 117 117 119 137 137 139 135 135 137 135 135 137 109 109 111 128 128 130 132 132 134 120 120 122 143 143 145 131 131 133 124 124 126 116 116 118 134 134 136 133 133 135 135 135 137 126 126 128 117 117 119 115 115 117 131 131 133 119 119 121 136 136 138 137 137 139 125 125 127 130 130 132 120 120 122 122 122 124 134 134 136 128 128 130 110 110 112 118 118 120 141 141 143 136 136 138 116 116 118 134 134 136 123 123 125 110 110 112 140 140 142 116 116 118 137 137 139 116 116 118 127 127 129 114 114 116 119 119 121 137 137 139 119 119 121 113 113 115 139 139 141 137 137 139 138 138 140 140 140 142 118 118 120 109 109 111 126 126 128 122 122 124 109 109 111 120 120 122 117 117 119 112 112 114 124 124 126 139 139 141 144 144 146 130 130 132 141 141 143 121 121 123 139 139 141 133 133 135 118 118 120 139 139 141 124 124 126 119 119 121 136 136 138 119 119 121 116 116 118 115 115 117 142 142 144 136 136 138 133 133 135 135 135 137 112 112 114 117 117 119 126 126 128 140 140 142 133 133 135 126 126 128 142 142 144 133 133 135 123 123 125 120 120 122 133 133 135 137 137 139 124 124 126 120 120 122 143 143 145 145 145 147 118 118 120 145 145 147 124 124 126 142 142 144 110 110 112 132 132 134 119 119 121 111 111 113 120 120 122 108 108 110 129 129 131 138 138 140 116 116 118 139 139 141 122 122 124 137 137 139 129 129 131 121 121 123 134 134 136 117 117 119 137 137 139 140 140 142 139 139 141 140 140 142 121 121 123 122 122 124 117 117 119 141 141 143 108 108 110 124 124 126 140 140 142 144 144 146 131 131 133 137 137 139 126 126 128 112 112 114 123 123 125 109 109 111 115 115 117 146 146 148 141 141 143 136 136 138 129 129 131 119 119 121 125 125 127 136 136 138 118 118 120 122 122 124 120 120 122 115 115 117 135 135 137 132 132 134 122 122 124 108 108 110 124 124 126 118 118 120 131 131 133 140 140 142 106 106 108 108 108 110 126 126 128 118 118 120 143 143 145 135 135 137 137 137 139 132 132 134 146 146 148 131 131 133 142 142 144 
118 118 120 118 118 120 131 131 133 117 117 119 125 125 127 132 132 134 118 118 120 109 109 111 133 133 135 126 126 128 109 109 111 126 126 128 128 128 130 122 122 124 138 138 140 138 138 140 126 126 128 141 141 143 139 139 141 129 129 131 125 125 127 122 122 124 137 137 139 119 119 121 130 130 132 125 125 127 119 119 121 113 113 115 142 142 144 134 134 136 131 131 133 145 145 147 138 138 140 120 120 122 132 132 134 138 138 140 140 140 142 134 134 136 116 116 118 109 109 111 117 117 119 123 123 125 117 117 119 121 121 123 141 141 143 122 122 124 132 132 134 115 115 117 118 118 120 129 129 131 136 136 138 143 143 145 134 134 136 121 121 123 106 106 108 134 134 136 126 126 128 118 118 120 119 119 121 113 113 115 127 127 129 137 137 139 146 146 148 120 120 122 120 120 122 115 115 117 125 125 127 137 137 139 134 134 136 120 120 122 127 127 129 110 110 112 132 132 134 122 122 124 114 114 116 125 125 127 132 132 134 130 130 132 119 119 121 146 146 148 137 137 139 122 122 124 120 120 122 130 130 132 131 131 133 132 132 134 128 128 130 124 124 126 129 129 131 116 116 118 143 143 145 146 146 148 123 123 125 122 122 124 114 114 116 127 127 129 128 128 130 137 137 139 135 135 137 141 141 143 137 137 139 129 129 131 132 132 134 136 136 138 123 123 125 110 110 112 136 136 138 130 130 132 137 137 139 118 118 120 127 127 129 120 120 122 128 128 130 143 143 145 135 135 137 147 147 149 115 115 117 134 134 136 142 142 144 132 132 134 132 132 134 117 117 119 119 119 121 112 112 114 134 134 136 127 127 129 125 125 127 126 126 128 113 113 115 147 147 149 133 133 135 111 111 113 136 136 138 135 135 137 123 123 125 114 114 116 115 115 117 142 142 144 117 117 119 134 134 136 116 116 118 144 144 146 106 106 108 125 125 127 117 117 119 123 123 125 131 131 133 120 120 122 127 127 129 113 113 115 138 138 140 140 140 142 124 124 126 120 120 122 130 130 132 136 136 138 137 137 139 128 128 130 120 120 122 143 143 145 136 136 138 127 127 129 124 124 126 116 116 118 109 109 111 118 118 120 122 122 124 118 118 120 120 120 122 135 135 137 129 129 131 133 133 135 135 135 137 135 135 137 118 118 120 138 138 140 145 145 147 116 116 118 119 119 121 126 126 128 121 121 123 142 142 144 132 132 134 114 114 116 116 116 118 142 142 144 124 124 126 130 130 132 123 123 125 127 127 129 121 121 123 126 126 128 118 118 120 137 137 139 144 144 146 135 135 137 120 120 122 109 109 111 141 141 143 147 147 149 128 128 130 141 141 143 130 130 132 129 129 131 128 128 130 118 118 120 143 143 145 137 137 139 130 130 132 124 124 126 119 119 121 123 123 125 140 140 142 119 119 121 129 129 131 122 122 124 108 108 110 134 134 136 123 123 125 128 128 130 111 111 113 138 138 140 146 146 148 127 127 129 144 144 146 139 139 141 127 127 129 126 126 128 127 127 129 113 113 115 123 123 125 137 137 139 113 113 115 106 106 108 113 113 115 136 136 138 142 142 144 135 135 137 146 146 148 147 147 149 142 142 144 136 136 138 117 117 119 135 135 137 135 135 137 134 134 136 135 135 137 119 119 121 127 127 129 111 111 113 121 121 123 123 123 125 133 133 135 116 116 118 136 136 138 133 133 135 
116 116 118 125 125 127 128 128 130 124 124 126 142 142 144 138 138 140 111 111 113 132 132 134 135 135 137 140 140 142 121 121 123 112 112 114 124 124 126 118 118 120 133 133 135 114 114 116 127 127 129 134 134 136 138 138 140 136 136 138 136 136 138 119 119 121 130 130 132 131 131 133 132 132 134 141 141 143 118 118 120 137 137 139 116 116 118 126 126 128 131 131 133 118 118 120 138 138 140 146 146 148 138 138 140 134 134 136 126 126 128 130 130 132 143 143 145 133 133 135 112 112 114 133 133 135 117 117 119 129 129 131 132 132 134 126 126 128 140 140 142 124 124 126 117 117 119 129 129 131 138 138 140 139 139 141 144 144 146 117 117 119 135 135 137 135 135 137 118 118 120 142 142 144 144 144 146 136 136 138 137 137 139 128 128 130 129 129 131 144 144 146 118 118 120 140 140 142 136 136 138 124 124 126 120 120 122 136 136 138 133 133 135 145 145 147 127 127 129 124 124 126 115 115 117 121 121 123 127 127 129 112 112 114 122 122 124 111 111 113 133 133 135 135 135 137 135 135 137 121 121 123 124 124 126 130 130 132 136 136 138 127 127 129 140 140 142 120 120 122 120 120 122 132 132 134 126 126 128 134 134 136 132 132 134 120 120 122 139 139 141 132 132 134 129 129 131 127 127 129 114 114 116 122 122 124 117 117 119 122 122 124 123 123 125 117 117 119 109 109 111 128 128 130 143 143 145 109 109 111 121 121 123 120 120 122 119 119 121 144 144 146 117 117 119 118 118 120 128 128 130 132 132 134 116 116 118 133 133 135 135 135 137 133 133 135 120 120 122 137 137 139 131 131 133 125 125 127 131 131 133 129 129 131 125 125 127 111 111 113 113 113 115 138 138 140 129 129 131 128 128 130 115 115 117 119 119 121 132 132 134 121 121 123 130 130 132 133 133 135 130 130 132 140 140 142 131 131 133 135 135 137 134 134 136 136 136 138 117 117 119 130 130 132 131 131 133 118 118 120 140 140 142 126 126 128 119 119 121 128 128 130 134 134 136 134 134 136 120 120 122 131 131 133 130 130 132 111 111 113 112 112 114 120 120 122 121 121 123 139 139 141 141 141 143 127 127 129 124 124 126 128 128 130 110 110 112 121 121 123 117 117 119 125 125 127 125 125 127 117 117 119 119 119 121 141 141 143 107 107 109 126 126 128 113 113 115 144 144 146 122 122 124 136 136 138 141 141 143 120 120 122 127 127 129 115 115 117 131 131 133 110 110 112 115 115 117 130 130 132 115 115 117 128 128 130 125 125 127 121 121 123 120 120 122 145 145 147 131 131 133 135 135 137 113 113 115 113 113 115 114 114 116 132 132 134 139 139 141 141 141 143 124 124 126 124 124 126 128 128 130 128 128 130 116 116 118 131 131 133 124 124 126 114 114 116 138 138 140 114 114 116 132 132 134 121 121 123 141 141 143 120 120 122 107 107 109 131 131 133 123 123 125 139 139 141 123 123 125 116 116 118 126 126 128 141 141 143 140 140 142 115 115 117 148 148 150 138 138 140 133 133 135 128 128 130 125 125 127 141 141 143 134 134 136 138 138 140 139 139 141 123 123 125 142 142 144 116 116 118 116 116 118 120 120 122 135 135 137 138 138 140 119 119 121 116 116 118 132 132 134 118 118 120 119 119 121 138 138 140 125 125 127 121 121 123 141 141 143 123 123 125 134 134 136 137 137 139 
132 132 134 132 132 134 120 120 122 141 141 143 127 127 129 124 124 126 144 144 146 133 133 135 131 131 133 140 140 142 139 139 141 137 137 139 123 123 125 118 118 120 127 127 129 136 136 138 128 128 130 143 143 145 136 136 138 140 140 142 139 139 141 136 136 138 133 133 135 141 141 143 137 137 139 137 137 139 112 112 114 144 144 146 110 110 112 135 135 137 125 125 127 114 114 116 118 118 120 137 137 139 124 124 126 125 125 127 114 114 116 129 129 131 130 130 132 122 122 124 127 127 129 122 122 124 136 136 138 129 129 131 133 133 135 122 122 124 116 116 118 145 145 147 131 131 133 116 116 118 133 133 135 129 129 131 123 123 125 114 114 116 137 137 139 140 140 142 119 119 121 146 146 148 120 120 122 130 130 132 121 121 123 119 119 121 112 112 114 115 115 117 136 136 138 109 109 111 133 133 135 143 143 145 125 125 127 114 114 116 132 132 134 112 112 114 107 107 109 130 130 132 138 138 140 133 133 135 138 138 140 125 125 127 141 141 143 114 114 116 126 126 128 144 144 146 120 120 122 130 130 132 135 135 137 131 131 133 128 128 130 124 124 126 139 139 141 135 135 137 120 120 122 133 133 135 142 142 144 131 131 133 143 143 145 139 139 141 125 125 127 145 145 147 114 114 116 117 117 119 138 138 140 138 138 140 124 124 126 113 113 115 140 140 142 118 118 120 108 108 110 121 121 123 120 120 122 123 123 125 139 139 141 134 134 136 132 132 134 126 126 128 139 139 141 121 121 123 124 124 126 130 130 132 116 116 118 113 113 115 113 113 115 123 123 125 130 130 132 139 139 141 131 131 133 135 135 137 118 118 120 132 132 134 126 126 128 129 129 131 132 132 134 136 136 138 139 139 141 134 134 136 135 135 137 131 131 133 113 113 115 143 143 145 132 132 134 140 140 142 138 138 140 135 135 137 115 115 117 120 120 122 135 135 137 131 131 133 120 120 122 124 124 126 117 117 119 112 112 114 127 127 129 125 125 127 128 128 130 135 135 137 130 130 132 136 136 138 126 126 128 124 124 126 119 119 121 122 122 124 116 116 118 146 146 148 136 136 138 119 119 121 135 135 137 121 121 123 128 128 130 111 111 113 129 129 131 126 126 128 121 121 123 115 115 117 142 142 144 138 138 140 134 134 136 134 134 136 113 113 115 135 135 137 123 123 125 123 123 125 134 134 136 140 140 142 125 125 127 123 123 125 127 127 129 108 108 110 125 125 127 138 138 140 123 123 125 139 139 141 119 119 121 132 132 134 148 148 150 137 137 139 135 135 137 134 134 136 127 127 129 135 135 137 139 139 141 127 127 129 139 139 141 125 125 127 138 138 140 126 126 128 112 112 114 114 114 116 122 122 124 124 124 126 125 125 127 120 120 122 117 117 119 123 123 125 118 118 120 127 127 129 135 135 137 120 120 122 129 129 131 114 114 116 141 141 143 135 135 137 135 135 137 123 123 125 113 113 115 140 140 142 127 127 129 134 134 136 126 126 128 114 114 116 135 135 137 135 135 137 145 145 147 132 132 134 130 130 132 117 117 119 131 131 133 137 137 139 115 115 117 123 123 125 140 140 142 115 115 117 128 128 130 138 138 140 134 134 136 113 113 115 124 124 126 144 144 146 140 140 142 148 148 150 139 139 141 127 127 129 139 139 141 114 114 116 138 138 140 141 141 143 130 130 132 114 114 116 
132 132 134 144 144 146 122 122 124 115 115 117 146 146 148 129 129 131 115 115 117 146 146 148 138 138 140 115 115 117 139 139 141 144 144 146 113 113 115 117 117 119 113 113 115 117 117 119 147 147 149 134 134 136 143 143 145 133 133 135 136 136 138 138 138 140 138 138 140 127 127 129 131 131 133 142 142 144 126 126 128 133 133 135 141 141 143 121 121 123 138 138 140 144 144 146 124 124 126 127 127 129 120 120 122 121 121 123 131 131 133 139 139 141 126 126 128 136 136 138 117 117 119 135 135 137 124 124 126 124 124 126 125 125 127 123 123 125 132 132 134 127 127 129 127 127 129 110 110 112 139 139 141 116 116 118 114 114 116 123 123 125 115 115 117 126 126 128 135 135 137 129 129 131 135 135 137 138 138 140 136 136 138 126 126 128 136 136 138 118 118 120 132 132 134 129 129 131 129 129 131 135 135 137 123 123 125 108 108 110 116 116 118 117 117 119 130 130 132 109 109 111 139 139 141 112 112 114 114 114 116 111 111 113 143 143 145 129 129 131 129 129 131 138 138 140 137 137 139 116 116 118 129 129 131 119 119 121 128 128 130 126 126 128 128 128 130 131 131 133 136 136 138 136 136 138 138 138 140 133 133 135 131 131 133 129 129 131 126 126 128 145 145 147 137 137 139 117 117 119 119 119 121 123 123 125 136 136 138 122 122 124 116 116 118 123 123 125 117 117 119 142 142 144 137 137 139 114 114 116 127 127 129 144 144 146 121 121 123 136 136 138 128 128 130 116 116 118 136 136 138 133 133 135 120 120 122 128 128 130 114 114 116 139 139 141 129 129 131 111 111 113 137 137 139 128 128 130 139 139 141 117 117 119 118 118 120 121 121 123 119 119 121 127 127 129 113 113 115 138 138 140 132 132 134 124 124 126 129 129 131 121 121 123 128 128 130 142 142 144 133 133 135 149 149 151 145 145 147 139 139 141 117 117 119 131 131 133 143 143 145 136 136 138 121 121 123 116 116 118 132 132 134 114 114 116 148 148 150 140 140 142 120 120 122 123 123 125 133 133 135 117 117 119 133 133 135 112 112 114 126 126 128 129 129 131 132 132 134 127 127 129 133 133 135 144 144 146 138 138 140 127 127 129 134 134 136 134 134 136 118 118 120 122 122 124 138 138 140 125 125 127 117 117 119 133 133 135 119 119 121 132 132 134 120 120 122 140 140 142 125 125 127 137 137 139 113 113 115 130 130 132 145 145 147 117 117 119 122 122 124 129 129 131 113 113 115 111 111 113 134 134 136 127 127 129 129 129 131 114 114 116 119 119 121 130 130 132 123 123 125 126 126 128 141 141 143 137 137 139 123 123 125 142 142 144 116 116 118 133 133 135 110 110 112 113 113 115 144 144 146 132 132 134 128 128 130 126 126 128 132 132 134 109 109 111 120 120 122 139 139 141 126 126 128 114 114 116 144 144 146 134 134 136 139 139 141 136 136 138 141 141 143 136 136 138 117 117 119 132 132 134 119 119 121 146 146 148 132 132 134 123 123 125 136 136 138 135 135 137 117 117 119 139 139 141 144 144 146 111 111 113 120 120 122 128 128 130 130 130 132 132 132 134 128 128 130 124 124 126 117 117 119 144 144 146 140 140 142 138 138 140 124 124 126 133 133 135 115 115 117 134 134 136 146 146 148 123 123 125 124 124 126 123 123 125 137 137 139 128 128 130 120 120 122 131 131 133 
132 132 134 129 129 131 126 126 128 110 110 112 133 133 135 131 131 133 111 111 113 114 114 116 140 140 142 108 108 110 121 121 123 124 124 126 139 139 141 122 122 124 132 132 134 130 130 132 143 143 145 142 142 144 122 122 124 112 112 114 120 120 122 131 131 133 139 139 141 118 118 120 144 144 146 116 116 118 132 132 134 131 131 133 114 114 116 137 137 139 144 144 146 113 113 115 126 126 128 132 132 134 117 117 119 115 115 117 144 144 146 131 131 133 121 121 123 116 116 118 130 130 132 128 128 130 128 128 130 135 135 137 130 130 132 130 130 132 110 110 112 128 128 130 113 113 115 139 139 141 114 114 116 126 126 128 118 118 120 118 118 120 120 120 122 116 116 118 142 142 144 127 127 129 129 129 131 109 109 111 119 119 121 121 121 123 133 133 135 129 129 131 117 117 119 137 137 139 122 122 124 113 113 115 121 121 123 138 138 140 124 124 126 121 121 123 133 133 135 145 145 147 142 142 144 133 133 135 134 134 136 114 114 116 114 114 116 145 145 147 131 131 133 141 141 143 117 117 119 119 119 121 124 124 126 119 119 121 128 128 130 119 119 121 128 128 130 124 124 126 109 109 111 118 118 120 139 139 141 121 121 123 136 136 138 119 119 121 121 121 123 134 134 136 135 135 137 115 115 117 127 127 129 129 129 131 125 125 127 128 128 130 136 136 138 131 131 133 137 137 139 118 118 120 130 130 132 143 143 145 149 149 151 122 122 124 139 139 141 136 136 138 120 120 122 129 129 131 133 133 135 129 129 131 131 131 133 139 139 141 137 137 139 137 137 139 134 134 136 119 119 121 127 127 129 128 128 130 123 123 125 134 134 136 129 129 131 124 124 126 129 129 131 137 137 139 136 136 138 145 145 147 119 119 121 146 146 148 117 117 119 138 138 140 114 114 116 113 113 115 117 117 119 113 113 115 126 126 128 137 137 139 122 122 124 123 123 125 138 138 140 115 115 117 143 143 145 130 130 132 122 122 124 125 125 127 131 131 133 121 121 123 136 136 138 126 126 128 139 139 141 127 127 129 118 118 120 147 147 149 121 121 123 122 122 124 143 143 145 108 108 110 123 123 125 122 122 124 133 133 135 129 129 131 118 118 120 122 122 124 118 118 120 137 137 139 116 116 118 121 121 123 126 126 128 131 131 133 118 118 120 124 124 126 139 139 141 145 145 147 133 133 135 138 138 140 116 116 118 141 141 143 123 123 125 141 141 143 123 123 125 133 133 135 118 118 120 109 109 111 125 125 127 138 138 140 126 126 128 136 136 138 114 114 116 127 127 129 143 143 145 119 119 121 124 124 126 138 138 140 148 148 150 117 117 119 111 111 113 131 131 133 116 116 118 126 126 128 115 115 117 147 147 149 124 124 126 111 111 113 138 138 140 125 125 127 128 128 130 125 125 127 137 137 139 121 121 123 144 144 146 127 127 129 132 132 134 124 124 126 114 114 116 146 146 148 119 119 121 111 111 113 126 126 128 120 120 122 126 126 128 117 117 119 129 129 131 124 124 126 119 119 121 115 115 117 131 131 133 133 133 135 143 143 145 122 122 124 115 115 117 129 129 131 137 137 139 107 107 109 135 135 137 116 116 118 129 129 131 128 128 130 116 116 118 147 147 149 116 116 118 134 134 136 126 126 128 133 133 135 140 140 142 123 123 125 120 120 122 130 130 132 138 138 140 134 134 136 
110 110 112 129 129 131 123 123 125 142 142 144 138 138 140 127 127 129 116 116 118 143 143 145 126 126 128 133 133 135 133 133 135 107 107 109 137 137 139 137 137 139 119 119 121 131 131 133 139 139 141 119 119 121 141 141 143 141 141 143 137 137 139 129 129 131 140 140 142 116 116 118 140 140 142 139 139 141 120 120 122 116 116 118 115 115 117 127 127 129 122 122 124 135 135 137 131 131 133 135 135 137 128 128 130 119 119 121 137 137 139 120 120 122 115 115 117 119 119 121 135 135 137 125 125 127 123 123 125 117 117 119 146 146 148 138 138 140 113 113 115 121 121 123 130 130 132 140 140 142 136 136 138 139 139 141 117 117 119 125 125 127 142 142 144 119 119 121 121 121 123 145 145 147 115 115 117 124 124 126 141 141 143 143 143 145 124 124 126 145 145 147 137 137 139 135 135 137 117 117 119 116 116 118 108 108 110 114 114 116 129 129 131 119 119 121 120 120 122 126 126 128 112 112 114 116 116 118 139 139 141 130 130 132 119 119 121 117 117 119 136 136 138 108 108 110 141 141 143 111 111 113 125 125 127 139 139 141 128 128 130 124 124 126 121 121 123 124 124 126 123 123 125 120 120 122 136 136 138 109 109 111 129 129 131 142 142 144 124 124 126 139 139 141 115 115 117 135 135 137 141 141 143 122 122 124 135 135 137 124 124 126 124 124 126 126 126 128 132 132 134 132 132 134 138 138 140 125 125 127 114 114 116 128 128 130 134 134 136 115 115 117 131 131 133 129 129 131 134 134 136 120 120 122 135 135 137 115 115 117 117 117 119 130 130 132 142 142 144 121 121 123 123 123 125 116 116 118 129 129 131 128 128 130 138 138 140 136 136 138 143 143 145 146 146 148 126 126 128 131 131 133 120 120 122 123 123 125 108 108 110 141 141 143 123 123 125 130 130 132 135 135 137 138 138 140 132 132 134 144 144 146 138 138 140 142 142 144 133 133 135 126 126 128 117 117 119 146 146 148 118 118 120 118 118 120 139 139 141 147 147 149 142 142 144 112 112 114 124 124 126 136 136 138 136 136 138 141 141 143 125 125 127 125 125 127 115 115 117 122 122 124 133 133 135 109 109 111 142 142 144 128 128 130 126 126 128 132 132 134 112 112 114 136 136 138 128 128 130 133 133 135 138 138 140 128 128 130 120 120 122 115 115 117 136 136 138 146 146 148 126 126 128 139 139 141 119 119 121 129 129 131 108 108 110 128 128 130 140 140 142 123 123 125 114 114 116 131 131 133 131 131 133 122 122 124 145 145 147 123 123 125 122 122 124 124 124 126 123 123 125 138 138 140 142 142 144 137 137 139 126 126 128 125 125 127 128 128 130 127 127 129 110 110 112 119 119 121 131 131 133 122 122 124 116 116 118 109 109 111 138 138 140 141 141 143 145 145 147 115 115 117 138 138 140 116 116 118 130 130 132 138 138 140 135 135 137 135 135 137 132 132 134 121 121 123 135 135 137 113 113 115 145 145 147 131 131 133 134 134 136 140 140 142 138 138 140 133 133 135 134 134 136 132 132 134 126 126 128 121 121 123 117 117 119 141 141 143 125 125 127 117 117 119 114 114 116 131 131 133 116 116 118 113 113 115 117 117 119 127 127 129 118 118 120 129 129 131 138 138 140 133 133 135 136 136 138 118 118 120 117 117 119 131 131 133 119 119 121 133 133 135 114 114 116 127 127 129 
140 140 142 134 134 136 128 128 130 123 123 125 122 122 124 123 123 125 126 126 128 137 137 139 127 127 129 130 130 132 131 131 133 132 132 134 139 139 141 131 131 133 121 121 123 136 136 138 125 125 127 136 136 138 127 127 129 110 110 112 138 138 140 127 127 129 128 128 130 110 110 112 142 142 144 119 119 121 117 117 119 136 136 138 124 124 126 133 133 135 114 114 116 129 129 131 139 139 141 145 145 147 126 126 128 127 127 129 123 123 125 121 121 123 128 128 130 140 140 142 112 112 114 126 126 128 133 133 135 113 113 115 126 126 128 132 132 134 116 116 118 116 116 118 137 137 139 114 114 116 125 125 127 127 127 129 146 146 148 137 137 139 141 141 143 123 123 125 132 132 134 139 139 141 143 143 145 136 136 138 137 137 139 121 121 123 109 109 111 118 118 120 137 137 139 116 116 118 118 118 120 120 120 122 147 147 149 108 108 110 123 123 125 124 124 126 127 127 129 117 117 119 129 129 131 124 124 126 115 115 117 121 121 123 140 140 142 128 128 130 123 123 125 112 112 114 136 136 138 131 131 133 130 130 132 108 108 110 136 136 138 142 142 144 139 139 141 145 145 147 124 124 126 121 121 123 132 132 134 113 113 115 113 113 115 130 130 132 123 123 125 122 122 124 135 135 137 129 129 131 114 114 116 115 115 117 109 109 111 124 124 126 139 139 141 118 118 120 142 142 144 141 141 143 130 130 132 139 139 141 143 143 145 128 128 130 128 128 130 137 137 139 117 117 119 122 122 124 129 129 131 130 130 132 118 118 120 134 134 136 127 127 129 136 136 138 121 121 123 137 137 139 141 141 143 138 138 140 120 120 122 117 117 119 111 111 113 130 130 132 143 143 145 136 136 138 119 119 121 125 125 127 137 137 139 120 120 122 121 121 123 126 126 128 148 148 150 120 120 122 142 142 144 142 142 144 137 137 139 131 131 133 126 126 128 122 122 124 112 112 114 126 126 128 129 129 131 117 117 119 122 122 124 135 135 137 136 136 138 128 128 130 135 135 137 130 130 132 125 125 127 121 121 123 112 112 114 127 127 129 119 119 121 137 137 139 123 123 125 133 133 135 112 112 114 142 142 144 138 138 140 124 124 126 133 133 135 120 120 122 132 132 134 116 116 118 127 127 129 134 134 136 120 120 122 129 129 131 120 120 122 113 113 115 127 127 129 136 136 138 118 118 120 141 141 143 144 144 146 120 120 122 115 115 117 115 115 117 130 130 132 130 130 132 119 119 121 129 129 131 120 120 122 132 132 134 136 136 138 136 136 138 127 127 129 141 141 143 110 110 112 125 125 127 124 124 126 133 133 135 138 138 140 120 120 122 122 122 124 140 140 142 133 133 135 124 124 126 133 133 135 137 137 139 135 135 137 116 116 118 131 131 133 109 109 111 139 139 141 142 142 144 132 132 134 127 127 129 109 109 111 116 116 118 120 120 122 134 134 136 117 117 119 119 119 121 132 132 134 136 136 138 130 130 132 118 118 120 118 118 120 129 129 131 123 123 125 110 110 112 133 133 135 115 115 117 133 133 135 124 124 126 133 133 135 146 146 148 136 136 138 128 128 130 125 125 127 128 128 130 112 112 114 124 124 126 125 125 127 137 137 139 126 126 128 129 129 131 145 145 147 119 119 121 127 127 129 115 115 117 122 122 124 130 130 132 133 133 135 130 130 132 122 122 124 141 141 143 
127 127 129 135 135 137 128 128 130 121 121 123 112 112 114 139 139 141 143 143 145 128 128 130 130 130 132 120 120 122 136 136 138 118 118 120 124 124 126 130 130 132 124 124 126 119 119 121 128 128 130 125 125 127 132 132 134 135 135 137 124 124 126 137 137 139 141 141 143 111 111 113 126 126 128 125 125 127 115 115 117 121 121 123 140 140 142 121 121 123 136 136 138 141 141 143 129 129 131 140 140 142 111 111 113 120 120 122 142 142 144 131 131 133 141 141 143 138 138 140 122 122 124 130 130 132 138 138 140 135 135 137 126 126 128 136 136 138 135 135 137 118 118 120 120 120 122 128 128 130 141 141 143 125 125 127 140 140 142 129 129 131 132 132 134 134 134 136 140 140 142 135 135 137 128 128 130 135 135 137 130 130 132 112 112 114 139 139 141 129 129 131 121 121 123 136 136 138 113 113 115 138 138 140 146 146 148 124 124 126 116 116 118 128 128 130 125 125 127 125 125 127 120 120 122 136 136 138 113 113 115 147 147 149 136 136 138 121 121 123 124 124 126 117 117 119 130 130 132 126 126 128 122 122 124 114 114 116 132 132 134 127 127 129 128 128 130 123 123 125 123 123 125 138 138 140 136 136 138 108 108 110 124 124 126 124 124 126 122 122 124 141 141 143 122 122 124 126 126 128 134 134 136 135 135 137 108 108 110 126 126 128 120 120 122 135 135 137 120 120 122 123 123 125 113 113 115 130 130 132 138 138 140 119 119 121 123 123 125 115 115 117 112 112 114 127 127 129 133 133 135 130 130 132 113 113 115 114 114 116 139 139 141 136 136 138 141 141 143 137 137 139 136 136 138 130 130 132 129 129 131 132 132 134 128 128 130 126 126 128 136 136 138 138 138 140 127 127 129 136 136 138 133 133 135 135 135 137 111 111 113 125 125 127 135 135 137 123 123 125 115 115 117 135 135 137 126 126 128 133 133 135 113 113 115 132 132 134 137 137 139 129 129 131 128 128 130 121 121 123 146 146 148 138 138 140 129 129 131 135 135 137 122 122 124 137 137 139 122 122 124 124 124 126 117 117 119 127 127 129 132 132 134 136 136 138 127 127 129 141 141 143 115 115 117 141 141 143 132 132 134 120 120 122 116 116 118 124 124 126 118 118 120 137 137 139 113 113 115 125 125 127 125 125 127 115 115 117 134 134 136 139 139 141 134 134 136 129 129 131 143 143 145 123 123 125 132 132 134 137 137 139 129 129 131 121 121 123 144 144 146 139 139 141 133 133 135 121 121 123 112 112 114 119 119 121 130 130 132 126 126 128 122 122 124 120 120 122 143 143 145 135 135 137 134 134 136 119 119 121 118 118 120 121 121 123 118 118 120 129 129 131 122 122 124 133 133 135 136 136 138 123 123 125 119 119 121 119 119 121 130 130 132 129 129 131 120 120 122 135 135 137 124 124 126 136 136 138 124 124 126 117 117 119 135 135 137 135 135 137 121 121 123 146 146 148 130 130 132 109 109 111 114 114 116 137 137 139 129 129 131 128 128 130 125 125 127 120 120 122 125 125 127 128 128 130 125 125 127 125 125 127 124 124 126 135 135 137 135 135 137 136 136 138 109 109 111 116 116 118 121 121 123 136 136 138 145 145 147 133 133 135 130 130 132 134 134 136 139 139 141 116 116 118 149 149 151 111 111 113 148 148 150 136 136 138 122 122 124 135 135 137 141 141 143 129 129 131 
